(1-screws-6o.nc)
(----------------------------------------------------------------)
( Generated for RhinoCam to export for CNC-STEP models Raptor X-SL3000s20 / T-Rex1215 )
( Postprocessor written at FabLab BCN/IaaC by eduardo.chamorro@iaac.net )
( Last edit : 22 January - 2019 )
(----------------------------------------------------------------)
(Stock Size X = 2440.0000, Y =  1220.0000, Z = 15.0000)
(Home Origin X =  0, Y = 0, Z = 0)
(Units = MM, Spindle Speed = 18000)
(Max cut depth = Z-15.0000)
(Tool dia= 6.0 mm, Tool length= 90.0 mm)(WARNING!-CHECK YOUR TOOL)
(-------------------------------------------------------------)
%
G90
G64
M7
M8
T1
S24000
M3
G1 X2412.1491 Y67.1561 Z6.0000 F12000.
G0 Z5.0000
G81 X2412.1491 Y67.1561 Z-2.0000 R5.0000 F3500.0
G80
G1 X2190.8027 Y214.4920 Z6.0000 F12000.
G0 Z5.0000
G81 X2190.8027 Y214.4920 Z-2.0000 R5.0000 F3500.0
G80
G1 X2003.0352 Y32.8920 Z6.0000 F12000.
G0 Z5.0000
G81 X2003.0352 Y32.8920 Z-2.0000 R5.0000 F3500.0
G80
G1 X1678.6310 Y505.1841 Z6.0000 F12000.
G0 Z5.0000
G81 X1678.6310 Y505.1841 Z-2.0000 R5.0000 F3500.0
G80
G1 X1434.1349 Y863.3235 Z6.0000 F12000.
G0 Z5.0000
G81 X1434.1349 Y863.3235 Z-2.0000 R5.0000 F3500.0
G80
G1 X1614.7251 Y1186.7857 Z6.0000 F12000.
G0 Z5.0000
G81 X1614.7251 Y1186.7857 Z-2.0000 R5.0000 F3500.0
G80
G1 X1252.0138 Y1191.4947 Z6.0000 F12000.
G0 Z5.0000
G81 X1252.0138 Y1191.4947 Z-2.0000 R5.0000 F3500.0
G80
G1 X892.2403 Y1194.2359 Z6.0000 F12000.
G0 Z5.0000
G81 X892.2403 Y1194.2359 Z-2.0000 R5.0000 F3500.0
G80
G1 X549.0660 Y849.6511 Z6.0000 F12000.
G0 Z5.0000
G81 X549.0660 Y849.6511 Z-2.0000 R5.0000 F3500.0
G80
G1 X523.7434 Y337.7424 Z6.0000 F12000.
G0 Z5.0000
G81 X523.7434 Y337.7424 Z-2.0000 R5.0000 F3500.0
G80
G1 X824.8019 Y24.7006 Z6.0000 F12000.
G0 Z5.0000
G81 X824.8019 Y24.7006 Z-2.0000 R5.0000 F3500.0
G80
G1 X1145.6778 Y484.1165 Z6.0000 F12000.
G0 Z5.0000
G81 X1145.6778 Y484.1165 Z-2.0000 R5.0000 F3500.0
G80
G1 X2191.1763 Y681.8743 Z6.0000 F12000.
G0 Z5.0000
G81 X2191.1763 Y681.8743 Z-2.0000 R5.0000 F3500.0
G80
G1 X2417.8038 Y684.6947 Z6.0000 F12000.
G0 Z5.0000
G81 X2417.8038 Y684.6947 Z-2.0000 R5.0000 F3500.0
G80
G1 X2192.3221 Y1187.8301 Z6.0000 F12000.
G0 Z5.0000
G81 X2192.3221 Y1187.8301 Z-2.0000 R5.0000 F3500.0
G80
G1 X17.4021 Y1204.7859 Z6.0000 F12000.
G0 Z5.0000
G81 X17.4021 Y1204.7859 Z-2.0000 R5.0000 F3500.0
G80
G1 X32.8636 Y815.2572 Z6.0000 F12000.
G0 Z5.0000
G81 X32.8636 Y815.2572 Z-2.0000 R5.0000 F3500.0
G80
G1 X37.6395 Y495.2749 Z6.0000 F12000.
G0 Z5.0000
G81 X37.6395 Y495.2749 Z-2.0000 R5.0000 F3500.0
G80
G1 X17.4740 Y18.2084 Z6.0000 F12000.
G0 Z5.0000
G81 X17.4740 Y18.2084 Z-2.0000 R5.0000 F3500.0
G80
G1 X17.4740 Y18.2084 Z6.0000 F12000.
M9
M5
M30
(--THE END - THANK YOU FOR USING THIS AWESOME POSTPROCESSOR---)
