(2-pock-prof-in-out-6o.nc)
(----------------------------------------------------------------)
( Generated for RhinoCam to export for CNC-STEP models Raptor X-SL3000s20 / T-Rex1215 )
( Postprocessor written at FabLab BCN/IaaC by eduardo.chamorro@iaac.net )
( Last edit : 22 January - 2019 )
(----------------------------------------------------------------)
(Stock Size X = 2440.0000, Y =  1220.0000, Z = 15.0000)
(Home Origin X =  0, Y = 0, Z = 0)
(Units = MM, Spindle Speed = 18000)
(Max cut depth = Z-15.0000)
(Tool dia= 6.0 mm, Tool length= 90.0 mm)(WARNING!-CHECK YOUR TOOL)
(-------------------------------------------------------------)
%
G90
G64
M7
M8
T2
S24000
M3
G1 X92.7675 Y1140.8404 Z10.0000 F12000.
G1 X92.7675 Y1140.8404 Z-1.3000 F4000.
G1 X92.7675 Y1140.8404 Z-1.9000
G1 X92.7675 Y1141.6671 Z-2.0458
G1 X92.7140 Y1142.2239 Z-2.1444
G1 X92.6414 Y1142.4677 Z-2.1893
G1 X92.5266 Y1142.6853 Z-2.2326
G1 X92.3893 Y1142.8548 Z-2.2711
G1 X92.2305 Y1142.9873 Z-2.3076
G1 X92.0441 Y1143.0888 Z-2.3450
G1 X91.8493 Y1143.1485 Z-2.3809
G1 X91.6675 Y1143.1665 Z-2.4131
G1 X91.4856 Y1143.1485 Z-2.4454
G1 X91.2909 Y1143.0888 Z-2.4813
G1 X91.1976 Y1143.0381 Z-2.5000
G3 X90.5675 Y1141.6671 I0.6821 J-1.1439 F3500.
G1 X90.5675 Y910.7920 Z-2.5000
G3 X92.5266 Y909.7739 I1.0591 J-0.3559
G3 X92.7675 Y910.7920 I-1.3691 J0.8615
G1 X92.7675 Y1141.6671 Z-2.5000
G3 X91.1976 Y1143.0381 I-1.1037 J0.3204
G1 X90.3376 Y1144.6193 Z-2.5000
G3 X88.7675 Y1141.7534 I1.4629 J-2.6645
G1 X88.7675 Y910.7058 Z-2.5000
G3 X91.6675 Y907.4838 I2.9000 J-0.3059
G3 X94.5675 Y910.7058 I0.0000 J2.9161
G1 X94.5675 Y1141.7534 Z-2.5000
G3 X90.3376 Y1144.6193 I-2.8925 J0.2854
G1 X89.4775 Y1146.2005 Z-2.5000
G3 X86.9675 Y1141.8397 I2.2621 J-4.2048
G1 X86.9675 Y910.6195 Z-2.5000
G3 X91.6675 Y905.6750 I4.7000 J-0.2384
G3 X96.3675 Y910.6195 I0.0000 J4.7061
G1 X96.3675 Y1141.8397 Z-2.5000
G3 X89.4775 Y1146.2005 I-4.6827 J0.2249
G1 X89.4775 Y1146.2005 Z10.0000 F12000.
G1 X91.1976 Y1143.0381 Z10.0000 F12000.
G1 X91.1976 Y1143.0381 Z-5.0000 F4000.
G3 X90.5675 Y1141.6671 I0.6821 J-1.1439 F3500.
G1 X90.5675 Y910.7920 Z-5.0000
G3 X92.5266 Y909.7739 I1.0591 J-0.3559
G3 X92.7675 Y910.7920 I-1.3691 J0.8615
G1 X92.7675 Y1141.6671 Z-5.0000
G3 X91.1976 Y1143.0381 I-1.1037 J0.3204
G1 X90.3376 Y1144.6193 Z-5.0000
G3 X88.7675 Y1141.7534 I1.4629 J-2.6645
G1 X88.7675 Y910.7058 Z-5.0000
G3 X91.6675 Y907.4838 I2.9000 J-0.3059
G3 X94.5675 Y910.7058 I0.0000 J2.9161
G1 X94.5675 Y1141.7534 Z-5.0000
G3 X90.3376 Y1144.6193 I-2.8925 J0.2854
G1 X89.4775 Y1146.2005 Z-5.0000
G3 X86.9675 Y1141.8397 I2.2621 J-4.2048
G1 X86.9675 Y910.6195 Z-5.0000
G3 X91.6675 Y905.6750 I4.7000 J-0.2384
G3 X96.3675 Y910.6195 I0.0000 J4.7061
G1 X96.3675 Y1141.8397 Z-5.0000
G3 X89.4775 Y1146.2005 I-4.6676 J0.2488
G1 X89.9843 Y1145.2688 Z-3.9393 F4000.
G1 X89.9843 Y1145.2688 Z-3.3393
G1 X89.9843 Y1145.2688 Z10.0000 F12000.
G1 X452.7675 Y1140.0631 Z10.0000 F12000.
G1 X452.7675 Y1140.0631 Z-1.3000 F4000.
G1 X452.7675 Y1140.0631 Z-1.9000
G1 X452.7675 Y1141.6671 Z-2.1828
G1 X452.7140 Y1142.2239 Z-2.2815
G1 X452.6414 Y1142.4677 Z-2.3263
G1 X452.5266 Y1142.6853 Z-2.3697
G1 X452.3893 Y1142.8548 Z-2.4081
G1 X452.2305 Y1142.9873 Z-2.4446
G1 X452.0441 Y1143.0888 Z-2.4820
G1 X451.9467 Y1143.1186 Z-2.5000
G3 X450.5675 Y1141.6671 I-0.2537 J-1.1399 F3500.
G1 X450.5675 Y910.7920 Z-2.5000
G3 X452.5266 Y909.7739 I1.0591 J-0.3559
G3 X452.7675 Y910.7920 I-1.3691 J0.8615
G1 X452.7675 Y1141.6671 Z-2.5000
G3 X451.9467 Y1143.1186 I-1.2779 J0.2353
G1 X452.4748 Y1144.8394 Z-2.5000
G3 X448.7675 Y1141.7534 I-0.8014 J-2.8071
G1 X448.7675 Y910.7058 Z-2.5000
G3 X451.6675 Y907.4838 I2.9000 J-0.3059
G3 X454.5675 Y910.7058 I0.0000 J2.9161
G1 X454.5675 Y1141.7534 Z-2.5000
G3 X452.4748 Y1144.8394 I-3.0193 J0.2052
G1 X453.0030 Y1146.5602 Z-2.5000
G3 X446.9675 Y1141.8397 I-1.3442 J-4.5000
G1 X446.9675 Y910.6195 Z-2.5000
G3 X451.6675 Y905.6750 I4.7000 J-0.2384
G3 X456.3675 Y910.6195 I0.0000 J4.7061
G1 X456.3675 Y1141.8397 Z-2.5000
G3 X453.0030 Y1146.5602 I-4.7768 J0.1547
G1 X453.0030 Y1146.5602 Z10.0000 F12000.
G1 X451.9467 Y1143.1186 Z10.0000 F12000.
G1 X451.9467 Y1143.1186 Z-5.0000 F4000.
G3 X450.5675 Y1141.6671 I-0.2537 J-1.1399 F3500.
G1 X450.5675 Y910.7920 Z-5.0000
G3 X452.5266 Y909.7739 I1.0591 J-0.3559
G3 X452.7675 Y910.7920 I-1.3691 J0.8615
G1 X452.7675 Y1141.6671 Z-5.0000
G3 X451.9467 Y1143.1186 I-1.2779 J0.2353
G1 X452.4748 Y1144.8394 Z-5.0000
G3 X448.7675 Y1141.7534 I-0.8014 J-2.8071
G1 X448.7675 Y910.7058 Z-5.0000
G3 X451.6675 Y907.4838 I2.9000 J-0.3059
G3 X454.5675 Y910.7058 I0.0000 J2.9161
G1 X454.5675 Y1141.7534 Z-5.0000
G3 X452.4748 Y1144.8394 I-3.0193 J0.2052
G1 X453.0030 Y1146.5602 Z-5.0000
G3 X446.9675 Y1141.8397 I-1.3442 J-4.5000
G1 X446.9675 Y910.6195 Z-5.0000
G3 X451.6675 Y905.6750 I4.7000 J-0.2384
G3 X456.3675 Y910.6195 I0.0000 J4.7061
G1 X456.3675 Y1141.8397 Z-5.0000
G3 X453.0030 Y1146.5602 I-4.7309 J0.1874
G1 X452.6918 Y1145.5462 Z-3.9393 F4000.
G1 X452.6918 Y1145.5462 Z-3.3393
G1 X452.6918 Y1145.5462 Z10.0000 F12000.
G1 X35.4653 Y47.3189 Z10.0000 F12000.
G1 X35.4653 Y47.3189 Z-1.3000 F4000.
G1 X35.4653 Y47.3189 Z-1.9000
G1 X35.4653 Y44.8161 Z-2.3413
G1 X36.3653 Y44.8161 Z-2.5000
G1 X37.2653 Y44.8161 Z-2.5000 F3500.
G1 X37.2653 Y52.3930 Z-2.5000
G1 X35.4653 Y52.3930 Z-2.5000
G1 X35.4653 Y44.8161 Z-2.5000
G1 X36.3653 Y44.8161 Z-2.5000
G1 X36.3653 Y43.0161 Z-2.5000
G1 X39.0653 Y43.0161 Z-2.5000
G1 X39.0653 Y54.1930 Z-2.5000
G1 X33.6653 Y54.1930 Z-2.5000
G1 X33.6653 Y43.0161 Z-2.5000
G1 X36.3653 Y43.0161 Z-2.5000
G1 X36.3653 Y41.2161 Z-2.5000
G1 X40.8653 Y41.2161 Z-2.5000
G1 X40.8653 Y55.9930 Z-2.5000
G1 X31.8653 Y55.9930 Z-2.5000
G1 X31.8653 Y41.2161 Z-2.5000
G1 X36.3653 Y41.2161 Z-2.5000
G1 X36.3653 Y41.2161 Z10.0000 F12000.
G1 X36.3653 Y44.8161 Z10.0000 F12000.
G1 X36.3653 Y44.8161 Z-5.0000 F4000.
G1 X37.2653 Y44.8161 Z-5.0000 F3500.
G1 X37.2653 Y52.3930 Z-5.0000
G1 X35.4653 Y52.3930 Z-5.0000
G1 X35.4653 Y44.8161 Z-5.0000
G1 X36.3653 Y44.8161 Z-5.0000
G1 X36.3653 Y43.0161 Z-5.0000
G1 X39.0653 Y43.0161 Z-5.0000
G1 X39.0653 Y54.1930 Z-5.0000
G1 X33.6653 Y54.1930 Z-5.0000
G1 X33.6653 Y43.0161 Z-5.0000
G1 X36.3653 Y43.0161 Z-5.0000
G1 X36.3653 Y41.2161 Z-5.0000
G1 X40.8653 Y41.2161 Z-5.0000
G1 X40.8653 Y55.9930 Z-5.0000
G1 X31.8653 Y55.9930 Z-5.0000
G1 X31.8653 Y41.2161 Z-5.0000
G1 X36.3653 Y41.2161 Z-5.0000
G1 X36.3653 Y41.2161 Z10.0000 F12000.
G1 X36.3653 Y44.8161 Z10.0000 F12000.
G1 X36.3653 Y44.8161 Z-7.5000 F4000.
G1 X37.2653 Y44.8161 Z-7.5000 F3500.
G1 X37.2653 Y52.3930 Z-7.5000
G1 X35.4653 Y52.3930 Z-7.5000
G1 X35.4653 Y44.8161 Z-7.5000
G1 X36.3653 Y44.8161 Z-7.5000
G1 X36.3653 Y43.0161 Z-7.5000
G1 X39.0653 Y43.0161 Z-7.5000
G1 X39.0653 Y54.1930 Z-7.5000
G1 X33.6653 Y54.1930 Z-7.5000
G1 X33.6653 Y43.0161 Z-7.5000
G1 X36.3653 Y43.0161 Z-7.5000
G1 X36.3653 Y41.2161 Z-7.5000
G1 X40.8653 Y41.2161 Z-7.5000
G1 X40.8653 Y55.9930 Z-7.5000
G1 X31.8653 Y55.9930 Z-7.5000
G1 X31.8653 Y41.2161 Z-7.5000
G1 X36.3653 Y41.2161 Z-7.5000
G1 X36.3653 Y42.2768 Z-6.4393 F4000.
G1 X36.3653 Y42.2768 Z-5.8393
G1 X36.3653 Y42.2768 Z10.0000 F12000.
G1 X480.4653 Y47.3189 Z10.0000 F12000.
G1 X480.4653 Y47.3189 Z-1.3000 F4000.
G1 X480.4653 Y47.3189 Z-1.9000
G1 X480.4653 Y44.8161 Z-2.3413
G1 X481.3653 Y44.8161 Z-2.5000
G1 X482.2653 Y44.8161 Z-2.5000 F3500.
G1 X482.2653 Y52.3930 Z-2.5000
G1 X480.4653 Y52.3930 Z-2.5000
G1 X480.4653 Y44.8161 Z-2.5000
G1 X481.3653 Y44.8161 Z-2.5000
G1 X481.3653 Y43.0161 Z-2.5000
G1 X484.0653 Y43.0161 Z-2.5000
G1 X484.0653 Y54.1930 Z-2.5000
G1 X478.6653 Y54.1930 Z-2.5000
G1 X478.6653 Y43.0161 Z-2.5000
G1 X481.3653 Y43.0161 Z-2.5000
G1 X481.3653 Y41.2161 Z-2.5000
G1 X485.8653 Y41.2161 Z-2.5000
G1 X485.8653 Y55.9930 Z-2.5000
G1 X476.8653 Y55.9930 Z-2.5000
G1 X476.8653 Y41.2161 Z-2.5000
G1 X481.3653 Y41.2161 Z-2.5000
G1 X481.3653 Y41.2161 Z10.0000 F12000.
G1 X481.3653 Y44.8161 Z10.0000 F12000.
G1 X481.3653 Y44.8161 Z-5.0000 F4000.
G1 X482.2653 Y44.8161 Z-5.0000 F3500.
G1 X482.2653 Y52.3930 Z-5.0000
G1 X480.4653 Y52.3930 Z-5.0000
G1 X480.4653 Y44.8161 Z-5.0000
G1 X481.3653 Y44.8161 Z-5.0000
G1 X481.3653 Y43.0161 Z-5.0000
G1 X484.0653 Y43.0161 Z-5.0000
G1 X484.0653 Y54.1930 Z-5.0000
G1 X478.6653 Y54.1930 Z-5.0000
G1 X478.6653 Y43.0161 Z-5.0000
G1 X481.3653 Y43.0161 Z-5.0000
G1 X481.3653 Y41.2161 Z-5.0000
G1 X485.8653 Y41.2161 Z-5.0000
G1 X485.8653 Y55.9930 Z-5.0000
G1 X476.8653 Y55.9930 Z-5.0000
G1 X476.8653 Y41.2161 Z-5.0000
G1 X481.3653 Y41.2161 Z-5.0000
G1 X481.3653 Y41.2161 Z10.0000 F12000.
G1 X481.3653 Y44.8161 Z10.0000 F12000.
G1 X481.3653 Y44.8161 Z-7.5000 F4000.
G1 X482.2653 Y44.8161 Z-7.5000 F3500.
G1 X482.2653 Y52.3930 Z-7.5000
G1 X480.4653 Y52.3930 Z-7.5000
G1 X480.4653 Y44.8161 Z-7.5000
G1 X481.3653 Y44.8161 Z-7.5000
G1 X481.3653 Y43.0161 Z-7.5000
G1 X484.0653 Y43.0161 Z-7.5000
G1 X484.0653 Y54.1930 Z-7.5000
G1 X478.6653 Y54.1930 Z-7.5000
G1 X478.6653 Y43.0161 Z-7.5000
G1 X481.3653 Y43.0161 Z-7.5000
G1 X481.3653 Y41.2161 Z-7.5000
G1 X485.8653 Y41.2161 Z-7.5000
G1 X485.8653 Y55.9930 Z-7.5000
G1 X476.8653 Y55.9930 Z-7.5000
G1 X476.8653 Y41.2161 Z-7.5000
G1 X481.3653 Y41.2161 Z-7.5000
G1 X481.3653 Y42.2768 Z-6.4393 F4000.
G1 X481.3653 Y42.2768 Z-5.8393
G1 X481.3653 Y42.2768 Z10.0000 F12000.
G1 X1576.3022 Y23.1448 Z10.0000 F12000.
G1 X1576.3022 Y23.1448 Z-1.3000 F4000.
G1 X1576.3022 Y23.1448 Z-1.9000
G1 X1576.3022 Y26.5476 Z-2.5000
G1 X1576.3022 Y30.3360 Z-2.5000 F3500.
G1 X1574.5022 Y30.3360 Z-2.5000
G1 X1574.5022 Y22.7591 Z-2.5000
G1 X1576.3022 Y22.7591 Z-2.5000
G1 X1576.3022 Y26.5476 Z-2.5000
G1 X1578.1022 Y26.5476 Z-2.5000
G1 X1578.1022 Y32.1360 Z-2.5000
G1 X1572.7022 Y32.1360 Z-2.5000
G1 X1572.7022 Y20.9591 Z-2.5000
G1 X1578.1022 Y20.9591 Z-2.5000
G1 X1578.1022 Y26.5476 Z-2.5000
G1 X1579.9022 Y26.5476 Z-2.5000
G1 X1579.9022 Y33.9360 Z-2.5000
G1 X1570.9022 Y33.9360 Z-2.5000
G1 X1570.9022 Y19.1591 Z-2.5000
G1 X1579.9022 Y19.1591 Z-2.5000
G1 X1579.9022 Y26.5476 Z-2.5000
G1 X1579.9022 Y26.5476 Z10.0000 F12000.
G1 X1576.3022 Y26.5476 Z10.0000 F12000.
G1 X1576.3022 Y26.5476 Z-5.0000 F4000.
G1 X1576.3022 Y30.3360 Z-5.0000 F3500.
G1 X1574.5022 Y30.3360 Z-5.0000
G1 X1574.5022 Y22.7591 Z-5.0000
G1 X1576.3022 Y22.7591 Z-5.0000
G1 X1576.3022 Y26.5476 Z-5.0000
G1 X1578.1022 Y26.5476 Z-5.0000
G1 X1578.1022 Y32.1360 Z-5.0000
G1 X1572.7022 Y32.1360 Z-5.0000
G1 X1572.7022 Y20.9591 Z-5.0000
G1 X1578.1022 Y20.9591 Z-5.0000
G1 X1578.1022 Y26.5476 Z-5.0000
G1 X1579.9022 Y26.5476 Z-5.0000
G1 X1579.9022 Y33.9360 Z-5.0000
G1 X1570.9022 Y33.9360 Z-5.0000
G1 X1570.9022 Y19.1591 Z-5.0000
G1 X1579.9022 Y19.1591 Z-5.0000
G1 X1579.9022 Y26.5476 Z-5.0000
G1 X1579.9022 Y26.5476 Z10.0000 F12000.
G1 X1576.3022 Y26.5476 Z10.0000 F12000.
G1 X1576.3022 Y26.5476 Z-7.5000 F4000.
G1 X1576.3022 Y30.3360 Z-7.5000 F3500.
G1 X1574.5022 Y30.3360 Z-7.5000
G1 X1574.5022 Y22.7591 Z-7.5000
G1 X1576.3022 Y22.7591 Z-7.5000
G1 X1576.3022 Y26.5476 Z-7.5000
G1 X1578.1022 Y26.5476 Z-7.5000
G1 X1578.1022 Y32.1360 Z-7.5000
G1 X1572.7022 Y32.1360 Z-7.5000
G1 X1572.7022 Y20.9591 Z-7.5000
G1 X1578.1022 Y20.9591 Z-7.5000
G1 X1578.1022 Y26.5476 Z-7.5000
G1 X1579.9022 Y26.5476 Z-7.5000
G1 X1579.9022 Y33.9360 Z-7.5000
G1 X1570.9022 Y33.9360 Z-7.5000
G1 X1570.9022 Y19.1591 Z-7.5000
G1 X1579.9022 Y19.1591 Z-7.5000
G1 X1579.9022 Y26.5476 Z-7.5000
G1 X1578.8416 Y26.5476 Z-6.4393 F4000.
G1 X1578.8416 Y26.5476 Z-5.8393
G1 X1578.8416 Y26.5476 Z10.0000 F12000.
G1 X1629.4903 Y55.5805 Z10.0000 F12000.
G1 X1629.4903 Y55.5805 Z-1.3000 F4000.
G1 X1629.4903 Y55.5805 Z-1.9000
G1 X1629.4903 Y58.9833 Z-2.5000
G1 X1629.4903 Y62.7717 Z-2.5000 F3500.
G1 X1627.6903 Y62.7717 Z-2.5000
G1 X1627.6903 Y55.1948 Z-2.5000
G1 X1629.4903 Y55.1948 Z-2.5000
G1 X1629.4903 Y58.9833 Z-2.5000
G1 X1631.2903 Y58.9833 Z-2.5000
G1 X1631.2903 Y64.5717 Z-2.5000
G1 X1625.8903 Y64.5717 Z-2.5000
G1 X1625.8903 Y53.3948 Z-2.5000
G1 X1631.2903 Y53.3948 Z-2.5000
G1 X1631.2903 Y58.9833 Z-2.5000
G1 X1633.0903 Y58.9833 Z-2.5000
G1 X1633.0903 Y66.3717 Z-2.5000
G1 X1624.0903 Y66.3717 Z-2.5000
G1 X1624.0903 Y51.5948 Z-2.5000
G1 X1633.0903 Y51.5948 Z-2.5000
G1 X1633.0903 Y58.9833 Z-2.5000
G1 X1633.0903 Y58.9833 Z10.0000 F12000.
G1 X1629.4903 Y58.9833 Z10.0000 F12000.
G1 X1629.4903 Y58.9833 Z-5.0000 F4000.
G1 X1629.4903 Y62.7717 Z-5.0000 F3500.
G1 X1627.6903 Y62.7717 Z-5.0000
G1 X1627.6903 Y55.1948 Z-5.0000
G1 X1629.4903 Y55.1948 Z-5.0000
G1 X1629.4903 Y58.9833 Z-5.0000
G1 X1631.2903 Y58.9833 Z-5.0000
G1 X1631.2903 Y64.5717 Z-5.0000
G1 X1625.8903 Y64.5717 Z-5.0000
G1 X1625.8903 Y53.3948 Z-5.0000
G1 X1631.2903 Y53.3948 Z-5.0000
G1 X1631.2903 Y58.9833 Z-5.0000
G1 X1633.0903 Y58.9833 Z-5.0000
G1 X1633.0903 Y66.3717 Z-5.0000
G1 X1624.0903 Y66.3717 Z-5.0000
G1 X1624.0903 Y51.5948 Z-5.0000
G1 X1633.0903 Y51.5948 Z-5.0000
G1 X1633.0903 Y58.9833 Z-5.0000
G1 X1633.0903 Y58.9833 Z10.0000 F12000.
G1 X1629.4903 Y58.9833 Z10.0000 F12000.
G1 X1629.4903 Y58.9833 Z-7.5000 F4000.
G1 X1629.4903 Y62.7717 Z-7.5000 F3500.
G1 X1627.6903 Y62.7717 Z-7.5000
G1 X1627.6903 Y55.1948 Z-7.5000
G1 X1629.4903 Y55.1948 Z-7.5000
G1 X1629.4903 Y58.9833 Z-7.5000
G1 X1631.2903 Y58.9833 Z-7.5000
G1 X1631.2903 Y64.5717 Z-7.5000
G1 X1625.8903 Y64.5717 Z-7.5000
G1 X1625.8903 Y53.3948 Z-7.5000
G1 X1631.2903 Y53.3948 Z-7.5000
G1 X1631.2903 Y58.9833 Z-7.5000
G1 X1633.0903 Y58.9833 Z-7.5000
G1 X1633.0903 Y66.3717 Z-7.5000
G1 X1624.0903 Y66.3717 Z-7.5000
G1 X1624.0903 Y51.5948 Z-7.5000
G1 X1633.0903 Y51.5948 Z-7.5000
G1 X1633.0903 Y58.9833 Z-7.5000
G1 X1632.0297 Y58.9833 Z-6.4393 F4000.
G1 X1632.0297 Y58.9833 Z-5.8393
G1 X1632.0297 Y58.9833 Z10.0000 F12000.
G1 X1596.8985 Y89.9443 Z10.0000 F12000.
G1 X1596.8985 Y89.9443 Z-1.3000 F4000.
G1 X1596.8985 Y89.9443 Z-1.9000
G1 X1596.8985 Y93.3471 Z-2.5000
G1 X1596.8985 Y97.1356 Z-2.5000 F3500.
G1 X1595.0985 Y97.1356 Z-2.5000
G1 X1595.0985 Y89.5586 Z-2.5000
G1 X1596.8985 Y89.5586 Z-2.5000
G1 X1596.8985 Y93.3471 Z-2.5000
G1 X1598.6985 Y93.3471 Z-2.5000
G1 X1598.6985 Y98.9356 Z-2.5000
G1 X1593.2985 Y98.9356 Z-2.5000
G1 X1593.2985 Y87.7586 Z-2.5000
G1 X1598.6985 Y87.7586 Z-2.5000
G1 X1598.6985 Y93.3471 Z-2.5000
G1 X1600.4985 Y93.3471 Z-2.5000
G1 X1600.4985 Y100.7356 Z-2.5000
G1 X1591.4985 Y100.7356 Z-2.5000
G1 X1591.4985 Y85.9586 Z-2.5000
G1 X1600.4985 Y85.9586 Z-2.5000
G1 X1600.4985 Y93.3471 Z-2.5000
G1 X1600.4985 Y93.3471 Z10.0000 F12000.
G1 X1596.8985 Y93.3471 Z10.0000 F12000.
G1 X1596.8985 Y93.3471 Z-5.0000 F4000.
G1 X1596.8985 Y97.1356 Z-5.0000 F3500.
G1 X1595.0985 Y97.1356 Z-5.0000
G1 X1595.0985 Y89.5586 Z-5.0000
G1 X1596.8985 Y89.5586 Z-5.0000
G1 X1596.8985 Y93.3471 Z-5.0000
G1 X1598.6985 Y93.3471 Z-5.0000
G1 X1598.6985 Y98.9356 Z-5.0000
G1 X1593.2985 Y98.9356 Z-5.0000
G1 X1593.2985 Y87.7586 Z-5.0000
G1 X1598.6985 Y87.7586 Z-5.0000
G1 X1598.6985 Y93.3471 Z-5.0000
G1 X1600.4985 Y93.3471 Z-5.0000
G1 X1600.4985 Y100.7356 Z-5.0000
G1 X1591.4985 Y100.7356 Z-5.0000
G1 X1591.4985 Y85.9586 Z-5.0000
G1 X1600.4985 Y85.9586 Z-5.0000
G1 X1600.4985 Y93.3471 Z-5.0000
G1 X1600.4985 Y93.3471 Z10.0000 F12000.
G1 X1596.8985 Y93.3471 Z10.0000 F12000.
G1 X1596.8985 Y93.3471 Z-7.5000 F4000.
G1 X1596.8985 Y97.1356 Z-7.5000 F3500.
G1 X1595.0985 Y97.1356 Z-7.5000
G1 X1595.0985 Y89.5586 Z-7.5000
G1 X1596.8985 Y89.5586 Z-7.5000
G1 X1596.8985 Y93.3471 Z-7.5000
G1 X1598.6985 Y93.3471 Z-7.5000
G1 X1598.6985 Y98.9356 Z-7.5000
G1 X1593.2985 Y98.9356 Z-7.5000
G1 X1593.2985 Y87.7586 Z-7.5000
G1 X1598.6985 Y87.7586 Z-7.5000
G1 X1598.6985 Y93.3471 Z-7.5000
G1 X1600.4985 Y93.3471 Z-7.5000
G1 X1600.4985 Y100.7356 Z-7.5000
G1 X1591.4985 Y100.7356 Z-7.5000
G1 X1591.4985 Y85.9586 Z-7.5000
G1 X1600.4985 Y85.9586 Z-7.5000
G1 X1600.4985 Y93.3471 Z-7.5000
G1 X1599.4379 Y93.3471 Z-6.4393 F4000.
G1 X1599.4379 Y93.3471 Z-5.8393
G1 X1599.4379 Y93.3471 Z10.0000 F12000.
G1 X1901.3022 Y23.1448 Z10.0000 F12000.
G1 X1901.3022 Y23.1448 Z-1.3000 F4000.
G1 X1901.3022 Y23.1448 Z-1.9000
G1 X1901.3022 Y26.5476 Z-2.5000
G1 X1901.3022 Y30.3360 Z-2.5000 F3500.
G1 X1899.5022 Y30.3360 Z-2.5000
G1 X1899.5022 Y22.7591 Z-2.5000
G1 X1901.3022 Y22.7591 Z-2.5000
G1 X1901.3022 Y26.5476 Z-2.5000
G1 X1903.1022 Y26.5476 Z-2.5000
G1 X1903.1022 Y32.1360 Z-2.5000
G1 X1897.7022 Y32.1360 Z-2.5000
G1 X1897.7022 Y20.9591 Z-2.5000
G1 X1903.1022 Y20.9591 Z-2.5000
G1 X1903.1022 Y26.5476 Z-2.5000
G1 X1904.9022 Y26.5476 Z-2.5000
G1 X1904.9022 Y33.9360 Z-2.5000
G1 X1895.9022 Y33.9360 Z-2.5000
G1 X1895.9022 Y19.1591 Z-2.5000
G1 X1904.9022 Y19.1591 Z-2.5000
G1 X1904.9022 Y26.5476 Z-2.5000
G1 X1904.9022 Y26.5476 Z10.0000 F12000.
G1 X1901.3022 Y26.5476 Z10.0000 F12000.
G1 X1901.3022 Y26.5476 Z-5.0000 F4000.
G1 X1901.3022 Y30.3360 Z-5.0000 F3500.
G1 X1899.5022 Y30.3360 Z-5.0000
G1 X1899.5022 Y22.7591 Z-5.0000
G1 X1901.3022 Y22.7591 Z-5.0000
G1 X1901.3022 Y26.5476 Z-5.0000
G1 X1903.1022 Y26.5476 Z-5.0000
G1 X1903.1022 Y32.1360 Z-5.0000
G1 X1897.7022 Y32.1360 Z-5.0000
G1 X1897.7022 Y20.9591 Z-5.0000
G1 X1903.1022 Y20.9591 Z-5.0000
G1 X1903.1022 Y26.5476 Z-5.0000
G1 X1904.9022 Y26.5476 Z-5.0000
G1 X1904.9022 Y33.9360 Z-5.0000
G1 X1895.9022 Y33.9360 Z-5.0000
G1 X1895.9022 Y19.1591 Z-5.0000
G1 X1904.9022 Y19.1591 Z-5.0000
G1 X1904.9022 Y26.5476 Z-5.0000
G1 X1904.9022 Y26.5476 Z10.0000 F12000.
G1 X1901.3022 Y26.5476 Z10.0000 F12000.
G1 X1901.3022 Y26.5476 Z-7.5000 F4000.
G1 X1901.3022 Y30.3360 Z-7.5000 F3500.
G1 X1899.5022 Y30.3360 Z-7.5000
G1 X1899.5022 Y22.7591 Z-7.5000
G1 X1901.3022 Y22.7591 Z-7.5000
G1 X1901.3022 Y26.5476 Z-7.5000
G1 X1903.1022 Y26.5476 Z-7.5000
G1 X1903.1022 Y32.1360 Z-7.5000
G1 X1897.7022 Y32.1360 Z-7.5000
G1 X1897.7022 Y20.9591 Z-7.5000
G1 X1903.1022 Y20.9591 Z-7.5000
G1 X1903.1022 Y26.5476 Z-7.5000
G1 X1904.9022 Y26.5476 Z-7.5000
G1 X1904.9022 Y33.9360 Z-7.5000
G1 X1895.9022 Y33.9360 Z-7.5000
G1 X1895.9022 Y19.1591 Z-7.5000
G1 X1904.9022 Y19.1591 Z-7.5000
G1 X1904.9022 Y26.5476 Z-7.5000
G1 X1903.8416 Y26.5476 Z-6.4393 F4000.
G1 X1903.8416 Y26.5476 Z-5.8393
G1 X1903.8416 Y26.5476 Z10.0000 F12000.
G1 X1954.4903 Y55.5805 Z10.0000 F12000.
G1 X1954.4903 Y55.5805 Z-1.3000 F4000.
G1 X1954.4903 Y55.5805 Z-1.9000
G1 X1954.4903 Y58.9833 Z-2.5000
G1 X1954.4903 Y62.7717 Z-2.5000 F3500.
G1 X1952.6903 Y62.7717 Z-2.5000
G1 X1952.6903 Y55.1948 Z-2.5000
G1 X1954.4903 Y55.1948 Z-2.5000
G1 X1954.4903 Y58.9833 Z-2.5000
G1 X1956.2903 Y58.9833 Z-2.5000
G1 X1956.2903 Y64.5717 Z-2.5000
G1 X1950.8903 Y64.5717 Z-2.5000
G1 X1950.8903 Y53.3948 Z-2.5000
G1 X1956.2903 Y53.3948 Z-2.5000
G1 X1956.2903 Y58.9833 Z-2.5000
G1 X1958.0903 Y58.9833 Z-2.5000
G1 X1958.0903 Y66.3717 Z-2.5000
G1 X1949.0903 Y66.3717 Z-2.5000
G1 X1949.0903 Y51.5948 Z-2.5000
G1 X1958.0903 Y51.5948 Z-2.5000
G1 X1958.0903 Y58.9833 Z-2.5000
G1 X1958.0903 Y58.9833 Z10.0000 F12000.
G1 X1954.4903 Y58.9833 Z10.0000 F12000.
G1 X1954.4903 Y58.9833 Z-5.0000 F4000.
G1 X1954.4903 Y62.7717 Z-5.0000 F3500.
G1 X1952.6903 Y62.7717 Z-5.0000
G1 X1952.6903 Y55.1948 Z-5.0000
G1 X1954.4903 Y55.1948 Z-5.0000
G1 X1954.4903 Y58.9833 Z-5.0000
G1 X1956.2903 Y58.9833 Z-5.0000
G1 X1956.2903 Y64.5717 Z-5.0000
G1 X1950.8903 Y64.5717 Z-5.0000
G1 X1950.8903 Y53.3948 Z-5.0000
G1 X1956.2903 Y53.3948 Z-5.0000
G1 X1956.2903 Y58.9833 Z-5.0000
G1 X1958.0903 Y58.9833 Z-5.0000
G1 X1958.0903 Y66.3717 Z-5.0000
G1 X1949.0903 Y66.3717 Z-5.0000
G1 X1949.0903 Y51.5948 Z-5.0000
G1 X1958.0903 Y51.5948 Z-5.0000
G1 X1958.0903 Y58.9833 Z-5.0000
G1 X1958.0903 Y58.9833 Z10.0000 F12000.
G1 X1954.4903 Y58.9833 Z10.0000 F12000.
G1 X1954.4903 Y58.9833 Z-7.5000 F4000.
G1 X1954.4903 Y62.7717 Z-7.5000 F3500.
G1 X1952.6903 Y62.7717 Z-7.5000
G1 X1952.6903 Y55.1948 Z-7.5000
G1 X1954.4903 Y55.1948 Z-7.5000
G1 X1954.4903 Y58.9833 Z-7.5000
G1 X1956.2903 Y58.9833 Z-7.5000
G1 X1956.2903 Y64.5717 Z-7.5000
G1 X1950.8903 Y64.5717 Z-7.5000
G1 X1950.8903 Y53.3948 Z-7.5000
G1 X1956.2903 Y53.3948 Z-7.5000
G1 X1956.2903 Y58.9833 Z-7.5000
G1 X1958.0903 Y58.9833 Z-7.5000
G1 X1958.0903 Y66.3717 Z-7.5000
G1 X1949.0903 Y66.3717 Z-7.5000
G1 X1949.0903 Y51.5948 Z-7.5000
G1 X1958.0903 Y51.5948 Z-7.5000
G1 X1958.0903 Y58.9833 Z-7.5000
G1 X1957.0297 Y58.9833 Z-6.4393 F4000.
G1 X1957.0297 Y58.9833 Z-5.8393
G1 X1957.0297 Y58.9833 Z10.0000 F12000.
G1 X2041.8985 Y88.7340 Z10.0000 F12000.
G1 X2041.8985 Y88.7340 Z-1.3000 F4000.
G1 X2041.8985 Y88.7340 Z-1.9000
G1 X2041.8985 Y92.1368 Z-2.5000
G1 X2041.8985 Y95.9253 Z-2.5000 F3500.
G1 X2040.0985 Y95.9253 Z-2.5000
G1 X2040.0985 Y88.3484 Z-2.5000
G1 X2041.8985 Y88.3484 Z-2.5000
G1 X2041.8985 Y92.1368 Z-2.5000
G1 X2043.6985 Y92.1368 Z-2.5000
G1 X2043.6985 Y97.7253 Z-2.5000
G1 X2038.2985 Y97.7253 Z-2.5000
G1 X2038.2985 Y86.5484 Z-2.5000
G1 X2043.6985 Y86.5484 Z-2.5000
G1 X2043.6985 Y92.1368 Z-2.5000
G1 X2045.4985 Y92.1368 Z-2.5000
G1 X2045.4985 Y99.5253 Z-2.5000
G1 X2036.4985 Y99.5253 Z-2.5000
G1 X2036.4985 Y84.7484 Z-2.5000
G1 X2045.4985 Y84.7484 Z-2.5000
G1 X2045.4985 Y92.1368 Z-2.5000
G1 X2045.4985 Y92.1368 Z10.0000 F12000.
G1 X2041.8985 Y92.1368 Z10.0000 F12000.
G1 X2041.8985 Y92.1368 Z-5.0000 F4000.
G1 X2041.8985 Y95.9253 Z-5.0000 F3500.
G1 X2040.0985 Y95.9253 Z-5.0000
G1 X2040.0985 Y88.3484 Z-5.0000
G1 X2041.8985 Y88.3484 Z-5.0000
G1 X2041.8985 Y92.1368 Z-5.0000
G1 X2043.6985 Y92.1368 Z-5.0000
G1 X2043.6985 Y97.7253 Z-5.0000
G1 X2038.2985 Y97.7253 Z-5.0000
G1 X2038.2985 Y86.5484 Z-5.0000
G1 X2043.6985 Y86.5484 Z-5.0000
G1 X2043.6985 Y92.1368 Z-5.0000
G1 X2045.4985 Y92.1368 Z-5.0000
G1 X2045.4985 Y99.5253 Z-5.0000
G1 X2036.4985 Y99.5253 Z-5.0000
G1 X2036.4985 Y84.7484 Z-5.0000
G1 X2045.4985 Y84.7484 Z-5.0000
G1 X2045.4985 Y92.1368 Z-5.0000
G1 X2045.4985 Y92.1368 Z10.0000 F12000.
G1 X2041.8985 Y92.1368 Z10.0000 F12000.
G1 X2041.8985 Y92.1368 Z-7.5000 F4000.
G1 X2041.8985 Y95.9253 Z-7.5000 F3500.
G1 X2040.0985 Y95.9253 Z-7.5000
G1 X2040.0985 Y88.3484 Z-7.5000
G1 X2041.8985 Y88.3484 Z-7.5000
G1 X2041.8985 Y92.1368 Z-7.5000
G1 X2043.6985 Y92.1368 Z-7.5000
G1 X2043.6985 Y97.7253 Z-7.5000
G1 X2038.2985 Y97.7253 Z-7.5000
G1 X2038.2985 Y86.5484 Z-7.5000
G1 X2043.6985 Y86.5484 Z-7.5000
G1 X2043.6985 Y92.1368 Z-7.5000
G1 X2045.4985 Y92.1368 Z-7.5000
G1 X2045.4985 Y99.5253 Z-7.5000
G1 X2036.4985 Y99.5253 Z-7.5000
G1 X2036.4985 Y84.7484 Z-7.5000
G1 X2045.4985 Y84.7484 Z-7.5000
G1 X2045.4985 Y92.1368 Z-7.5000
G1 X2044.4379 Y92.1368 Z-6.4393 F4000.
G1 X2044.4379 Y92.1368 Z-5.8393
G1 X2044.4379 Y92.1368 Z10.0000 F12000.
G1 X1949.3632 Y171.7871 Z10.0000 F12000.
G1 X1949.3632 Y171.7871 Z-1.3000 F4000.
G1 X1949.3632 Y171.7871 Z-1.9000
G1 X1951.8659 Y171.7871 Z-2.3413
G1 X1951.8659 Y172.6871 Z-2.5000
G1 X1951.8659 Y173.5871 Z-2.5000 F3500.
G1 X1944.2890 Y173.5871 Z-2.5000
G1 X1944.2890 Y171.7871 Z-2.5000
G1 X1951.8659 Y171.7871 Z-2.5000
G1 X1951.8659 Y172.6871 Z-2.5000
G1 X1953.6659 Y172.6871 Z-2.5000
G1 X1953.6659 Y175.3871 Z-2.5000
G1 X1942.4890 Y175.3871 Z-2.5000
G1 X1942.4890 Y169.9871 Z-2.5000
G1 X1953.6659 Y169.9871 Z-2.5000
G1 X1953.6659 Y172.6871 Z-2.5000
G1 X1955.4659 Y172.6871 Z-2.5000
G1 X1955.4659 Y177.1871 Z-2.5000
G1 X1940.6890 Y177.1871 Z-2.5000
G1 X1940.6890 Y168.1871 Z-2.5000
G1 X1955.4659 Y168.1871 Z-2.5000
G1 X1955.4659 Y172.6871 Z-2.5000
G1 X1955.4659 Y172.6871 Z10.0000 F12000.
G1 X1951.8659 Y172.6871 Z10.0000 F12000.
G1 X1951.8659 Y172.6871 Z-5.0000 F4000.
G1 X1951.8659 Y173.5871 Z-5.0000 F3500.
G1 X1944.2890 Y173.5871 Z-5.0000
G1 X1944.2890 Y171.7871 Z-5.0000
G1 X1951.8659 Y171.7871 Z-5.0000
G1 X1951.8659 Y172.6871 Z-5.0000
G1 X1953.6659 Y172.6871 Z-5.0000
G1 X1953.6659 Y175.3871 Z-5.0000
G1 X1942.4890 Y175.3871 Z-5.0000
G1 X1942.4890 Y169.9871 Z-5.0000
G1 X1953.6659 Y169.9871 Z-5.0000
G1 X1953.6659 Y172.6871 Z-5.0000
G1 X1955.4659 Y172.6871 Z-5.0000
G1 X1955.4659 Y177.1871 Z-5.0000
G1 X1940.6890 Y177.1871 Z-5.0000
G1 X1940.6890 Y168.1871 Z-5.0000
G1 X1955.4659 Y168.1871 Z-5.0000
G1 X1955.4659 Y172.6871 Z-5.0000
G1 X1955.4659 Y172.6871 Z10.0000 F12000.
G1 X1951.8659 Y172.6871 Z10.0000 F12000.
G1 X1951.8659 Y172.6871 Z-7.5000 F4000.
G1 X1951.8659 Y173.5871 Z-7.5000 F3500.
G1 X1944.2890 Y173.5871 Z-7.5000
G1 X1944.2890 Y171.7871 Z-7.5000
G1 X1951.8659 Y171.7871 Z-7.5000
G1 X1951.8659 Y172.6871 Z-7.5000
G1 X1953.6659 Y172.6871 Z-7.5000
G1 X1953.6659 Y175.3871 Z-7.5000
G1 X1942.4890 Y175.3871 Z-7.5000
G1 X1942.4890 Y169.9871 Z-7.5000
G1 X1953.6659 Y169.9871 Z-7.5000
G1 X1953.6659 Y172.6871 Z-7.5000
G1 X1955.4659 Y172.6871 Z-7.5000
G1 X1955.4659 Y177.1871 Z-7.5000
G1 X1940.6890 Y177.1871 Z-7.5000
G1 X1940.6890 Y168.1871 Z-7.5000
G1 X1955.4659 Y168.1871 Z-7.5000
G1 X1955.4659 Y172.6871 Z-7.5000
G1 X1954.4053 Y172.6871 Z-6.4393 F4000.
G1 X1954.4053 Y172.6871 Z-5.8393
G1 X1954.4053 Y172.6871 Z10.0000 F12000.
G1 X1917.3632 Y174.7871 Z10.0000 F12000.
G1 X1917.3632 Y174.7871 Z-1.3000 F4000.
G1 X1917.3632 Y174.7871 Z-1.9000
G1 X1919.8659 Y174.7871 Z-2.3413
G1 X1919.8659 Y175.6871 Z-2.5000
G1 X1919.8659 Y176.5871 Z-2.5000 F3500.
G1 X1912.2890 Y176.5871 Z-2.5000
G1 X1912.2890 Y174.7871 Z-2.5000
G1 X1919.8659 Y174.7871 Z-2.5000
G1 X1919.8659 Y175.6871 Z-2.5000
G1 X1921.6659 Y175.6871 Z-2.5000
G1 X1921.6659 Y178.3871 Z-2.5000
G1 X1910.4890 Y178.3871 Z-2.5000
G1 X1910.4890 Y172.9871 Z-2.5000
G1 X1921.6659 Y172.9871 Z-2.5000
G1 X1921.6659 Y175.6871 Z-2.5000
G1 X1923.4659 Y175.6871 Z-2.5000
G1 X1923.4659 Y180.1871 Z-2.5000
G1 X1908.6890 Y180.1871 Z-2.5000
G1 X1908.6890 Y171.1871 Z-2.5000
G1 X1923.4659 Y171.1871 Z-2.5000
G1 X1923.4659 Y175.6871 Z-2.5000
G1 X1923.4659 Y175.6871 Z10.0000 F12000.
G1 X1919.8659 Y175.6871 Z10.0000 F12000.
G1 X1919.8659 Y175.6871 Z-5.0000 F4000.
G1 X1919.8659 Y176.5871 Z-5.0000 F3500.
G1 X1912.2890 Y176.5871 Z-5.0000
G1 X1912.2890 Y174.7871 Z-5.0000
G1 X1919.8659 Y174.7871 Z-5.0000
G1 X1919.8659 Y175.6871 Z-5.0000
G1 X1921.6659 Y175.6871 Z-5.0000
G1 X1921.6659 Y178.3871 Z-5.0000
G1 X1910.4890 Y178.3871 Z-5.0000
G1 X1910.4890 Y172.9871 Z-5.0000
G1 X1921.6659 Y172.9871 Z-5.0000
G1 X1921.6659 Y175.6871 Z-5.0000
G1 X1923.4659 Y175.6871 Z-5.0000
G1 X1923.4659 Y180.1871 Z-5.0000
G1 X1908.6890 Y180.1871 Z-5.0000
G1 X1908.6890 Y171.1871 Z-5.0000
G1 X1923.4659 Y171.1871 Z-5.0000
G1 X1923.4659 Y175.6871 Z-5.0000
G1 X1923.4659 Y175.6871 Z10.0000 F12000.
G1 X1919.8659 Y175.6871 Z10.0000 F12000.
G1 X1919.8659 Y175.6871 Z-7.5000 F4000.
G1 X1919.8659 Y176.5871 Z-7.5000 F3500.
G1 X1912.2890 Y176.5871 Z-7.5000
G1 X1912.2890 Y174.7871 Z-7.5000
G1 X1919.8659 Y174.7871 Z-7.5000
G1 X1919.8659 Y175.6871 Z-7.5000
G1 X1921.6659 Y175.6871 Z-7.5000
G1 X1921.6659 Y178.3871 Z-7.5000
G1 X1910.4890 Y178.3871 Z-7.5000
G1 X1910.4890 Y172.9871 Z-7.5000
G1 X1921.6659 Y172.9871 Z-7.5000
G1 X1921.6659 Y175.6871 Z-7.5000
G1 X1923.4659 Y175.6871 Z-7.5000
G1 X1923.4659 Y180.1871 Z-7.5000
G1 X1908.6890 Y180.1871 Z-7.5000
G1 X1908.6890 Y171.1871 Z-7.5000
G1 X1923.4659 Y171.1871 Z-7.5000
G1 X1923.4659 Y175.6871 Z-7.5000
G1 X1922.4053 Y175.6871 Z-6.4393 F4000.
G1 X1922.4053 Y175.6871 Z-5.8393
G1 X1922.4053 Y175.6871 Z10.0000 F12000.
G1 X1998.9683 Y203.9761 Z10.0000 F12000.
G1 X1998.9683 Y203.9761 Z-1.3000 F4000.
G1 X1998.9683 Y203.9761 Z-1.9000
G1 X2001.4711 Y203.9761 Z-2.3413
G1 X2001.4711 Y204.8761 Z-2.5000
G1 X2001.4711 Y205.7761 Z-2.5000 F3500.
G1 X1993.8941 Y205.7761 Z-2.5000
G1 X1993.8941 Y203.9761 Z-2.5000
G1 X2001.4711 Y203.9761 Z-2.5000
G1 X2001.4711 Y204.8761 Z-2.5000
G1 X2003.2711 Y204.8761 Z-2.5000
G1 X2003.2711 Y207.5761 Z-2.5000
G1 X1992.0941 Y207.5761 Z-2.5000
G1 X1992.0941 Y202.1761 Z-2.5000
G1 X2003.2711 Y202.1761 Z-2.5000
G1 X2003.2711 Y204.8761 Z-2.5000
G1 X2005.0711 Y204.8761 Z-2.5000
G1 X2005.0711 Y209.3761 Z-2.5000
G1 X1990.2941 Y209.3761 Z-2.5000
G1 X1990.2941 Y200.3761 Z-2.5000
G1 X2005.0711 Y200.3761 Z-2.5000
G1 X2005.0711 Y204.8761 Z-2.5000
G1 X2005.0711 Y204.8761 Z10.0000 F12000.
G1 X2001.4711 Y204.8761 Z10.0000 F12000.
G1 X2001.4711 Y204.8761 Z-5.0000 F4000.
G1 X2001.4711 Y205.7761 Z-5.0000 F3500.
G1 X1993.8941 Y205.7761 Z-5.0000
G1 X1993.8941 Y203.9761 Z-5.0000
G1 X2001.4711 Y203.9761 Z-5.0000
G1 X2001.4711 Y204.8761 Z-5.0000
G1 X2003.2711 Y204.8761 Z-5.0000
G1 X2003.2711 Y207.5761 Z-5.0000
G1 X1992.0941 Y207.5761 Z-5.0000
G1 X1992.0941 Y202.1761 Z-5.0000
G1 X2003.2711 Y202.1761 Z-5.0000
G1 X2003.2711 Y204.8761 Z-5.0000
G1 X2005.0711 Y204.8761 Z-5.0000
G1 X2005.0711 Y209.3761 Z-5.0000
G1 X1990.2941 Y209.3761 Z-5.0000
G1 X1990.2941 Y200.3761 Z-5.0000
G1 X2005.0711 Y200.3761 Z-5.0000
G1 X2005.0711 Y204.8761 Z-5.0000
G1 X2005.0711 Y204.8761 Z10.0000 F12000.
G1 X2001.4711 Y204.8761 Z10.0000 F12000.
G1 X2001.4711 Y204.8761 Z-7.5000 F4000.
G1 X2001.4711 Y205.7761 Z-7.5000 F3500.
G1 X1993.8941 Y205.7761 Z-7.5000
G1 X1993.8941 Y203.9761 Z-7.5000
G1 X2001.4711 Y203.9761 Z-7.5000
G1 X2001.4711 Y204.8761 Z-7.5000
G1 X2003.2711 Y204.8761 Z-7.5000
G1 X2003.2711 Y207.5761 Z-7.5000
G1 X1992.0941 Y207.5761 Z-7.5000
G1 X1992.0941 Y202.1761 Z-7.5000
G1 X2003.2711 Y202.1761 Z-7.5000
G1 X2003.2711 Y204.8761 Z-7.5000
G1 X2005.0711 Y204.8761 Z-7.5000
G1 X2005.0711 Y209.3761 Z-7.5000
G1 X1990.2941 Y209.3761 Z-7.5000
G1 X1990.2941 Y200.3761 Z-7.5000
G1 X2005.0711 Y200.3761 Z-7.5000
G1 X2005.0711 Y204.8761 Z-7.5000
G1 X2004.0104 Y204.8761 Z-6.4393 F4000.
G1 X2004.0104 Y204.8761 Z-5.8393
G1 X2004.0104 Y204.8761 Z10.0000 F12000.
G1 X2031.1589 Y258.6351 Z10.0000 F12000.
G1 X2031.1589 Y258.6351 Z-1.3000 F4000.
G1 X2031.1589 Y258.6351 Z-1.9000
G1 X2033.6617 Y258.6351 Z-2.3413
G1 X2033.6617 Y259.5351 Z-2.5000
G1 X2033.6617 Y260.4351 Z-2.5000 F3500.
G1 X2026.0847 Y260.4351 Z-2.5000
G1 X2026.0847 Y258.6351 Z-2.5000
G1 X2033.6617 Y258.6351 Z-2.5000
G1 X2033.6617 Y259.5351 Z-2.5000
G1 X2035.4617 Y259.5351 Z-2.5000
G1 X2035.4617 Y262.2351 Z-2.5000
G1 X2024.2847 Y262.2351 Z-2.5000
G1 X2024.2847 Y256.8351 Z-2.5000
G1 X2035.4617 Y256.8351 Z-2.5000
G1 X2035.4617 Y259.5351 Z-2.5000
G1 X2037.2617 Y259.5351 Z-2.5000
G1 X2037.2617 Y264.0351 Z-2.5000
G1 X2022.4847 Y264.0351 Z-2.5000
G1 X2022.4847 Y255.0351 Z-2.5000
G1 X2037.2617 Y255.0351 Z-2.5000
G1 X2037.2617 Y259.5351 Z-2.5000
G1 X2037.2617 Y259.5351 Z10.0000 F12000.
G1 X2033.6617 Y259.5351 Z10.0000 F12000.
G1 X2033.6617 Y259.5351 Z-5.0000 F4000.
G1 X2033.6617 Y260.4351 Z-5.0000 F3500.
G1 X2026.0847 Y260.4351 Z-5.0000
G1 X2026.0847 Y258.6351 Z-5.0000
G1 X2033.6617 Y258.6351 Z-5.0000
G1 X2033.6617 Y259.5351 Z-5.0000
G1 X2035.4617 Y259.5351 Z-5.0000
G1 X2035.4617 Y262.2351 Z-5.0000
G1 X2024.2847 Y262.2351 Z-5.0000
G1 X2024.2847 Y256.8351 Z-5.0000
G1 X2035.4617 Y256.8351 Z-5.0000
G1 X2035.4617 Y259.5351 Z-5.0000
G1 X2037.2617 Y259.5351 Z-5.0000
G1 X2037.2617 Y264.0351 Z-5.0000
G1 X2022.4847 Y264.0351 Z-5.0000
G1 X2022.4847 Y255.0351 Z-5.0000
G1 X2037.2617 Y255.0351 Z-5.0000
G1 X2037.2617 Y259.5351 Z-5.0000
G1 X2037.2617 Y259.5351 Z10.0000 F12000.
G1 X2033.6617 Y259.5351 Z10.0000 F12000.
G1 X2033.6617 Y259.5351 Z-7.5000 F4000.
G1 X2033.6617 Y260.4351 Z-7.5000 F3500.
G1 X2026.0847 Y260.4351 Z-7.5000
G1 X2026.0847 Y258.6351 Z-7.5000
G1 X2033.6617 Y258.6351 Z-7.5000
G1 X2033.6617 Y259.5351 Z-7.5000
G1 X2035.4617 Y259.5351 Z-7.5000
G1 X2035.4617 Y262.2351 Z-7.5000
G1 X2024.2847 Y262.2351 Z-7.5000
G1 X2024.2847 Y256.8351 Z-7.5000
G1 X2035.4617 Y256.8351 Z-7.5000
G1 X2035.4617 Y259.5351 Z-7.5000
G1 X2037.2617 Y259.5351 Z-7.5000
G1 X2037.2617 Y264.0351 Z-7.5000
G1 X2022.4847 Y264.0351 Z-7.5000
G1 X2022.4847 Y255.0351 Z-7.5000
G1 X2037.2617 Y255.0351 Z-7.5000
G1 X2037.2617 Y259.5351 Z-7.5000
G1 X2036.2010 Y259.5351 Z-6.4393 F4000.
G1 X2036.2010 Y259.5351 Z-5.8393
G1 X2036.2010 Y259.5351 Z10.0000 F12000.
G1 X2064.2760 Y257.4351 Z10.0000 F12000.
G1 X2064.2760 Y257.4351 Z-1.3000 F4000.
G1 X2064.2760 Y257.4351 Z-1.9000
G1 X2060.8732 Y257.4351 Z-2.5000
G1 X2057.0847 Y257.4351 Z-2.5000 F3500.
G1 X2057.0847 Y255.6351 Z-2.5000
G1 X2064.6617 Y255.6351 Z-2.5000
G1 X2064.6617 Y257.4351 Z-2.5000
G1 X2060.8732 Y257.4351 Z-2.5000
G1 X2060.8732 Y259.2351 Z-2.5000
G1 X2055.2847 Y259.2351 Z-2.5000
G1 X2055.2847 Y253.8351 Z-2.5000
G1 X2066.4617 Y253.8351 Z-2.5000
G1 X2066.4617 Y259.2351 Z-2.5000
G1 X2060.8732 Y259.2351 Z-2.5000
G1 X2060.8732 Y261.0351 Z-2.5000
G1 X2053.4847 Y261.0351 Z-2.5000
G1 X2053.4847 Y252.0351 Z-2.5000
G1 X2068.2617 Y252.0351 Z-2.5000
G1 X2068.2617 Y261.0351 Z-2.5000
G1 X2060.8732 Y261.0351 Z-2.5000
G1 X2060.8732 Y261.0351 Z10.0000 F12000.
G1 X2060.8732 Y257.4351 Z10.0000 F12000.
G1 X2060.8732 Y257.4351 Z-5.0000 F4000.
G1 X2057.0847 Y257.4351 Z-5.0000 F3500.
G1 X2057.0847 Y255.6351 Z-5.0000
G1 X2064.6617 Y255.6351 Z-5.0000
G1 X2064.6617 Y257.4351 Z-5.0000
G1 X2060.8732 Y257.4351 Z-5.0000
G1 X2060.8732 Y259.2351 Z-5.0000
G1 X2055.2847 Y259.2351 Z-5.0000
G1 X2055.2847 Y253.8351 Z-5.0000
G1 X2066.4617 Y253.8351 Z-5.0000
G1 X2066.4617 Y259.2351 Z-5.0000
G1 X2060.8732 Y259.2351 Z-5.0000
G1 X2060.8732 Y261.0351 Z-5.0000
G1 X2053.4847 Y261.0351 Z-5.0000
G1 X2053.4847 Y252.0351 Z-5.0000
G1 X2068.2617 Y252.0351 Z-5.0000
G1 X2068.2617 Y261.0351 Z-5.0000
G1 X2060.8732 Y261.0351 Z-5.0000
G1 X2060.8732 Y261.0351 Z10.0000 F12000.
G1 X2060.8732 Y257.4351 Z10.0000 F12000.
G1 X2060.8732 Y257.4351 Z-7.5000 F4000.
G1 X2057.0847 Y257.4351 Z-7.5000 F3500.
G1 X2057.0847 Y255.6351 Z-7.5000
G1 X2064.6617 Y255.6351 Z-7.5000
G1 X2064.6617 Y257.4351 Z-7.5000
G1 X2060.8732 Y257.4351 Z-7.5000
G1 X2060.8732 Y259.2351 Z-7.5000
G1 X2055.2847 Y259.2351 Z-7.5000
G1 X2055.2847 Y253.8351 Z-7.5000
G1 X2066.4617 Y253.8351 Z-7.5000
G1 X2066.4617 Y259.2351 Z-7.5000
G1 X2060.8732 Y259.2351 Z-7.5000
G1 X2060.8732 Y261.0351 Z-7.5000
G1 X2053.4847 Y261.0351 Z-7.5000
G1 X2053.4847 Y252.0351 Z-7.5000
G1 X2068.2617 Y252.0351 Z-7.5000
G1 X2068.2617 Y261.0351 Z-7.5000
G1 X2060.8732 Y261.0351 Z-7.5000
G1 X2060.8732 Y259.9744 Z-6.4393 F4000.
G1 X2060.8732 Y259.9744 Z-5.8393
G1 X2060.8732 Y259.9744 Z10.0000 F12000.
G1 X2143.1534 Y205.7761 Z10.0000 F12000.
G1 X2143.1534 Y205.7761 Z-1.3000 F4000.
G1 X2143.1534 Y205.7761 Z-1.9000
G1 X2139.7506 Y205.7761 Z-2.5000
G1 X2135.9622 Y205.7761 Z-2.5000 F3500.
G1 X2135.9622 Y203.9761 Z-2.5000
G1 X2143.5391 Y203.9761 Z-2.5000
G1 X2143.5391 Y205.7761 Z-2.5000
G1 X2139.7506 Y205.7761 Z-2.5000
G1 X2139.7506 Y207.5761 Z-2.5000
G1 X2134.1622 Y207.5761 Z-2.5000
G1 X2134.1622 Y202.1761 Z-2.5000
G1 X2145.3391 Y202.1761 Z-2.5000
G1 X2145.3391 Y207.5761 Z-2.5000
G1 X2139.7506 Y207.5761 Z-2.5000
G1 X2139.7506 Y209.3761 Z-2.5000
G1 X2132.3622 Y209.3761 Z-2.5000
G1 X2132.3622 Y200.3761 Z-2.5000
G1 X2147.1391 Y200.3761 Z-2.5000
G1 X2147.1391 Y209.3761 Z-2.5000
G1 X2139.7506 Y209.3761 Z-2.5000
G1 X2139.7506 Y209.3761 Z10.0000 F12000.
G1 X2139.7506 Y205.7761 Z10.0000 F12000.
G1 X2139.7506 Y205.7761 Z-5.0000 F4000.
G1 X2135.9622 Y205.7761 Z-5.0000 F3500.
G1 X2135.9622 Y203.9761 Z-5.0000
G1 X2143.5391 Y203.9761 Z-5.0000
G1 X2143.5391 Y205.7761 Z-5.0000
G1 X2139.7506 Y205.7761 Z-5.0000
G1 X2139.7506 Y207.5761 Z-5.0000
G1 X2134.1622 Y207.5761 Z-5.0000
G1 X2134.1622 Y202.1761 Z-5.0000
G1 X2145.3391 Y202.1761 Z-5.0000
G1 X2145.3391 Y207.5761 Z-5.0000
G1 X2139.7506 Y207.5761 Z-5.0000
G1 X2139.7506 Y209.3761 Z-5.0000
G1 X2132.3622 Y209.3761 Z-5.0000
G1 X2132.3622 Y200.3761 Z-5.0000
G1 X2147.1391 Y200.3761 Z-5.0000
G1 X2147.1391 Y209.3761 Z-5.0000
G1 X2139.7506 Y209.3761 Z-5.0000
G1 X2139.7506 Y209.3761 Z10.0000 F12000.
G1 X2139.7506 Y205.7761 Z10.0000 F12000.
G1 X2139.7506 Y205.7761 Z-7.5000 F4000.
G1 X2135.9622 Y205.7761 Z-7.5000 F3500.
G1 X2135.9622 Y203.9761 Z-7.5000
G1 X2143.5391 Y203.9761 Z-7.5000
G1 X2143.5391 Y205.7761 Z-7.5000
G1 X2139.7506 Y205.7761 Z-7.5000
G1 X2139.7506 Y207.5761 Z-7.5000
G1 X2134.1622 Y207.5761 Z-7.5000
G1 X2134.1622 Y202.1761 Z-7.5000
G1 X2145.3391 Y202.1761 Z-7.5000
G1 X2145.3391 Y207.5761 Z-7.5000
G1 X2139.7506 Y207.5761 Z-7.5000
G1 X2139.7506 Y209.3761 Z-7.5000
G1 X2132.3622 Y209.3761 Z-7.5000
G1 X2132.3622 Y200.3761 Z-7.5000
G1 X2147.1391 Y200.3761 Z-7.5000
G1 X2147.1391 Y209.3761 Z-7.5000
G1 X2139.7506 Y209.3761 Z-7.5000
G1 X2139.7506 Y208.3154 Z-6.4393 F4000.
G1 X2139.7506 Y208.3154 Z-5.8393
G1 X2139.7506 Y208.3154 Z10.0000 F12000.
G1 X2175.3440 Y260.4351 Z10.0000 F12000.
G1 X2175.3440 Y260.4351 Z-1.3000 F4000.
G1 X2175.3440 Y260.4351 Z-1.9000
G1 X2171.9412 Y260.4351 Z-2.5000
G1 X2168.1528 Y260.4351 Z-2.5000 F3500.
G1 X2168.1528 Y258.6351 Z-2.5000
G1 X2175.7297 Y258.6351 Z-2.5000
G1 X2175.7297 Y260.4351 Z-2.5000
G1 X2171.9412 Y260.4351 Z-2.5000
G1 X2171.9412 Y262.2351 Z-2.5000
G1 X2166.3528 Y262.2351 Z-2.5000
G1 X2166.3528 Y256.8351 Z-2.5000
G1 X2177.5297 Y256.8351 Z-2.5000
G1 X2177.5297 Y262.2351 Z-2.5000
G1 X2171.9412 Y262.2351 Z-2.5000
G1 X2171.9412 Y264.0351 Z-2.5000
G1 X2164.5528 Y264.0351 Z-2.5000
G1 X2164.5528 Y255.0351 Z-2.5000
G1 X2179.3297 Y255.0351 Z-2.5000
G1 X2179.3297 Y264.0351 Z-2.5000
G1 X2171.9412 Y264.0351 Z-2.5000
G1 X2171.9412 Y264.0351 Z10.0000 F12000.
G1 X2171.9412 Y260.4351 Z10.0000 F12000.
G1 X2171.9412 Y260.4351 Z-5.0000 F4000.
G1 X2168.1528 Y260.4351 Z-5.0000 F3500.
G1 X2168.1528 Y258.6351 Z-5.0000
G1 X2175.7297 Y258.6351 Z-5.0000
G1 X2175.7297 Y260.4351 Z-5.0000
G1 X2171.9412 Y260.4351 Z-5.0000
G1 X2171.9412 Y262.2351 Z-5.0000
G1 X2166.3528 Y262.2351 Z-5.0000
G1 X2166.3528 Y256.8351 Z-5.0000
G1 X2177.5297 Y256.8351 Z-5.0000
G1 X2177.5297 Y262.2351 Z-5.0000
G1 X2171.9412 Y262.2351 Z-5.0000
G1 X2171.9412 Y264.0351 Z-5.0000
G1 X2164.5528 Y264.0351 Z-5.0000
G1 X2164.5528 Y255.0351 Z-5.0000
G1 X2179.3297 Y255.0351 Z-5.0000
G1 X2179.3297 Y264.0351 Z-5.0000
G1 X2171.9412 Y264.0351 Z-5.0000
G1 X2171.9412 Y264.0351 Z10.0000 F12000.
G1 X2171.9412 Y260.4351 Z10.0000 F12000.
G1 X2171.9412 Y260.4351 Z-7.5000 F4000.
G1 X2168.1528 Y260.4351 Z-7.5000 F3500.
G1 X2168.1528 Y258.6351 Z-7.5000
G1 X2175.7297 Y258.6351 Z-7.5000
G1 X2175.7297 Y260.4351 Z-7.5000
G1 X2171.9412 Y260.4351 Z-7.5000
G1 X2171.9412 Y262.2351 Z-7.5000
G1 X2166.3528 Y262.2351 Z-7.5000
G1 X2166.3528 Y256.8351 Z-7.5000
G1 X2177.5297 Y256.8351 Z-7.5000
G1 X2177.5297 Y262.2351 Z-7.5000
G1 X2171.9412 Y262.2351 Z-7.5000
G1 X2171.9412 Y264.0351 Z-7.5000
G1 X2164.5528 Y264.0351 Z-7.5000
G1 X2164.5528 Y255.0351 Z-7.5000
G1 X2179.3297 Y255.0351 Z-7.5000
G1 X2179.3297 Y264.0351 Z-7.5000
G1 X2171.9412 Y264.0351 Z-7.5000
G1 X2171.9412 Y262.9744 Z-6.4393 F4000.
G1 X2171.9412 Y262.9744 Z-5.8393
G1 X2171.9412 Y262.9744 Z10.0000 F12000.
G1 X2206.3440 Y257.4351 Z10.0000 F12000.
G1 X2206.3440 Y257.4351 Z-1.3000 F4000.
G1 X2206.3440 Y257.4351 Z-1.9000
G1 X2202.9412 Y257.4351 Z-2.5000
G1 X2199.1528 Y257.4351 Z-2.5000 F3500.
G1 X2199.1528 Y255.6351 Z-2.5000
G1 X2206.7297 Y255.6351 Z-2.5000
G1 X2206.7297 Y257.4351 Z-2.5000
G1 X2202.9412 Y257.4351 Z-2.5000
G1 X2202.9412 Y259.2351 Z-2.5000
G1 X2197.3528 Y259.2351 Z-2.5000
G1 X2197.3528 Y253.8351 Z-2.5000
G1 X2208.5297 Y253.8351 Z-2.5000
G1 X2208.5297 Y259.2351 Z-2.5000
G1 X2202.9412 Y259.2351 Z-2.5000
G1 X2202.9412 Y261.0351 Z-2.5000
G1 X2195.5528 Y261.0351 Z-2.5000
G1 X2195.5528 Y252.0351 Z-2.5000
G1 X2210.3297 Y252.0351 Z-2.5000
G1 X2210.3297 Y261.0351 Z-2.5000
G1 X2202.9412 Y261.0351 Z-2.5000
G1 X2202.9412 Y261.0351 Z10.0000 F12000.
G1 X2202.9412 Y257.4351 Z10.0000 F12000.
G1 X2202.9412 Y257.4351 Z-5.0000 F4000.
G1 X2199.1528 Y257.4351 Z-5.0000 F3500.
G1 X2199.1528 Y255.6351 Z-5.0000
G1 X2206.7297 Y255.6351 Z-5.0000
G1 X2206.7297 Y257.4351 Z-5.0000
G1 X2202.9412 Y257.4351 Z-5.0000
G1 X2202.9412 Y259.2351 Z-5.0000
G1 X2197.3528 Y259.2351 Z-5.0000
G1 X2197.3528 Y253.8351 Z-5.0000
G1 X2208.5297 Y253.8351 Z-5.0000
G1 X2208.5297 Y259.2351 Z-5.0000
G1 X2202.9412 Y259.2351 Z-5.0000
G1 X2202.9412 Y261.0351 Z-5.0000
G1 X2195.5528 Y261.0351 Z-5.0000
G1 X2195.5528 Y252.0351 Z-5.0000
G1 X2210.3297 Y252.0351 Z-5.0000
G1 X2210.3297 Y261.0351 Z-5.0000
G1 X2202.9412 Y261.0351 Z-5.0000
G1 X2202.9412 Y261.0351 Z10.0000 F12000.
G1 X2202.9412 Y257.4351 Z10.0000 F12000.
G1 X2202.9412 Y257.4351 Z-7.5000 F4000.
G1 X2199.1528 Y257.4351 Z-7.5000 F3500.
G1 X2199.1528 Y255.6351 Z-7.5000
G1 X2206.7297 Y255.6351 Z-7.5000
G1 X2206.7297 Y257.4351 Z-7.5000
G1 X2202.9412 Y257.4351 Z-7.5000
G1 X2202.9412 Y259.2351 Z-7.5000
G1 X2197.3528 Y259.2351 Z-7.5000
G1 X2197.3528 Y253.8351 Z-7.5000
G1 X2208.5297 Y253.8351 Z-7.5000
G1 X2208.5297 Y259.2351 Z-7.5000
G1 X2202.9412 Y259.2351 Z-7.5000
G1 X2202.9412 Y261.0351 Z-7.5000
G1 X2195.5528 Y261.0351 Z-7.5000
G1 X2195.5528 Y252.0351 Z-7.5000
G1 X2210.3297 Y252.0351 Z-7.5000
G1 X2210.3297 Y261.0351 Z-7.5000
G1 X2202.9412 Y261.0351 Z-7.5000
G1 X2202.9412 Y259.9744 Z-6.4393 F4000.
G1 X2202.9412 Y259.9744 Z-5.8393
G1 X2202.9412 Y259.9744 Z10.0000 F12000.
G1 X2293.7797 Y205.7761 Z10.0000 F12000.
G1 X2293.7797 Y205.7761 Z-1.3000 F4000.
G1 X2293.7797 Y205.7761 Z-1.9000
G1 X2290.3769 Y205.7761 Z-2.5000
G1 X2286.5885 Y205.7761 Z-2.5000 F3500.
G1 X2286.5885 Y203.9761 Z-2.5000
G1 X2294.1654 Y203.9761 Z-2.5000
G1 X2294.1654 Y205.7761 Z-2.5000
G1 X2290.3769 Y205.7761 Z-2.5000
G1 X2290.3769 Y207.5761 Z-2.5000
G1 X2284.7885 Y207.5761 Z-2.5000
G1 X2284.7885 Y202.1761 Z-2.5000
G1 X2295.9654 Y202.1761 Z-2.5000
G1 X2295.9654 Y207.5761 Z-2.5000
G1 X2290.3769 Y207.5761 Z-2.5000
G1 X2290.3769 Y209.3761 Z-2.5000
G1 X2282.9885 Y209.3761 Z-2.5000
G1 X2282.9885 Y200.3761 Z-2.5000
G1 X2297.7654 Y200.3761 Z-2.5000
G1 X2297.7654 Y209.3761 Z-2.5000
G1 X2290.3769 Y209.3761 Z-2.5000
G1 X2290.3769 Y209.3761 Z10.0000 F12000.
G1 X2290.3769 Y205.7761 Z10.0000 F12000.
G1 X2290.3769 Y205.7761 Z-5.0000 F4000.
G1 X2286.5885 Y205.7761 Z-5.0000 F3500.
G1 X2286.5885 Y203.9761 Z-5.0000
G1 X2294.1654 Y203.9761 Z-5.0000
G1 X2294.1654 Y205.7761 Z-5.0000
G1 X2290.3769 Y205.7761 Z-5.0000
G1 X2290.3769 Y207.5761 Z-5.0000
G1 X2284.7885 Y207.5761 Z-5.0000
G1 X2284.7885 Y202.1761 Z-5.0000
G1 X2295.9654 Y202.1761 Z-5.0000
G1 X2295.9654 Y207.5761 Z-5.0000
G1 X2290.3769 Y207.5761 Z-5.0000
G1 X2290.3769 Y209.3761 Z-5.0000
G1 X2282.9885 Y209.3761 Z-5.0000
G1 X2282.9885 Y200.3761 Z-5.0000
G1 X2297.7654 Y200.3761 Z-5.0000
G1 X2297.7654 Y209.3761 Z-5.0000
G1 X2290.3769 Y209.3761 Z-5.0000
G1 X2290.3769 Y209.3761 Z10.0000 F12000.
G1 X2290.3769 Y205.7761 Z10.0000 F12000.
G1 X2290.3769 Y205.7761 Z-7.5000 F4000.
G1 X2286.5885 Y205.7761 Z-7.5000 F3500.
G1 X2286.5885 Y203.9761 Z-7.5000
G1 X2294.1654 Y203.9761 Z-7.5000
G1 X2294.1654 Y205.7761 Z-7.5000
G1 X2290.3769 Y205.7761 Z-7.5000
G1 X2290.3769 Y207.5761 Z-7.5000
G1 X2284.7885 Y207.5761 Z-7.5000
G1 X2284.7885 Y202.1761 Z-7.5000
G1 X2295.9654 Y202.1761 Z-7.5000
G1 X2295.9654 Y207.5761 Z-7.5000
G1 X2290.3769 Y207.5761 Z-7.5000
G1 X2290.3769 Y209.3761 Z-7.5000
G1 X2282.9885 Y209.3761 Z-7.5000
G1 X2282.9885 Y200.3761 Z-7.5000
G1 X2297.7654 Y200.3761 Z-7.5000
G1 X2297.7654 Y209.3761 Z-7.5000
G1 X2290.3769 Y209.3761 Z-7.5000
G1 X2290.3769 Y208.3154 Z-6.4393 F4000.
G1 X2290.3769 Y208.3154 Z-5.8393
G1 X2290.3769 Y208.3154 Z10.0000 F12000.
G1 X2325.9703 Y260.4351 Z10.0000 F12000.
G1 X2325.9703 Y260.4351 Z-1.3000 F4000.
G1 X2325.9703 Y260.4351 Z-1.9000
G1 X2322.5675 Y260.4351 Z-2.5000
G1 X2318.7791 Y260.4351 Z-2.5000 F3500.
G1 X2318.7791 Y258.6351 Z-2.5000
G1 X2326.3560 Y258.6351 Z-2.5000
G1 X2326.3560 Y260.4351 Z-2.5000
G1 X2322.5675 Y260.4351 Z-2.5000
G1 X2322.5675 Y262.2351 Z-2.5000
G1 X2316.9791 Y262.2351 Z-2.5000
G1 X2316.9791 Y256.8351 Z-2.5000
G1 X2328.1560 Y256.8351 Z-2.5000
G1 X2328.1560 Y262.2351 Z-2.5000
G1 X2322.5675 Y262.2351 Z-2.5000
G1 X2322.5675 Y264.0351 Z-2.5000
G1 X2315.1791 Y264.0351 Z-2.5000
G1 X2315.1791 Y255.0351 Z-2.5000
G1 X2329.9560 Y255.0351 Z-2.5000
G1 X2329.9560 Y264.0351 Z-2.5000
G1 X2322.5675 Y264.0351 Z-2.5000
G1 X2322.5675 Y264.0351 Z10.0000 F12000.
G1 X2322.5675 Y260.4351 Z10.0000 F12000.
G1 X2322.5675 Y260.4351 Z-5.0000 F4000.
G1 X2318.7791 Y260.4351 Z-5.0000 F3500.
G1 X2318.7791 Y258.6351 Z-5.0000
G1 X2326.3560 Y258.6351 Z-5.0000
G1 X2326.3560 Y260.4351 Z-5.0000
G1 X2322.5675 Y260.4351 Z-5.0000
G1 X2322.5675 Y262.2351 Z-5.0000
G1 X2316.9791 Y262.2351 Z-5.0000
G1 X2316.9791 Y256.8351 Z-5.0000
G1 X2328.1560 Y256.8351 Z-5.0000
G1 X2328.1560 Y262.2351 Z-5.0000
G1 X2322.5675 Y262.2351 Z-5.0000
G1 X2322.5675 Y264.0351 Z-5.0000
G1 X2315.1791 Y264.0351 Z-5.0000
G1 X2315.1791 Y255.0351 Z-5.0000
G1 X2329.9560 Y255.0351 Z-5.0000
G1 X2329.9560 Y264.0351 Z-5.0000
G1 X2322.5675 Y264.0351 Z-5.0000
G1 X2322.5675 Y264.0351 Z10.0000 F12000.
G1 X2322.5675 Y260.4351 Z10.0000 F12000.
G1 X2322.5675 Y260.4351 Z-7.5000 F4000.
G1 X2318.7791 Y260.4351 Z-7.5000 F3500.
G1 X2318.7791 Y258.6351 Z-7.5000
G1 X2326.3560 Y258.6351 Z-7.5000
G1 X2326.3560 Y260.4351 Z-7.5000
G1 X2322.5675 Y260.4351 Z-7.5000
G1 X2322.5675 Y262.2351 Z-7.5000
G1 X2316.9791 Y262.2351 Z-7.5000
G1 X2316.9791 Y256.8351 Z-7.5000
G1 X2328.1560 Y256.8351 Z-7.5000
G1 X2328.1560 Y262.2351 Z-7.5000
G1 X2322.5675 Y262.2351 Z-7.5000
G1 X2322.5675 Y264.0351 Z-7.5000
G1 X2315.1791 Y264.0351 Z-7.5000
G1 X2315.1791 Y255.0351 Z-7.5000
G1 X2329.9560 Y255.0351 Z-7.5000
G1 X2329.9560 Y264.0351 Z-7.5000
G1 X2322.5675 Y264.0351 Z-7.5000
G1 X2322.5675 Y262.9744 Z-6.4393 F4000.
G1 X2322.5675 Y262.9744 Z-5.8393
G1 X2322.5675 Y262.9744 Z10.0000 F12000.
G1 X2356.9703 Y257.4351 Z10.0000 F12000.
G1 X2356.9703 Y257.4351 Z-1.3000 F4000.
G1 X2356.9703 Y257.4351 Z-1.9000
G1 X2353.5675 Y257.4351 Z-2.5000
G1 X2349.7791 Y257.4351 Z-2.5000 F3500.
G1 X2349.7791 Y255.6351 Z-2.5000
G1 X2357.3560 Y255.6351 Z-2.5000
G1 X2357.3560 Y257.4351 Z-2.5000
G1 X2353.5675 Y257.4351 Z-2.5000
G1 X2353.5675 Y259.2351 Z-2.5000
G1 X2347.9791 Y259.2351 Z-2.5000
G1 X2347.9791 Y253.8351 Z-2.5000
G1 X2359.1560 Y253.8351 Z-2.5000
G1 X2359.1560 Y259.2351 Z-2.5000
G1 X2353.5675 Y259.2351 Z-2.5000
G1 X2353.5675 Y261.0351 Z-2.5000
G1 X2346.1791 Y261.0351 Z-2.5000
G1 X2346.1791 Y252.0351 Z-2.5000
G1 X2360.9560 Y252.0351 Z-2.5000
G1 X2360.9560 Y261.0351 Z-2.5000
G1 X2353.5675 Y261.0351 Z-2.5000
G1 X2353.5675 Y261.0351 Z10.0000 F12000.
G1 X2353.5675 Y257.4351 Z10.0000 F12000.
G1 X2353.5675 Y257.4351 Z-5.0000 F4000.
G1 X2349.7791 Y257.4351 Z-5.0000 F3500.
G1 X2349.7791 Y255.6351 Z-5.0000
G1 X2357.3560 Y255.6351 Z-5.0000
G1 X2357.3560 Y257.4351 Z-5.0000
G1 X2353.5675 Y257.4351 Z-5.0000
G1 X2353.5675 Y259.2351 Z-5.0000
G1 X2347.9791 Y259.2351 Z-5.0000
G1 X2347.9791 Y253.8351 Z-5.0000
G1 X2359.1560 Y253.8351 Z-5.0000
G1 X2359.1560 Y259.2351 Z-5.0000
G1 X2353.5675 Y259.2351 Z-5.0000
G1 X2353.5675 Y261.0351 Z-5.0000
G1 X2346.1791 Y261.0351 Z-5.0000
G1 X2346.1791 Y252.0351 Z-5.0000
G1 X2360.9560 Y252.0351 Z-5.0000
G1 X2360.9560 Y261.0351 Z-5.0000
G1 X2353.5675 Y261.0351 Z-5.0000
G1 X2353.5675 Y261.0351 Z10.0000 F12000.
G1 X2353.5675 Y257.4351 Z10.0000 F12000.
G1 X2353.5675 Y257.4351 Z-7.5000 F4000.
G1 X2349.7791 Y257.4351 Z-7.5000 F3500.
G1 X2349.7791 Y255.6351 Z-7.5000
G1 X2357.3560 Y255.6351 Z-7.5000
G1 X2357.3560 Y257.4351 Z-7.5000
G1 X2353.5675 Y257.4351 Z-7.5000
G1 X2353.5675 Y259.2351 Z-7.5000
G1 X2347.9791 Y259.2351 Z-7.5000
G1 X2347.9791 Y253.8351 Z-7.5000
G1 X2359.1560 Y253.8351 Z-7.5000
G1 X2359.1560 Y259.2351 Z-7.5000
G1 X2353.5675 Y259.2351 Z-7.5000
G1 X2353.5675 Y261.0351 Z-7.5000
G1 X2346.1791 Y261.0351 Z-7.5000
G1 X2346.1791 Y252.0351 Z-7.5000
G1 X2360.9560 Y252.0351 Z-7.5000
G1 X2360.9560 Y261.0351 Z-7.5000
G1 X2353.5675 Y261.0351 Z-7.5000
G1 X2353.5675 Y259.9744 Z-6.4393 F4000.
G1 X2353.5675 Y259.9744 Z-5.8393
G1 X2353.5675 Y259.9744 Z10.0000 F12000.
G1 X2356.9703 Y582.4351 Z10.0000 F12000.
G1 X2356.9703 Y582.4351 Z-1.3000 F4000.
G1 X2356.9703 Y582.4351 Z-1.9000
G1 X2353.5675 Y582.4351 Z-2.5000
G1 X2349.7791 Y582.4351 Z-2.5000 F3500.
G1 X2349.7791 Y580.6351 Z-2.5000
G1 X2357.3560 Y580.6351 Z-2.5000
G1 X2357.3560 Y582.4351 Z-2.5000
G1 X2353.5675 Y582.4351 Z-2.5000
G1 X2353.5675 Y584.2351 Z-2.5000
G1 X2347.9791 Y584.2351 Z-2.5000
G1 X2347.9791 Y578.8351 Z-2.5000
G1 X2359.1560 Y578.8351 Z-2.5000
G1 X2359.1560 Y584.2351 Z-2.5000
G1 X2353.5675 Y584.2351 Z-2.5000
G1 X2353.5675 Y586.0351 Z-2.5000
G1 X2346.1791 Y586.0351 Z-2.5000
G1 X2346.1791 Y577.0351 Z-2.5000
G1 X2360.9560 Y577.0351 Z-2.5000
G1 X2360.9560 Y586.0351 Z-2.5000
G1 X2353.5675 Y586.0351 Z-2.5000
G1 X2353.5675 Y586.0351 Z10.0000 F12000.
G1 X2353.5675 Y582.4351 Z10.0000 F12000.
G1 X2353.5675 Y582.4351 Z-5.0000 F4000.
G1 X2349.7791 Y582.4351 Z-5.0000 F3500.
G1 X2349.7791 Y580.6351 Z-5.0000
G1 X2357.3560 Y580.6351 Z-5.0000
G1 X2357.3560 Y582.4351 Z-5.0000
G1 X2353.5675 Y582.4351 Z-5.0000
G1 X2353.5675 Y584.2351 Z-5.0000
G1 X2347.9791 Y584.2351 Z-5.0000
G1 X2347.9791 Y578.8351 Z-5.0000
G1 X2359.1560 Y578.8351 Z-5.0000
G1 X2359.1560 Y584.2351 Z-5.0000
G1 X2353.5675 Y584.2351 Z-5.0000
G1 X2353.5675 Y586.0351 Z-5.0000
G1 X2346.1791 Y586.0351 Z-5.0000
G1 X2346.1791 Y577.0351 Z-5.0000
G1 X2360.9560 Y577.0351 Z-5.0000
G1 X2360.9560 Y586.0351 Z-5.0000
G1 X2353.5675 Y586.0351 Z-5.0000
G1 X2353.5675 Y586.0351 Z10.0000 F12000.
G1 X2353.5675 Y582.4351 Z10.0000 F12000.
G1 X2353.5675 Y582.4351 Z-7.5000 F4000.
G1 X2349.7791 Y582.4351 Z-7.5000 F3500.
G1 X2349.7791 Y580.6351 Z-7.5000
G1 X2357.3560 Y580.6351 Z-7.5000
G1 X2357.3560 Y582.4351 Z-7.5000
G1 X2353.5675 Y582.4351 Z-7.5000
G1 X2353.5675 Y584.2351 Z-7.5000
G1 X2347.9791 Y584.2351 Z-7.5000
G1 X2347.9791 Y578.8351 Z-7.5000
G1 X2359.1560 Y578.8351 Z-7.5000
G1 X2359.1560 Y584.2351 Z-7.5000
G1 X2353.5675 Y584.2351 Z-7.5000
G1 X2353.5675 Y586.0351 Z-7.5000
G1 X2346.1791 Y586.0351 Z-7.5000
G1 X2346.1791 Y577.0351 Z-7.5000
G1 X2360.9560 Y577.0351 Z-7.5000
G1 X2360.9560 Y586.0351 Z-7.5000
G1 X2353.5675 Y586.0351 Z-7.5000
G1 X2353.5675 Y584.9744 Z-6.4393 F4000.
G1 X2353.5675 Y584.9744 Z-5.8393
G1 X2353.5675 Y584.9744 Z10.0000 F12000.
G1 X2325.9703 Y585.4351 Z10.0000 F12000.
G1 X2325.9703 Y585.4351 Z-1.3000 F4000.
G1 X2325.9703 Y585.4351 Z-1.9000
G1 X2322.5675 Y585.4351 Z-2.5000
G1 X2318.7791 Y585.4351 Z-2.5000 F3500.
G1 X2318.7791 Y583.6351 Z-2.5000
G1 X2326.3560 Y583.6351 Z-2.5000
G1 X2326.3560 Y585.4351 Z-2.5000
G1 X2322.5675 Y585.4351 Z-2.5000
G1 X2322.5675 Y587.2351 Z-2.5000
G1 X2316.9791 Y587.2351 Z-2.5000
G1 X2316.9791 Y581.8351 Z-2.5000
G1 X2328.1560 Y581.8351 Z-2.5000
G1 X2328.1560 Y587.2351 Z-2.5000
G1 X2322.5675 Y587.2351 Z-2.5000
G1 X2322.5675 Y589.0351 Z-2.5000
G1 X2315.1791 Y589.0351 Z-2.5000
G1 X2315.1791 Y580.0351 Z-2.5000
G1 X2329.9560 Y580.0351 Z-2.5000
G1 X2329.9560 Y589.0351 Z-2.5000
G1 X2322.5675 Y589.0351 Z-2.5000
G1 X2322.5675 Y589.0351 Z10.0000 F12000.
G1 X2322.5675 Y585.4351 Z10.0000 F12000.
G1 X2322.5675 Y585.4351 Z-5.0000 F4000.
G1 X2318.7791 Y585.4351 Z-5.0000 F3500.
G1 X2318.7791 Y583.6351 Z-5.0000
G1 X2326.3560 Y583.6351 Z-5.0000
G1 X2326.3560 Y585.4351 Z-5.0000
G1 X2322.5675 Y585.4351 Z-5.0000
G1 X2322.5675 Y587.2351 Z-5.0000
G1 X2316.9791 Y587.2351 Z-5.0000
G1 X2316.9791 Y581.8351 Z-5.0000
G1 X2328.1560 Y581.8351 Z-5.0000
G1 X2328.1560 Y587.2351 Z-5.0000
G1 X2322.5675 Y587.2351 Z-5.0000
G1 X2322.5675 Y589.0351 Z-5.0000
G1 X2315.1791 Y589.0351 Z-5.0000
G1 X2315.1791 Y580.0351 Z-5.0000
G1 X2329.9560 Y580.0351 Z-5.0000
G1 X2329.9560 Y589.0351 Z-5.0000
G1 X2322.5675 Y589.0351 Z-5.0000
G1 X2322.5675 Y589.0351 Z10.0000 F12000.
G1 X2322.5675 Y585.4351 Z10.0000 F12000.
G1 X2322.5675 Y585.4351 Z-7.5000 F4000.
G1 X2318.7791 Y585.4351 Z-7.5000 F3500.
G1 X2318.7791 Y583.6351 Z-7.5000
G1 X2326.3560 Y583.6351 Z-7.5000
G1 X2326.3560 Y585.4351 Z-7.5000
G1 X2322.5675 Y585.4351 Z-7.5000
G1 X2322.5675 Y587.2351 Z-7.5000
G1 X2316.9791 Y587.2351 Z-7.5000
G1 X2316.9791 Y581.8351 Z-7.5000
G1 X2328.1560 Y581.8351 Z-7.5000
G1 X2328.1560 Y587.2351 Z-7.5000
G1 X2322.5675 Y587.2351 Z-7.5000
G1 X2322.5675 Y589.0351 Z-7.5000
G1 X2315.1791 Y589.0351 Z-7.5000
G1 X2315.1791 Y580.0351 Z-7.5000
G1 X2329.9560 Y580.0351 Z-7.5000
G1 X2329.9560 Y589.0351 Z-7.5000
G1 X2322.5675 Y589.0351 Z-7.5000
G1 X2322.5675 Y587.9744 Z-6.4393 F4000.
G1 X2322.5675 Y587.9744 Z-5.8393
G1 X2322.5675 Y587.9744 Z10.0000 F12000.
G1 X2293.7797 Y650.7761 Z10.0000 F12000.
G1 X2293.7797 Y650.7761 Z-1.3000 F4000.
G1 X2293.7797 Y650.7761 Z-1.9000
G1 X2290.3769 Y650.7761 Z-2.5000
G1 X2286.5885 Y650.7761 Z-2.5000 F3500.
G1 X2286.5885 Y648.9761 Z-2.5000
G1 X2294.1654 Y648.9761 Z-2.5000
G1 X2294.1654 Y650.7761 Z-2.5000
G1 X2290.3769 Y650.7761 Z-2.5000
G1 X2290.3769 Y652.5761 Z-2.5000
G1 X2284.7885 Y652.5761 Z-2.5000
G1 X2284.7885 Y647.1761 Z-2.5000
G1 X2295.9654 Y647.1761 Z-2.5000
G1 X2295.9654 Y652.5761 Z-2.5000
G1 X2290.3769 Y652.5761 Z-2.5000
G1 X2290.3769 Y654.3761 Z-2.5000
G1 X2282.9885 Y654.3761 Z-2.5000
G1 X2282.9885 Y645.3761 Z-2.5000
G1 X2297.7654 Y645.3761 Z-2.5000
G1 X2297.7654 Y654.3761 Z-2.5000
G1 X2290.3769 Y654.3761 Z-2.5000
G1 X2290.3769 Y654.3761 Z10.0000 F12000.
G1 X2290.3769 Y650.7761 Z10.0000 F12000.
G1 X2290.3769 Y650.7761 Z-5.0000 F4000.
G1 X2286.5885 Y650.7761 Z-5.0000 F3500.
G1 X2286.5885 Y648.9761 Z-5.0000
G1 X2294.1654 Y648.9761 Z-5.0000
G1 X2294.1654 Y650.7761 Z-5.0000
G1 X2290.3769 Y650.7761 Z-5.0000
G1 X2290.3769 Y652.5761 Z-5.0000
G1 X2284.7885 Y652.5761 Z-5.0000
G1 X2284.7885 Y647.1761 Z-5.0000
G1 X2295.9654 Y647.1761 Z-5.0000
G1 X2295.9654 Y652.5761 Z-5.0000
G1 X2290.3769 Y652.5761 Z-5.0000
G1 X2290.3769 Y654.3761 Z-5.0000
G1 X2282.9885 Y654.3761 Z-5.0000
G1 X2282.9885 Y645.3761 Z-5.0000
G1 X2297.7654 Y645.3761 Z-5.0000
G1 X2297.7654 Y654.3761 Z-5.0000
G1 X2290.3769 Y654.3761 Z-5.0000
G1 X2290.3769 Y654.3761 Z10.0000 F12000.
G1 X2290.3769 Y650.7761 Z10.0000 F12000.
G1 X2290.3769 Y650.7761 Z-7.5000 F4000.
G1 X2286.5885 Y650.7761 Z-7.5000 F3500.
G1 X2286.5885 Y648.9761 Z-7.5000
G1 X2294.1654 Y648.9761 Z-7.5000
G1 X2294.1654 Y650.7761 Z-7.5000
G1 X2290.3769 Y650.7761 Z-7.5000
G1 X2290.3769 Y652.5761 Z-7.5000
G1 X2284.7885 Y652.5761 Z-7.5000
G1 X2284.7885 Y647.1761 Z-7.5000
G1 X2295.9654 Y647.1761 Z-7.5000
G1 X2295.9654 Y652.5761 Z-7.5000
G1 X2290.3769 Y652.5761 Z-7.5000
G1 X2290.3769 Y654.3761 Z-7.5000
G1 X2282.9885 Y654.3761 Z-7.5000
G1 X2282.9885 Y645.3761 Z-7.5000
G1 X2297.7654 Y645.3761 Z-7.5000
G1 X2297.7654 Y654.3761 Z-7.5000
G1 X2290.3769 Y654.3761 Z-7.5000
G1 X2290.3769 Y653.3154 Z-6.4393 F4000.
G1 X2290.3769 Y653.3154 Z-5.8393
G1 X2290.3769 Y653.3154 Z10.0000 F12000.
G1 X2293.7797 Y705.5816 Z10.0000 F12000.
G1 X2293.7797 Y705.5816 Z-1.3000 F4000.
G1 X2293.7797 Y705.5816 Z-1.9000
G1 X2290.3769 Y705.5816 Z-2.5000
G1 X2286.5885 Y705.5816 Z-2.5000 F3500.
G1 X2286.5885 Y703.7816 Z-2.5000
G1 X2294.1654 Y703.7816 Z-2.5000
G1 X2294.1654 Y705.5816 Z-2.5000
G1 X2290.3769 Y705.5816 Z-2.5000
G1 X2290.3769 Y707.3816 Z-2.5000
G1 X2284.7885 Y707.3816 Z-2.5000
G1 X2284.7885 Y701.9816 Z-2.5000
G1 X2295.9654 Y701.9816 Z-2.5000
G1 X2295.9654 Y707.3816 Z-2.5000
G1 X2290.3769 Y707.3816 Z-2.5000
G1 X2290.3769 Y709.1816 Z-2.5000
G1 X2282.9885 Y709.1816 Z-2.5000
G1 X2282.9885 Y700.1816 Z-2.5000
G1 X2297.7654 Y700.1816 Z-2.5000
G1 X2297.7654 Y709.1816 Z-2.5000
G1 X2290.3769 Y709.1816 Z-2.5000
G1 X2290.3769 Y709.1816 Z10.0000 F12000.
G1 X2290.3769 Y705.5816 Z10.0000 F12000.
G1 X2290.3769 Y705.5816 Z-5.0000 F4000.
G1 X2286.5885 Y705.5816 Z-5.0000 F3500.
G1 X2286.5885 Y703.7816 Z-5.0000
G1 X2294.1654 Y703.7816 Z-5.0000
G1 X2294.1654 Y705.5816 Z-5.0000
G1 X2290.3769 Y705.5816 Z-5.0000
G1 X2290.3769 Y707.3816 Z-5.0000
G1 X2284.7885 Y707.3816 Z-5.0000
G1 X2284.7885 Y701.9816 Z-5.0000
G1 X2295.9654 Y701.9816 Z-5.0000
G1 X2295.9654 Y707.3816 Z-5.0000
G1 X2290.3769 Y707.3816 Z-5.0000
G1 X2290.3769 Y709.1816 Z-5.0000
G1 X2282.9885 Y709.1816 Z-5.0000
G1 X2282.9885 Y700.1816 Z-5.0000
G1 X2297.7654 Y700.1816 Z-5.0000
G1 X2297.7654 Y709.1816 Z-5.0000
G1 X2290.3769 Y709.1816 Z-5.0000
G1 X2290.3769 Y709.1816 Z10.0000 F12000.
G1 X2290.3769 Y705.5816 Z10.0000 F12000.
G1 X2290.3769 Y705.5816 Z-7.5000 F4000.
G1 X2286.5885 Y705.5816 Z-7.5000 F3500.
G1 X2286.5885 Y703.7816 Z-7.5000
G1 X2294.1654 Y703.7816 Z-7.5000
G1 X2294.1654 Y705.5816 Z-7.5000
G1 X2290.3769 Y705.5816 Z-7.5000
G1 X2290.3769 Y707.3816 Z-7.5000
G1 X2284.7885 Y707.3816 Z-7.5000
G1 X2284.7885 Y701.9816 Z-7.5000
G1 X2295.9654 Y701.9816 Z-7.5000
G1 X2295.9654 Y707.3816 Z-7.5000
G1 X2290.3769 Y707.3816 Z-7.5000
G1 X2290.3769 Y709.1816 Z-7.5000
G1 X2282.9885 Y709.1816 Z-7.5000
G1 X2282.9885 Y700.1816 Z-7.5000
G1 X2297.7654 Y700.1816 Z-7.5000
G1 X2297.7654 Y709.1816 Z-7.5000
G1 X2290.3769 Y709.1816 Z-7.5000
G1 X2290.3769 Y708.1209 Z-6.4393 F4000.
G1 X2290.3769 Y708.1209 Z-5.8393
G1 X2290.3769 Y708.1209 Z10.0000 F12000.
G1 X2325.9703 Y760.2406 Z10.0000 F12000.
G1 X2325.9703 Y760.2406 Z-1.3000 F4000.
G1 X2325.9703 Y760.2406 Z-1.9000
G1 X2322.5675 Y760.2406 Z-2.5000
G1 X2318.7791 Y760.2406 Z-2.5000 F3500.
G1 X2318.7791 Y758.4406 Z-2.5000
G1 X2326.3560 Y758.4406 Z-2.5000
G1 X2326.3560 Y760.2406 Z-2.5000
G1 X2322.5675 Y760.2406 Z-2.5000
G1 X2322.5675 Y762.0406 Z-2.5000
G1 X2316.9791 Y762.0406 Z-2.5000
G1 X2316.9791 Y756.6406 Z-2.5000
G1 X2328.1560 Y756.6406 Z-2.5000
G1 X2328.1560 Y762.0406 Z-2.5000
G1 X2322.5675 Y762.0406 Z-2.5000
G1 X2322.5675 Y763.8406 Z-2.5000
G1 X2315.1791 Y763.8406 Z-2.5000
G1 X2315.1791 Y754.8406 Z-2.5000
G1 X2329.9560 Y754.8406 Z-2.5000
G1 X2329.9560 Y763.8406 Z-2.5000
G1 X2322.5675 Y763.8406 Z-2.5000
G1 X2322.5675 Y763.8406 Z10.0000 F12000.
G1 X2322.5675 Y760.2406 Z10.0000 F12000.
G1 X2322.5675 Y760.2406 Z-5.0000 F4000.
G1 X2318.7791 Y760.2406 Z-5.0000 F3500.
G1 X2318.7791 Y758.4406 Z-5.0000
G1 X2326.3560 Y758.4406 Z-5.0000
G1 X2326.3560 Y760.2406 Z-5.0000
G1 X2322.5675 Y760.2406 Z-5.0000
G1 X2322.5675 Y762.0406 Z-5.0000
G1 X2316.9791 Y762.0406 Z-5.0000
G1 X2316.9791 Y756.6406 Z-5.0000
G1 X2328.1560 Y756.6406 Z-5.0000
G1 X2328.1560 Y762.0406 Z-5.0000
G1 X2322.5675 Y762.0406 Z-5.0000
G1 X2322.5675 Y763.8406 Z-5.0000
G1 X2315.1791 Y763.8406 Z-5.0000
G1 X2315.1791 Y754.8406 Z-5.0000
G1 X2329.9560 Y754.8406 Z-5.0000
G1 X2329.9560 Y763.8406 Z-5.0000
G1 X2322.5675 Y763.8406 Z-5.0000
G1 X2322.5675 Y763.8406 Z10.0000 F12000.
G1 X2322.5675 Y760.2406 Z10.0000 F12000.
G1 X2322.5675 Y760.2406 Z-7.5000 F4000.
G1 X2318.7791 Y760.2406 Z-7.5000 F3500.
G1 X2318.7791 Y758.4406 Z-7.5000
G1 X2326.3560 Y758.4406 Z-7.5000
G1 X2326.3560 Y760.2406 Z-7.5000
G1 X2322.5675 Y760.2406 Z-7.5000
G1 X2322.5675 Y762.0406 Z-7.5000
G1 X2316.9791 Y762.0406 Z-7.5000
G1 X2316.9791 Y756.6406 Z-7.5000
G1 X2328.1560 Y756.6406 Z-7.5000
G1 X2328.1560 Y762.0406 Z-7.5000
G1 X2322.5675 Y762.0406 Z-7.5000
G1 X2322.5675 Y763.8406 Z-7.5000
G1 X2315.1791 Y763.8406 Z-7.5000
G1 X2315.1791 Y754.8406 Z-7.5000
G1 X2329.9560 Y754.8406 Z-7.5000
G1 X2329.9560 Y763.8406 Z-7.5000
G1 X2322.5675 Y763.8406 Z-7.5000
G1 X2322.5675 Y762.7799 Z-6.4393 F4000.
G1 X2322.5675 Y762.7799 Z-5.8393
G1 X2322.5675 Y762.7799 Z10.0000 F12000.
G1 X2356.9703 Y757.2406 Z10.0000 F12000.
G1 X2356.9703 Y757.2406 Z-1.3000 F4000.
G1 X2356.9703 Y757.2406 Z-1.9000
G1 X2353.5675 Y757.2406 Z-2.5000
G1 X2349.7791 Y757.2406 Z-2.5000 F3500.
G1 X2349.7791 Y755.4406 Z-2.5000
G1 X2357.3560 Y755.4406 Z-2.5000
G1 X2357.3560 Y757.2406 Z-2.5000
G1 X2353.5675 Y757.2406 Z-2.5000
G1 X2353.5675 Y759.0406 Z-2.5000
G1 X2347.9791 Y759.0406 Z-2.5000
G1 X2347.9791 Y753.6406 Z-2.5000
G1 X2359.1560 Y753.6406 Z-2.5000
G1 X2359.1560 Y759.0406 Z-2.5000
G1 X2353.5675 Y759.0406 Z-2.5000
G1 X2353.5675 Y760.8406 Z-2.5000
G1 X2346.1791 Y760.8406 Z-2.5000
G1 X2346.1791 Y751.8406 Z-2.5000
G1 X2360.9560 Y751.8406 Z-2.5000
G1 X2360.9560 Y760.8406 Z-2.5000
G1 X2353.5675 Y760.8406 Z-2.5000
G1 X2353.5675 Y760.8406 Z10.0000 F12000.
G1 X2353.5675 Y757.2406 Z10.0000 F12000.
G1 X2353.5675 Y757.2406 Z-5.0000 F4000.
G1 X2349.7791 Y757.2406 Z-5.0000 F3500.
G1 X2349.7791 Y755.4406 Z-5.0000
G1 X2357.3560 Y755.4406 Z-5.0000
G1 X2357.3560 Y757.2406 Z-5.0000
G1 X2353.5675 Y757.2406 Z-5.0000
G1 X2353.5675 Y759.0406 Z-5.0000
G1 X2347.9791 Y759.0406 Z-5.0000
G1 X2347.9791 Y753.6406 Z-5.0000
G1 X2359.1560 Y753.6406 Z-5.0000
G1 X2359.1560 Y759.0406 Z-5.0000
G1 X2353.5675 Y759.0406 Z-5.0000
G1 X2353.5675 Y760.8406 Z-5.0000
G1 X2346.1791 Y760.8406 Z-5.0000
G1 X2346.1791 Y751.8406 Z-5.0000
G1 X2360.9560 Y751.8406 Z-5.0000
G1 X2360.9560 Y760.8406 Z-5.0000
G1 X2353.5675 Y760.8406 Z-5.0000
G1 X2353.5675 Y760.8406 Z10.0000 F12000.
G1 X2353.5675 Y757.2406 Z10.0000 F12000.
G1 X2353.5675 Y757.2406 Z-7.5000 F4000.
G1 X2349.7791 Y757.2406 Z-7.5000 F3500.
G1 X2349.7791 Y755.4406 Z-7.5000
G1 X2357.3560 Y755.4406 Z-7.5000
G1 X2357.3560 Y757.2406 Z-7.5000
G1 X2353.5675 Y757.2406 Z-7.5000
G1 X2353.5675 Y759.0406 Z-7.5000
G1 X2347.9791 Y759.0406 Z-7.5000
G1 X2347.9791 Y753.6406 Z-7.5000
G1 X2359.1560 Y753.6406 Z-7.5000
G1 X2359.1560 Y759.0406 Z-7.5000
G1 X2353.5675 Y759.0406 Z-7.5000
G1 X2353.5675 Y760.8406 Z-7.5000
G1 X2346.1791 Y760.8406 Z-7.5000
G1 X2346.1791 Y751.8406 Z-7.5000
G1 X2360.9560 Y751.8406 Z-7.5000
G1 X2360.9560 Y760.8406 Z-7.5000
G1 X2353.5675 Y760.8406 Z-7.5000
G1 X2353.5675 Y759.7799 Z-6.4393 F4000.
G1 X2353.5675 Y759.7799 Z-5.8393
G1 X2353.5675 Y759.7799 Z10.0000 F12000.
G1 X2206.3440 Y757.2406 Z10.0000 F12000.
G1 X2206.3440 Y757.2406 Z-1.3000 F4000.
G1 X2206.3440 Y757.2406 Z-1.9000
G1 X2202.9412 Y757.2406 Z-2.5000
G1 X2199.1528 Y757.2406 Z-2.5000 F3500.
G1 X2199.1528 Y755.4406 Z-2.5000
G1 X2206.7297 Y755.4406 Z-2.5000
G1 X2206.7297 Y757.2406 Z-2.5000
G1 X2202.9412 Y757.2406 Z-2.5000
G1 X2202.9412 Y759.0406 Z-2.5000
G1 X2197.3528 Y759.0406 Z-2.5000
G1 X2197.3528 Y753.6406 Z-2.5000
G1 X2208.5297 Y753.6406 Z-2.5000
G1 X2208.5297 Y759.0406 Z-2.5000
G1 X2202.9412 Y759.0406 Z-2.5000
G1 X2202.9412 Y760.8406 Z-2.5000
G1 X2195.5528 Y760.8406 Z-2.5000
G1 X2195.5528 Y751.8406 Z-2.5000
G1 X2210.3297 Y751.8406 Z-2.5000
G1 X2210.3297 Y760.8406 Z-2.5000
G1 X2202.9412 Y760.8406 Z-2.5000
G1 X2202.9412 Y760.8406 Z10.0000 F12000.
G1 X2202.9412 Y757.2406 Z10.0000 F12000.
G1 X2202.9412 Y757.2406 Z-5.0000 F4000.
G1 X2199.1528 Y757.2406 Z-5.0000 F3500.
G1 X2199.1528 Y755.4406 Z-5.0000
G1 X2206.7297 Y755.4406 Z-5.0000
G1 X2206.7297 Y757.2406 Z-5.0000
G1 X2202.9412 Y757.2406 Z-5.0000
G1 X2202.9412 Y759.0406 Z-5.0000
G1 X2197.3528 Y759.0406 Z-5.0000
G1 X2197.3528 Y753.6406 Z-5.0000
G1 X2208.5297 Y753.6406 Z-5.0000
G1 X2208.5297 Y759.0406 Z-5.0000
G1 X2202.9412 Y759.0406 Z-5.0000
G1 X2202.9412 Y760.8406 Z-5.0000
G1 X2195.5528 Y760.8406 Z-5.0000
G1 X2195.5528 Y751.8406 Z-5.0000
G1 X2210.3297 Y751.8406 Z-5.0000
G1 X2210.3297 Y760.8406 Z-5.0000
G1 X2202.9412 Y760.8406 Z-5.0000
G1 X2202.9412 Y760.8406 Z10.0000 F12000.
G1 X2202.9412 Y757.2406 Z10.0000 F12000.
G1 X2202.9412 Y757.2406 Z-7.5000 F4000.
G1 X2199.1528 Y757.2406 Z-7.5000 F3500.
G1 X2199.1528 Y755.4406 Z-7.5000
G1 X2206.7297 Y755.4406 Z-7.5000
G1 X2206.7297 Y757.2406 Z-7.5000
G1 X2202.9412 Y757.2406 Z-7.5000
G1 X2202.9412 Y759.0406 Z-7.5000
G1 X2197.3528 Y759.0406 Z-7.5000
G1 X2197.3528 Y753.6406 Z-7.5000
G1 X2208.5297 Y753.6406 Z-7.5000
G1 X2208.5297 Y759.0406 Z-7.5000
G1 X2202.9412 Y759.0406 Z-7.5000
G1 X2202.9412 Y760.8406 Z-7.5000
G1 X2195.5528 Y760.8406 Z-7.5000
G1 X2195.5528 Y751.8406 Z-7.5000
G1 X2210.3297 Y751.8406 Z-7.5000
G1 X2210.3297 Y760.8406 Z-7.5000
G1 X2202.9412 Y760.8406 Z-7.5000
G1 X2202.9412 Y759.7799 Z-6.4393 F4000.
G1 X2202.9412 Y759.7799 Z-5.8393
G1 X2202.9412 Y759.7799 Z10.0000 F12000.
G1 X2175.3440 Y760.2406 Z10.0000 F12000.
G1 X2175.3440 Y760.2406 Z-1.3000 F4000.
G1 X2175.3440 Y760.2406 Z-1.9000
G1 X2171.9412 Y760.2406 Z-2.5000
G1 X2168.1528 Y760.2406 Z-2.5000 F3500.
G1 X2168.1528 Y758.4406 Z-2.5000
G1 X2175.7297 Y758.4406 Z-2.5000
G1 X2175.7297 Y760.2406 Z-2.5000
G1 X2171.9412 Y760.2406 Z-2.5000
G1 X2171.9412 Y762.0406 Z-2.5000
G1 X2166.3528 Y762.0406 Z-2.5000
G1 X2166.3528 Y756.6406 Z-2.5000
G1 X2177.5297 Y756.6406 Z-2.5000
G1 X2177.5297 Y762.0406 Z-2.5000
G1 X2171.9412 Y762.0406 Z-2.5000
G1 X2171.9412 Y763.8406 Z-2.5000
G1 X2164.5528 Y763.8406 Z-2.5000
G1 X2164.5528 Y754.8406 Z-2.5000
G1 X2179.3297 Y754.8406 Z-2.5000
G1 X2179.3297 Y763.8406 Z-2.5000
G1 X2171.9412 Y763.8406 Z-2.5000
G1 X2171.9412 Y763.8406 Z10.0000 F12000.
G1 X2171.9412 Y760.2406 Z10.0000 F12000.
G1 X2171.9412 Y760.2406 Z-5.0000 F4000.
G1 X2168.1528 Y760.2406 Z-5.0000 F3500.
G1 X2168.1528 Y758.4406 Z-5.0000
G1 X2175.7297 Y758.4406 Z-5.0000
G1 X2175.7297 Y760.2406 Z-5.0000
G1 X2171.9412 Y760.2406 Z-5.0000
G1 X2171.9412 Y762.0406 Z-5.0000
G1 X2166.3528 Y762.0406 Z-5.0000
G1 X2166.3528 Y756.6406 Z-5.0000
G1 X2177.5297 Y756.6406 Z-5.0000
G1 X2177.5297 Y762.0406 Z-5.0000
G1 X2171.9412 Y762.0406 Z-5.0000
G1 X2171.9412 Y763.8406 Z-5.0000
G1 X2164.5528 Y763.8406 Z-5.0000
G1 X2164.5528 Y754.8406 Z-5.0000
G1 X2179.3297 Y754.8406 Z-5.0000
G1 X2179.3297 Y763.8406 Z-5.0000
G1 X2171.9412 Y763.8406 Z-5.0000
G1 X2171.9412 Y763.8406 Z10.0000 F12000.
G1 X2171.9412 Y760.2406 Z10.0000 F12000.
G1 X2171.9412 Y760.2406 Z-7.5000 F4000.
G1 X2168.1528 Y760.2406 Z-7.5000 F3500.
G1 X2168.1528 Y758.4406 Z-7.5000
G1 X2175.7297 Y758.4406 Z-7.5000
G1 X2175.7297 Y760.2406 Z-7.5000
G1 X2171.9412 Y760.2406 Z-7.5000
G1 X2171.9412 Y762.0406 Z-7.5000
G1 X2166.3528 Y762.0406 Z-7.5000
G1 X2166.3528 Y756.6406 Z-7.5000
G1 X2177.5297 Y756.6406 Z-7.5000
G1 X2177.5297 Y762.0406 Z-7.5000
G1 X2171.9412 Y762.0406 Z-7.5000
G1 X2171.9412 Y763.8406 Z-7.5000
G1 X2164.5528 Y763.8406 Z-7.5000
G1 X2164.5528 Y754.8406 Z-7.5000
G1 X2179.3297 Y754.8406 Z-7.5000
G1 X2179.3297 Y763.8406 Z-7.5000
G1 X2171.9412 Y763.8406 Z-7.5000
G1 X2171.9412 Y762.7799 Z-6.4393 F4000.
G1 X2171.9412 Y762.7799 Z-5.8393
G1 X2171.9412 Y762.7799 Z10.0000 F12000.
G1 X2143.1534 Y705.5816 Z10.0000 F12000.
G1 X2143.1534 Y705.5816 Z-1.3000 F4000.
G1 X2143.1534 Y705.5816 Z-1.9000
G1 X2139.7506 Y705.5816 Z-2.5000
G1 X2135.9622 Y705.5816 Z-2.5000 F3500.
G1 X2135.9622 Y703.7816 Z-2.5000
G1 X2143.5391 Y703.7816 Z-2.5000
G1 X2143.5391 Y705.5816 Z-2.5000
G1 X2139.7506 Y705.5816 Z-2.5000
G1 X2139.7506 Y707.3816 Z-2.5000
G1 X2134.1622 Y707.3816 Z-2.5000
G1 X2134.1622 Y701.9816 Z-2.5000
G1 X2145.3391 Y701.9816 Z-2.5000
G1 X2145.3391 Y707.3816 Z-2.5000
G1 X2139.7506 Y707.3816 Z-2.5000
G1 X2139.7506 Y709.1816 Z-2.5000
G1 X2132.3622 Y709.1816 Z-2.5000
G1 X2132.3622 Y700.1816 Z-2.5000
G1 X2147.1391 Y700.1816 Z-2.5000
G1 X2147.1391 Y709.1816 Z-2.5000
G1 X2139.7506 Y709.1816 Z-2.5000
G1 X2139.7506 Y709.1816 Z10.0000 F12000.
G1 X2139.7506 Y705.5816 Z10.0000 F12000.
G1 X2139.7506 Y705.5816 Z-5.0000 F4000.
G1 X2135.9622 Y705.5816 Z-5.0000 F3500.
G1 X2135.9622 Y703.7816 Z-5.0000
G1 X2143.5391 Y703.7816 Z-5.0000
G1 X2143.5391 Y705.5816 Z-5.0000
G1 X2139.7506 Y705.5816 Z-5.0000
G1 X2139.7506 Y707.3816 Z-5.0000
G1 X2134.1622 Y707.3816 Z-5.0000
G1 X2134.1622 Y701.9816 Z-5.0000
G1 X2145.3391 Y701.9816 Z-5.0000
G1 X2145.3391 Y707.3816 Z-5.0000
G1 X2139.7506 Y707.3816 Z-5.0000
G1 X2139.7506 Y709.1816 Z-5.0000
G1 X2132.3622 Y709.1816 Z-5.0000
G1 X2132.3622 Y700.1816 Z-5.0000
G1 X2147.1391 Y700.1816 Z-5.0000
G1 X2147.1391 Y709.1816 Z-5.0000
G1 X2139.7506 Y709.1816 Z-5.0000
G1 X2139.7506 Y709.1816 Z10.0000 F12000.
G1 X2139.7506 Y705.5816 Z10.0000 F12000.
G1 X2139.7506 Y705.5816 Z-7.5000 F4000.
G1 X2135.9622 Y705.5816 Z-7.5000 F3500.
G1 X2135.9622 Y703.7816 Z-7.5000
G1 X2143.5391 Y703.7816 Z-7.5000
G1 X2143.5391 Y705.5816 Z-7.5000
G1 X2139.7506 Y705.5816 Z-7.5000
G1 X2139.7506 Y707.3816 Z-7.5000
G1 X2134.1622 Y707.3816 Z-7.5000
G1 X2134.1622 Y701.9816 Z-7.5000
G1 X2145.3391 Y701.9816 Z-7.5000
G1 X2145.3391 Y707.3816 Z-7.5000
G1 X2139.7506 Y707.3816 Z-7.5000
G1 X2139.7506 Y709.1816 Z-7.5000
G1 X2132.3622 Y709.1816 Z-7.5000
G1 X2132.3622 Y700.1816 Z-7.5000
G1 X2147.1391 Y700.1816 Z-7.5000
G1 X2147.1391 Y709.1816 Z-7.5000
G1 X2139.7506 Y709.1816 Z-7.5000
G1 X2139.7506 Y708.1209 Z-6.4393 F4000.
G1 X2139.7506 Y708.1209 Z-5.8393
G1 X2139.7506 Y708.1209 Z10.0000 F12000.
G1 X2143.1534 Y650.7761 Z10.0000 F12000.
G1 X2143.1534 Y650.7761 Z-1.3000 F4000.
G1 X2143.1534 Y650.7761 Z-1.9000
G1 X2139.7506 Y650.7761 Z-2.5000
G1 X2135.9622 Y650.7761 Z-2.5000 F3500.
G1 X2135.9622 Y648.9761 Z-2.5000
G1 X2143.5391 Y648.9761 Z-2.5000
G1 X2143.5391 Y650.7761 Z-2.5000
G1 X2139.7506 Y650.7761 Z-2.5000
G1 X2139.7506 Y652.5761 Z-2.5000
G1 X2134.1622 Y652.5761 Z-2.5000
G1 X2134.1622 Y647.1761 Z-2.5000
G1 X2145.3391 Y647.1761 Z-2.5000
G1 X2145.3391 Y652.5761 Z-2.5000
G1 X2139.7506 Y652.5761 Z-2.5000
G1 X2139.7506 Y654.3761 Z-2.5000
G1 X2132.3622 Y654.3761 Z-2.5000
G1 X2132.3622 Y645.3761 Z-2.5000
G1 X2147.1391 Y645.3761 Z-2.5000
G1 X2147.1391 Y654.3761 Z-2.5000
G1 X2139.7506 Y654.3761 Z-2.5000
G1 X2139.7506 Y654.3761 Z10.0000 F12000.
G1 X2139.7506 Y650.7761 Z10.0000 F12000.
G1 X2139.7506 Y650.7761 Z-5.0000 F4000.
G1 X2135.9622 Y650.7761 Z-5.0000 F3500.
G1 X2135.9622 Y648.9761 Z-5.0000
G1 X2143.5391 Y648.9761 Z-5.0000
G1 X2143.5391 Y650.7761 Z-5.0000
G1 X2139.7506 Y650.7761 Z-5.0000
G1 X2139.7506 Y652.5761 Z-5.0000
G1 X2134.1622 Y652.5761 Z-5.0000
G1 X2134.1622 Y647.1761 Z-5.0000
G1 X2145.3391 Y647.1761 Z-5.0000
G1 X2145.3391 Y652.5761 Z-5.0000
G1 X2139.7506 Y652.5761 Z-5.0000
G1 X2139.7506 Y654.3761 Z-5.0000
G1 X2132.3622 Y654.3761 Z-5.0000
G1 X2132.3622 Y645.3761 Z-5.0000
G1 X2147.1391 Y645.3761 Z-5.0000
G1 X2147.1391 Y654.3761 Z-5.0000
G1 X2139.7506 Y654.3761 Z-5.0000
G1 X2139.7506 Y654.3761 Z10.0000 F12000.
G1 X2139.7506 Y650.7761 Z10.0000 F12000.
G1 X2139.7506 Y650.7761 Z-7.5000 F4000.
G1 X2135.9622 Y650.7761 Z-7.5000 F3500.
G1 X2135.9622 Y648.9761 Z-7.5000
G1 X2143.5391 Y648.9761 Z-7.5000
G1 X2143.5391 Y650.7761 Z-7.5000
G1 X2139.7506 Y650.7761 Z-7.5000
G1 X2139.7506 Y652.5761 Z-7.5000
G1 X2134.1622 Y652.5761 Z-7.5000
G1 X2134.1622 Y647.1761 Z-7.5000
G1 X2145.3391 Y647.1761 Z-7.5000
G1 X2145.3391 Y652.5761 Z-7.5000
G1 X2139.7506 Y652.5761 Z-7.5000
G1 X2139.7506 Y654.3761 Z-7.5000
G1 X2132.3622 Y654.3761 Z-7.5000
G1 X2132.3622 Y645.3761 Z-7.5000
G1 X2147.1391 Y645.3761 Z-7.5000
G1 X2147.1391 Y654.3761 Z-7.5000
G1 X2139.7506 Y654.3761 Z-7.5000
G1 X2139.7506 Y653.3154 Z-6.4393 F4000.
G1 X2139.7506 Y653.3154 Z-5.8393
G1 X2139.7506 Y653.3154 Z10.0000 F12000.
G1 X2175.3440 Y585.4351 Z10.0000 F12000.
G1 X2175.3440 Y585.4351 Z-1.3000 F4000.
G1 X2175.3440 Y585.4351 Z-1.9000
G1 X2171.9412 Y585.4351 Z-2.5000
G1 X2168.1528 Y585.4351 Z-2.5000 F3500.
G1 X2168.1528 Y583.6351 Z-2.5000
G1 X2175.7297 Y583.6351 Z-2.5000
G1 X2175.7297 Y585.4351 Z-2.5000
G1 X2171.9412 Y585.4351 Z-2.5000
G1 X2171.9412 Y587.2351 Z-2.5000
G1 X2166.3528 Y587.2351 Z-2.5000
G1 X2166.3528 Y581.8351 Z-2.5000
G1 X2177.5297 Y581.8351 Z-2.5000
G1 X2177.5297 Y587.2351 Z-2.5000
G1 X2171.9412 Y587.2351 Z-2.5000
G1 X2171.9412 Y589.0351 Z-2.5000
G1 X2164.5528 Y589.0351 Z-2.5000
G1 X2164.5528 Y580.0351 Z-2.5000
G1 X2179.3297 Y580.0351 Z-2.5000
G1 X2179.3297 Y589.0351 Z-2.5000
G1 X2171.9412 Y589.0351 Z-2.5000
G1 X2171.9412 Y589.0351 Z10.0000 F12000.
G1 X2171.9412 Y585.4351 Z10.0000 F12000.
G1 X2171.9412 Y585.4351 Z-5.0000 F4000.
G1 X2168.1528 Y585.4351 Z-5.0000 F3500.
G1 X2168.1528 Y583.6351 Z-5.0000
G1 X2175.7297 Y583.6351 Z-5.0000
G1 X2175.7297 Y585.4351 Z-5.0000
G1 X2171.9412 Y585.4351 Z-5.0000
G1 X2171.9412 Y587.2351 Z-5.0000
G1 X2166.3528 Y587.2351 Z-5.0000
G1 X2166.3528 Y581.8351 Z-5.0000
G1 X2177.5297 Y581.8351 Z-5.0000
G1 X2177.5297 Y587.2351 Z-5.0000
G1 X2171.9412 Y587.2351 Z-5.0000
G1 X2171.9412 Y589.0351 Z-5.0000
G1 X2164.5528 Y589.0351 Z-5.0000
G1 X2164.5528 Y580.0351 Z-5.0000
G1 X2179.3297 Y580.0351 Z-5.0000
G1 X2179.3297 Y589.0351 Z-5.0000
G1 X2171.9412 Y589.0351 Z-5.0000
G1 X2171.9412 Y589.0351 Z10.0000 F12000.
G1 X2171.9412 Y585.4351 Z10.0000 F12000.
G1 X2171.9412 Y585.4351 Z-7.5000 F4000.
G1 X2168.1528 Y585.4351 Z-7.5000 F3500.
G1 X2168.1528 Y583.6351 Z-7.5000
G1 X2175.7297 Y583.6351 Z-7.5000
G1 X2175.7297 Y585.4351 Z-7.5000
G1 X2171.9412 Y585.4351 Z-7.5000
G1 X2171.9412 Y587.2351 Z-7.5000
G1 X2166.3528 Y587.2351 Z-7.5000
G1 X2166.3528 Y581.8351 Z-7.5000
G1 X2177.5297 Y581.8351 Z-7.5000
G1 X2177.5297 Y587.2351 Z-7.5000
G1 X2171.9412 Y587.2351 Z-7.5000
G1 X2171.9412 Y589.0351 Z-7.5000
G1 X2164.5528 Y589.0351 Z-7.5000
G1 X2164.5528 Y580.0351 Z-7.5000
G1 X2179.3297 Y580.0351 Z-7.5000
G1 X2179.3297 Y589.0351 Z-7.5000
G1 X2171.9412 Y589.0351 Z-7.5000
G1 X2171.9412 Y587.9744 Z-6.4393 F4000.
G1 X2171.9412 Y587.9744 Z-5.8393
G1 X2171.9412 Y587.9744 Z10.0000 F12000.
G1 X2206.3440 Y582.4351 Z10.0000 F12000.
G1 X2206.3440 Y582.4351 Z-1.3000 F4000.
G1 X2206.3440 Y582.4351 Z-1.9000
G1 X2202.9412 Y582.4351 Z-2.5000
G1 X2199.1528 Y582.4351 Z-2.5000 F3500.
G1 X2199.1528 Y580.6351 Z-2.5000
G1 X2206.7297 Y580.6351 Z-2.5000
G1 X2206.7297 Y582.4351 Z-2.5000
G1 X2202.9412 Y582.4351 Z-2.5000
G1 X2202.9412 Y584.2351 Z-2.5000
G1 X2197.3528 Y584.2351 Z-2.5000
G1 X2197.3528 Y578.8351 Z-2.5000
G1 X2208.5297 Y578.8351 Z-2.5000
G1 X2208.5297 Y584.2351 Z-2.5000
G1 X2202.9412 Y584.2351 Z-2.5000
G1 X2202.9412 Y586.0351 Z-2.5000
G1 X2195.5528 Y586.0351 Z-2.5000
G1 X2195.5528 Y577.0351 Z-2.5000
G1 X2210.3297 Y577.0351 Z-2.5000
G1 X2210.3297 Y586.0351 Z-2.5000
G1 X2202.9412 Y586.0351 Z-2.5000
G1 X2202.9412 Y586.0351 Z10.0000 F12000.
G1 X2202.9412 Y582.4351 Z10.0000 F12000.
G1 X2202.9412 Y582.4351 Z-5.0000 F4000.
G1 X2199.1528 Y582.4351 Z-5.0000 F3500.
G1 X2199.1528 Y580.6351 Z-5.0000
G1 X2206.7297 Y580.6351 Z-5.0000
G1 X2206.7297 Y582.4351 Z-5.0000
G1 X2202.9412 Y582.4351 Z-5.0000
G1 X2202.9412 Y584.2351 Z-5.0000
G1 X2197.3528 Y584.2351 Z-5.0000
G1 X2197.3528 Y578.8351 Z-5.0000
G1 X2208.5297 Y578.8351 Z-5.0000
G1 X2208.5297 Y584.2351 Z-5.0000
G1 X2202.9412 Y584.2351 Z-5.0000
G1 X2202.9412 Y586.0351 Z-5.0000
G1 X2195.5528 Y586.0351 Z-5.0000
G1 X2195.5528 Y577.0351 Z-5.0000
G1 X2210.3297 Y577.0351 Z-5.0000
G1 X2210.3297 Y586.0351 Z-5.0000
G1 X2202.9412 Y586.0351 Z-5.0000
G1 X2202.9412 Y586.0351 Z10.0000 F12000.
G1 X2202.9412 Y582.4351 Z10.0000 F12000.
G1 X2202.9412 Y582.4351 Z-7.5000 F4000.
G1 X2199.1528 Y582.4351 Z-7.5000 F3500.
G1 X2199.1528 Y580.6351 Z-7.5000
G1 X2206.7297 Y580.6351 Z-7.5000
G1 X2206.7297 Y582.4351 Z-7.5000
G1 X2202.9412 Y582.4351 Z-7.5000
G1 X2202.9412 Y584.2351 Z-7.5000
G1 X2197.3528 Y584.2351 Z-7.5000
G1 X2197.3528 Y578.8351 Z-7.5000
G1 X2208.5297 Y578.8351 Z-7.5000
G1 X2208.5297 Y584.2351 Z-7.5000
G1 X2202.9412 Y584.2351 Z-7.5000
G1 X2202.9412 Y586.0351 Z-7.5000
G1 X2195.5528 Y586.0351 Z-7.5000
G1 X2195.5528 Y577.0351 Z-7.5000
G1 X2210.3297 Y577.0351 Z-7.5000
G1 X2210.3297 Y586.0351 Z-7.5000
G1 X2202.9412 Y586.0351 Z-7.5000
G1 X2202.9412 Y584.9744 Z-6.4393 F4000.
G1 X2202.9412 Y584.9744 Z-5.8393
G1 X2202.9412 Y584.9744 Z10.0000 F12000.
G1 X2064.2760 Y582.4351 Z10.0000 F12000.
G1 X2064.2760 Y582.4351 Z-1.3000 F4000.
G1 X2064.2760 Y582.4351 Z-1.9000
G1 X2060.8732 Y582.4351 Z-2.5000
G1 X2057.0847 Y582.4351 Z-2.5000 F3500.
G1 X2057.0847 Y580.6351 Z-2.5000
G1 X2064.6617 Y580.6351 Z-2.5000
G1 X2064.6617 Y582.4351 Z-2.5000
G1 X2060.8732 Y582.4351 Z-2.5000
G1 X2060.8732 Y584.2351 Z-2.5000
G1 X2055.2847 Y584.2351 Z-2.5000
G1 X2055.2847 Y578.8351 Z-2.5000
G1 X2066.4617 Y578.8351 Z-2.5000
G1 X2066.4617 Y584.2351 Z-2.5000
G1 X2060.8732 Y584.2351 Z-2.5000
G1 X2060.8732 Y586.0351 Z-2.5000
G1 X2053.4847 Y586.0351 Z-2.5000
G1 X2053.4847 Y577.0351 Z-2.5000
G1 X2068.2617 Y577.0351 Z-2.5000
G1 X2068.2617 Y586.0351 Z-2.5000
G1 X2060.8732 Y586.0351 Z-2.5000
G1 X2060.8732 Y586.0351 Z10.0000 F12000.
G1 X2060.8732 Y582.4351 Z10.0000 F12000.
G1 X2060.8732 Y582.4351 Z-5.0000 F4000.
G1 X2057.0847 Y582.4351 Z-5.0000 F3500.
G1 X2057.0847 Y580.6351 Z-5.0000
G1 X2064.6617 Y580.6351 Z-5.0000
G1 X2064.6617 Y582.4351 Z-5.0000
G1 X2060.8732 Y582.4351 Z-5.0000
G1 X2060.8732 Y584.2351 Z-5.0000
G1 X2055.2847 Y584.2351 Z-5.0000
G1 X2055.2847 Y578.8351 Z-5.0000
G1 X2066.4617 Y578.8351 Z-5.0000
G1 X2066.4617 Y584.2351 Z-5.0000
G1 X2060.8732 Y584.2351 Z-5.0000
G1 X2060.8732 Y586.0351 Z-5.0000
G1 X2053.4847 Y586.0351 Z-5.0000
G1 X2053.4847 Y577.0351 Z-5.0000
G1 X2068.2617 Y577.0351 Z-5.0000
G1 X2068.2617 Y586.0351 Z-5.0000
G1 X2060.8732 Y586.0351 Z-5.0000
G1 X2060.8732 Y586.0351 Z10.0000 F12000.
G1 X2060.8732 Y582.4351 Z10.0000 F12000.
G1 X2060.8732 Y582.4351 Z-7.5000 F4000.
G1 X2057.0847 Y582.4351 Z-7.5000 F3500.
G1 X2057.0847 Y580.6351 Z-7.5000
G1 X2064.6617 Y580.6351 Z-7.5000
G1 X2064.6617 Y582.4351 Z-7.5000
G1 X2060.8732 Y582.4351 Z-7.5000
G1 X2060.8732 Y584.2351 Z-7.5000
G1 X2055.2847 Y584.2351 Z-7.5000
G1 X2055.2847 Y578.8351 Z-7.5000
G1 X2066.4617 Y578.8351 Z-7.5000
G1 X2066.4617 Y584.2351 Z-7.5000
G1 X2060.8732 Y584.2351 Z-7.5000
G1 X2060.8732 Y586.0351 Z-7.5000
G1 X2053.4847 Y586.0351 Z-7.5000
G1 X2053.4847 Y577.0351 Z-7.5000
G1 X2068.2617 Y577.0351 Z-7.5000
G1 X2068.2617 Y586.0351 Z-7.5000
G1 X2060.8732 Y586.0351 Z-7.5000
G1 X2060.8732 Y584.9744 Z-6.4393 F4000.
G1 X2060.8732 Y584.9744 Z-5.8393
G1 X2060.8732 Y584.9744 Z10.0000 F12000.
G1 X2031.1589 Y583.6351 Z10.0000 F12000.
G1 X2031.1589 Y583.6351 Z-1.3000 F4000.
G1 X2031.1589 Y583.6351 Z-1.9000
G1 X2033.6617 Y583.6351 Z-2.3413
G1 X2033.6617 Y584.5351 Z-2.5000
G1 X2033.6617 Y585.4351 Z-2.5000 F3500.
G1 X2026.0847 Y585.4351 Z-2.5000
G1 X2026.0847 Y583.6351 Z-2.5000
G1 X2033.6617 Y583.6351 Z-2.5000
G1 X2033.6617 Y584.5351 Z-2.5000
G1 X2035.4617 Y584.5351 Z-2.5000
G1 X2035.4617 Y587.2351 Z-2.5000
G1 X2024.2847 Y587.2351 Z-2.5000
G1 X2024.2847 Y581.8351 Z-2.5000
G1 X2035.4617 Y581.8351 Z-2.5000
G1 X2035.4617 Y584.5351 Z-2.5000
G1 X2037.2617 Y584.5351 Z-2.5000
G1 X2037.2617 Y589.0351 Z-2.5000
G1 X2022.4847 Y589.0351 Z-2.5000
G1 X2022.4847 Y580.0351 Z-2.5000
G1 X2037.2617 Y580.0351 Z-2.5000
G1 X2037.2617 Y584.5351 Z-2.5000
G1 X2037.2617 Y584.5351 Z10.0000 F12000.
G1 X2033.6617 Y584.5351 Z10.0000 F12000.
G1 X2033.6617 Y584.5351 Z-5.0000 F4000.
G1 X2033.6617 Y585.4351 Z-5.0000 F3500.
G1 X2026.0847 Y585.4351 Z-5.0000
G1 X2026.0847 Y583.6351 Z-5.0000
G1 X2033.6617 Y583.6351 Z-5.0000
G1 X2033.6617 Y584.5351 Z-5.0000
G1 X2035.4617 Y584.5351 Z-5.0000
G1 X2035.4617 Y587.2351 Z-5.0000
G1 X2024.2847 Y587.2351 Z-5.0000
G1 X2024.2847 Y581.8351 Z-5.0000
G1 X2035.4617 Y581.8351 Z-5.0000
G1 X2035.4617 Y584.5351 Z-5.0000
G1 X2037.2617 Y584.5351 Z-5.0000
G1 X2037.2617 Y589.0351 Z-5.0000
G1 X2022.4847 Y589.0351 Z-5.0000
G1 X2022.4847 Y580.0351 Z-5.0000
G1 X2037.2617 Y580.0351 Z-5.0000
G1 X2037.2617 Y584.5351 Z-5.0000
G1 X2037.2617 Y584.5351 Z10.0000 F12000.
G1 X2033.6617 Y584.5351 Z10.0000 F12000.
G1 X2033.6617 Y584.5351 Z-7.5000 F4000.
G1 X2033.6617 Y585.4351 Z-7.5000 F3500.
G1 X2026.0847 Y585.4351 Z-7.5000
G1 X2026.0847 Y583.6351 Z-7.5000
G1 X2033.6617 Y583.6351 Z-7.5000
G1 X2033.6617 Y584.5351 Z-7.5000
G1 X2035.4617 Y584.5351 Z-7.5000
G1 X2035.4617 Y587.2351 Z-7.5000
G1 X2024.2847 Y587.2351 Z-7.5000
G1 X2024.2847 Y581.8351 Z-7.5000
G1 X2035.4617 Y581.8351 Z-7.5000
G1 X2035.4617 Y584.5351 Z-7.5000
G1 X2037.2617 Y584.5351 Z-7.5000
G1 X2037.2617 Y589.0351 Z-7.5000
G1 X2022.4847 Y589.0351 Z-7.5000
G1 X2022.4847 Y580.0351 Z-7.5000
G1 X2037.2617 Y580.0351 Z-7.5000
G1 X2037.2617 Y584.5351 Z-7.5000
G1 X2036.2010 Y584.5351 Z-6.4393 F4000.
G1 X2036.2010 Y584.5351 Z-5.8393
G1 X2036.2010 Y584.5351 Z10.0000 F12000.
G1 X1998.9683 Y648.9761 Z10.0000 F12000.
G1 X1998.9683 Y648.9761 Z-1.3000 F4000.
G1 X1998.9683 Y648.9761 Z-1.9000
G1 X2001.4711 Y648.9761 Z-2.3413
G1 X2001.4711 Y649.8761 Z-2.5000
G1 X2001.4711 Y650.7761 Z-2.5000 F3500.
G1 X1993.8941 Y650.7761 Z-2.5000
G1 X1993.8941 Y648.9761 Z-2.5000
G1 X2001.4711 Y648.9761 Z-2.5000
G1 X2001.4711 Y649.8761 Z-2.5000
G1 X2003.2711 Y649.8761 Z-2.5000
G1 X2003.2711 Y652.5761 Z-2.5000
G1 X1992.0941 Y652.5761 Z-2.5000
G1 X1992.0941 Y647.1761 Z-2.5000
G1 X2003.2711 Y647.1761 Z-2.5000
G1 X2003.2711 Y649.8761 Z-2.5000
G1 X2005.0711 Y649.8761 Z-2.5000
G1 X2005.0711 Y654.3761 Z-2.5000
G1 X1990.2941 Y654.3761 Z-2.5000
G1 X1990.2941 Y645.3761 Z-2.5000
G1 X2005.0711 Y645.3761 Z-2.5000
G1 X2005.0711 Y649.8761 Z-2.5000
G1 X2005.0711 Y649.8761 Z10.0000 F12000.
G1 X2001.4711 Y649.8761 Z10.0000 F12000.
G1 X2001.4711 Y649.8761 Z-5.0000 F4000.
G1 X2001.4711 Y650.7761 Z-5.0000 F3500.
G1 X1993.8941 Y650.7761 Z-5.0000
G1 X1993.8941 Y648.9761 Z-5.0000
G1 X2001.4711 Y648.9761 Z-5.0000
G1 X2001.4711 Y649.8761 Z-5.0000
G1 X2003.2711 Y649.8761 Z-5.0000
G1 X2003.2711 Y652.5761 Z-5.0000
G1 X1992.0941 Y652.5761 Z-5.0000
G1 X1992.0941 Y647.1761 Z-5.0000
G1 X2003.2711 Y647.1761 Z-5.0000
G1 X2003.2711 Y649.8761 Z-5.0000
G1 X2005.0711 Y649.8761 Z-5.0000
G1 X2005.0711 Y654.3761 Z-5.0000
G1 X1990.2941 Y654.3761 Z-5.0000
G1 X1990.2941 Y645.3761 Z-5.0000
G1 X2005.0711 Y645.3761 Z-5.0000
G1 X2005.0711 Y649.8761 Z-5.0000
G1 X2005.0711 Y649.8761 Z10.0000 F12000.
G1 X2001.4711 Y649.8761 Z10.0000 F12000.
G1 X2001.4711 Y649.8761 Z-7.5000 F4000.
G1 X2001.4711 Y650.7761 Z-7.5000 F3500.
G1 X1993.8941 Y650.7761 Z-7.5000
G1 X1993.8941 Y648.9761 Z-7.5000
G1 X2001.4711 Y648.9761 Z-7.5000
G1 X2001.4711 Y649.8761 Z-7.5000
G1 X2003.2711 Y649.8761 Z-7.5000
G1 X2003.2711 Y652.5761 Z-7.5000
G1 X1992.0941 Y652.5761 Z-7.5000
G1 X1992.0941 Y647.1761 Z-7.5000
G1 X2003.2711 Y647.1761 Z-7.5000
G1 X2003.2711 Y649.8761 Z-7.5000
G1 X2005.0711 Y649.8761 Z-7.5000
G1 X2005.0711 Y654.3761 Z-7.5000
G1 X1990.2941 Y654.3761 Z-7.5000
G1 X1990.2941 Y645.3761 Z-7.5000
G1 X2005.0711 Y645.3761 Z-7.5000
G1 X2005.0711 Y649.8761 Z-7.5000
G1 X2004.0104 Y649.8761 Z-6.4393 F4000.
G1 X2004.0104 Y649.8761 Z-5.8393
G1 X2004.0104 Y649.8761 Z10.0000 F12000.
G1 X1998.9683 Y703.7816 Z10.0000 F12000.
G1 X1998.9683 Y703.7816 Z-1.3000 F4000.
G1 X1998.9683 Y703.7816 Z-1.9000
G1 X2001.4711 Y703.7816 Z-2.3413
G1 X2001.4711 Y704.6816 Z-2.5000
G1 X2001.4711 Y705.5816 Z-2.5000 F3500.
G1 X1993.8941 Y705.5816 Z-2.5000
G1 X1993.8941 Y703.7816 Z-2.5000
G1 X2001.4711 Y703.7816 Z-2.5000
G1 X2001.4711 Y704.6816 Z-2.5000
G1 X2003.2711 Y704.6816 Z-2.5000
G1 X2003.2711 Y707.3816 Z-2.5000
G1 X1992.0941 Y707.3816 Z-2.5000
G1 X1992.0941 Y701.9816 Z-2.5000
G1 X2003.2711 Y701.9816 Z-2.5000
G1 X2003.2711 Y704.6816 Z-2.5000
G1 X2005.0711 Y704.6816 Z-2.5000
G1 X2005.0711 Y709.1816 Z-2.5000
G1 X1990.2941 Y709.1816 Z-2.5000
G1 X1990.2941 Y700.1816 Z-2.5000
G1 X2005.0711 Y700.1816 Z-2.5000
G1 X2005.0711 Y704.6816 Z-2.5000
G1 X2005.0711 Y704.6816 Z10.0000 F12000.
G1 X2001.4711 Y704.6816 Z10.0000 F12000.
G1 X2001.4711 Y704.6816 Z-5.0000 F4000.
G1 X2001.4711 Y705.5816 Z-5.0000 F3500.
G1 X1993.8941 Y705.5816 Z-5.0000
G1 X1993.8941 Y703.7816 Z-5.0000
G1 X2001.4711 Y703.7816 Z-5.0000
G1 X2001.4711 Y704.6816 Z-5.0000
G1 X2003.2711 Y704.6816 Z-5.0000
G1 X2003.2711 Y707.3816 Z-5.0000
G1 X1992.0941 Y707.3816 Z-5.0000
G1 X1992.0941 Y701.9816 Z-5.0000
G1 X2003.2711 Y701.9816 Z-5.0000
G1 X2003.2711 Y704.6816 Z-5.0000
G1 X2005.0711 Y704.6816 Z-5.0000
G1 X2005.0711 Y709.1816 Z-5.0000
G1 X1990.2941 Y709.1816 Z-5.0000
G1 X1990.2941 Y700.1816 Z-5.0000
G1 X2005.0711 Y700.1816 Z-5.0000
G1 X2005.0711 Y704.6816 Z-5.0000
G1 X2005.0711 Y704.6816 Z10.0000 F12000.
G1 X2001.4711 Y704.6816 Z10.0000 F12000.
G1 X2001.4711 Y704.6816 Z-7.5000 F4000.
G1 X2001.4711 Y705.5816 Z-7.5000 F3500.
G1 X1993.8941 Y705.5816 Z-7.5000
G1 X1993.8941 Y703.7816 Z-7.5000
G1 X2001.4711 Y703.7816 Z-7.5000
G1 X2001.4711 Y704.6816 Z-7.5000
G1 X2003.2711 Y704.6816 Z-7.5000
G1 X2003.2711 Y707.3816 Z-7.5000
G1 X1992.0941 Y707.3816 Z-7.5000
G1 X1992.0941 Y701.9816 Z-7.5000
G1 X2003.2711 Y701.9816 Z-7.5000
G1 X2003.2711 Y704.6816 Z-7.5000
G1 X2005.0711 Y704.6816 Z-7.5000
G1 X2005.0711 Y709.1816 Z-7.5000
G1 X1990.2941 Y709.1816 Z-7.5000
G1 X1990.2941 Y700.1816 Z-7.5000
G1 X2005.0711 Y700.1816 Z-7.5000
G1 X2005.0711 Y704.6816 Z-7.5000
G1 X2004.0104 Y704.6816 Z-6.4393 F4000.
G1 X2004.0104 Y704.6816 Z-5.8393
G1 X2004.0104 Y704.6816 Z10.0000 F12000.
G1 X2031.1589 Y758.4406 Z10.0000 F12000.
G1 X2031.1589 Y758.4406 Z-1.3000 F4000.
G1 X2031.1589 Y758.4406 Z-1.9000
G1 X2033.6617 Y758.4406 Z-2.3413
G1 X2033.6617 Y759.3406 Z-2.5000
G1 X2033.6617 Y760.2406 Z-2.5000 F3500.
G1 X2026.0847 Y760.2406 Z-2.5000
G1 X2026.0847 Y758.4406 Z-2.5000
G1 X2033.6617 Y758.4406 Z-2.5000
G1 X2033.6617 Y759.3406 Z-2.5000
G1 X2035.4617 Y759.3406 Z-2.5000
G1 X2035.4617 Y762.0406 Z-2.5000
G1 X2024.2847 Y762.0406 Z-2.5000
G1 X2024.2847 Y756.6406 Z-2.5000
G1 X2035.4617 Y756.6406 Z-2.5000
G1 X2035.4617 Y759.3406 Z-2.5000
G1 X2037.2617 Y759.3406 Z-2.5000
G1 X2037.2617 Y763.8406 Z-2.5000
G1 X2022.4847 Y763.8406 Z-2.5000
G1 X2022.4847 Y754.8406 Z-2.5000
G1 X2037.2617 Y754.8406 Z-2.5000
G1 X2037.2617 Y759.3406 Z-2.5000
G1 X2037.2617 Y759.3406 Z10.0000 F12000.
G1 X2033.6617 Y759.3406 Z10.0000 F12000.
G1 X2033.6617 Y759.3406 Z-5.0000 F4000.
G1 X2033.6617 Y760.2406 Z-5.0000 F3500.
G1 X2026.0847 Y760.2406 Z-5.0000
G1 X2026.0847 Y758.4406 Z-5.0000
G1 X2033.6617 Y758.4406 Z-5.0000
G1 X2033.6617 Y759.3406 Z-5.0000
G1 X2035.4617 Y759.3406 Z-5.0000
G1 X2035.4617 Y762.0406 Z-5.0000
G1 X2024.2847 Y762.0406 Z-5.0000
G1 X2024.2847 Y756.6406 Z-5.0000
G1 X2035.4617 Y756.6406 Z-5.0000
G1 X2035.4617 Y759.3406 Z-5.0000
G1 X2037.2617 Y759.3406 Z-5.0000
G1 X2037.2617 Y763.8406 Z-5.0000
G1 X2022.4847 Y763.8406 Z-5.0000
G1 X2022.4847 Y754.8406 Z-5.0000
G1 X2037.2617 Y754.8406 Z-5.0000
G1 X2037.2617 Y759.3406 Z-5.0000
G1 X2037.2617 Y759.3406 Z10.0000 F12000.
G1 X2033.6617 Y759.3406 Z10.0000 F12000.
G1 X2033.6617 Y759.3406 Z-7.5000 F4000.
G1 X2033.6617 Y760.2406 Z-7.5000 F3500.
G1 X2026.0847 Y760.2406 Z-7.5000
G1 X2026.0847 Y758.4406 Z-7.5000
G1 X2033.6617 Y758.4406 Z-7.5000
G1 X2033.6617 Y759.3406 Z-7.5000
G1 X2035.4617 Y759.3406 Z-7.5000
G1 X2035.4617 Y762.0406 Z-7.5000
G1 X2024.2847 Y762.0406 Z-7.5000
G1 X2024.2847 Y756.6406 Z-7.5000
G1 X2035.4617 Y756.6406 Z-7.5000
G1 X2035.4617 Y759.3406 Z-7.5000
G1 X2037.2617 Y759.3406 Z-7.5000
G1 X2037.2617 Y763.8406 Z-7.5000
G1 X2022.4847 Y763.8406 Z-7.5000
G1 X2022.4847 Y754.8406 Z-7.5000
G1 X2037.2617 Y754.8406 Z-7.5000
G1 X2037.2617 Y759.3406 Z-7.5000
G1 X2036.2010 Y759.3406 Z-6.4393 F4000.
G1 X2036.2010 Y759.3406 Z-5.8393
G1 X2036.2010 Y759.3406 Z10.0000 F12000.
G1 X2064.2760 Y757.2406 Z10.0000 F12000.
G1 X2064.2760 Y757.2406 Z-1.3000 F4000.
G1 X2064.2760 Y757.2406 Z-1.9000
G1 X2060.8732 Y757.2406 Z-2.5000
G1 X2057.0847 Y757.2406 Z-2.5000 F3500.
G1 X2057.0847 Y755.4406 Z-2.5000
G1 X2064.6617 Y755.4406 Z-2.5000
G1 X2064.6617 Y757.2406 Z-2.5000
G1 X2060.8732 Y757.2406 Z-2.5000
G1 X2060.8732 Y759.0406 Z-2.5000
G1 X2055.2847 Y759.0406 Z-2.5000
G1 X2055.2847 Y753.6406 Z-2.5000
G1 X2066.4617 Y753.6406 Z-2.5000
G1 X2066.4617 Y759.0406 Z-2.5000
G1 X2060.8732 Y759.0406 Z-2.5000
G1 X2060.8732 Y760.8406 Z-2.5000
G1 X2053.4847 Y760.8406 Z-2.5000
G1 X2053.4847 Y751.8406 Z-2.5000
G1 X2068.2617 Y751.8406 Z-2.5000
G1 X2068.2617 Y760.8406 Z-2.5000
G1 X2060.8732 Y760.8406 Z-2.5000
G1 X2060.8732 Y760.8406 Z10.0000 F12000.
G1 X2060.8732 Y757.2406 Z10.0000 F12000.
G1 X2060.8732 Y757.2406 Z-5.0000 F4000.
G1 X2057.0847 Y757.2406 Z-5.0000 F3500.
G1 X2057.0847 Y755.4406 Z-5.0000
G1 X2064.6617 Y755.4406 Z-5.0000
G1 X2064.6617 Y757.2406 Z-5.0000
G1 X2060.8732 Y757.2406 Z-5.0000
G1 X2060.8732 Y759.0406 Z-5.0000
G1 X2055.2847 Y759.0406 Z-5.0000
G1 X2055.2847 Y753.6406 Z-5.0000
G1 X2066.4617 Y753.6406 Z-5.0000
G1 X2066.4617 Y759.0406 Z-5.0000
G1 X2060.8732 Y759.0406 Z-5.0000
G1 X2060.8732 Y760.8406 Z-5.0000
G1 X2053.4847 Y760.8406 Z-5.0000
G1 X2053.4847 Y751.8406 Z-5.0000
G1 X2068.2617 Y751.8406 Z-5.0000
G1 X2068.2617 Y760.8406 Z-5.0000
G1 X2060.8732 Y760.8406 Z-5.0000
G1 X2060.8732 Y760.8406 Z10.0000 F12000.
G1 X2060.8732 Y757.2406 Z10.0000 F12000.
G1 X2060.8732 Y757.2406 Z-7.5000 F4000.
G1 X2057.0847 Y757.2406 Z-7.5000 F3500.
G1 X2057.0847 Y755.4406 Z-7.5000
G1 X2064.6617 Y755.4406 Z-7.5000
G1 X2064.6617 Y757.2406 Z-7.5000
G1 X2060.8732 Y757.2406 Z-7.5000
G1 X2060.8732 Y759.0406 Z-7.5000
G1 X2055.2847 Y759.0406 Z-7.5000
G1 X2055.2847 Y753.6406 Z-7.5000
G1 X2066.4617 Y753.6406 Z-7.5000
G1 X2066.4617 Y759.0406 Z-7.5000
G1 X2060.8732 Y759.0406 Z-7.5000
G1 X2060.8732 Y760.8406 Z-7.5000
G1 X2053.4847 Y760.8406 Z-7.5000
G1 X2053.4847 Y751.8406 Z-7.5000
G1 X2068.2617 Y751.8406 Z-7.5000
G1 X2068.2617 Y760.8406 Z-7.5000
G1 X2060.8732 Y760.8406 Z-7.5000
G1 X2060.8732 Y759.7799 Z-6.4393 F4000.
G1 X2060.8732 Y759.7799 Z-5.8393
G1 X2060.8732 Y759.7799 Z10.0000 F12000.
G1 X1949.3632 Y496.7871 Z10.0000 F12000.
G1 X1949.3632 Y496.7871 Z-1.3000 F4000.
G1 X1949.3632 Y496.7871 Z-1.9000
G1 X1951.8659 Y496.7871 Z-2.3413
G1 X1951.8659 Y497.6871 Z-2.5000
G1 X1951.8659 Y498.5871 Z-2.5000 F3500.
G1 X1944.2890 Y498.5871 Z-2.5000
G1 X1944.2890 Y496.7871 Z-2.5000
G1 X1951.8659 Y496.7871 Z-2.5000
G1 X1951.8659 Y497.6871 Z-2.5000
G1 X1953.6659 Y497.6871 Z-2.5000
G1 X1953.6659 Y500.3871 Z-2.5000
G1 X1942.4890 Y500.3871 Z-2.5000
G1 X1942.4890 Y494.9871 Z-2.5000
G1 X1953.6659 Y494.9871 Z-2.5000
G1 X1953.6659 Y497.6871 Z-2.5000
G1 X1955.4659 Y497.6871 Z-2.5000
G1 X1955.4659 Y502.1871 Z-2.5000
G1 X1940.6890 Y502.1871 Z-2.5000
G1 X1940.6890 Y493.1871 Z-2.5000
G1 X1955.4659 Y493.1871 Z-2.5000
G1 X1955.4659 Y497.6871 Z-2.5000
G1 X1955.4659 Y497.6871 Z10.0000 F12000.
G1 X1951.8659 Y497.6871 Z10.0000 F12000.
G1 X1951.8659 Y497.6871 Z-5.0000 F4000.
G1 X1951.8659 Y498.5871 Z-5.0000 F3500.
G1 X1944.2890 Y498.5871 Z-5.0000
G1 X1944.2890 Y496.7871 Z-5.0000
G1 X1951.8659 Y496.7871 Z-5.0000
G1 X1951.8659 Y497.6871 Z-5.0000
G1 X1953.6659 Y497.6871 Z-5.0000
G1 X1953.6659 Y500.3871 Z-5.0000
G1 X1942.4890 Y500.3871 Z-5.0000
G1 X1942.4890 Y494.9871 Z-5.0000
G1 X1953.6659 Y494.9871 Z-5.0000
G1 X1953.6659 Y497.6871 Z-5.0000
G1 X1955.4659 Y497.6871 Z-5.0000
G1 X1955.4659 Y502.1871 Z-5.0000
G1 X1940.6890 Y502.1871 Z-5.0000
G1 X1940.6890 Y493.1871 Z-5.0000
G1 X1955.4659 Y493.1871 Z-5.0000
G1 X1955.4659 Y497.6871 Z-5.0000
G1 X1955.4659 Y497.6871 Z10.0000 F12000.
G1 X1951.8659 Y497.6871 Z10.0000 F12000.
G1 X1951.8659 Y497.6871 Z-7.5000 F4000.
G1 X1951.8659 Y498.5871 Z-7.5000 F3500.
G1 X1944.2890 Y498.5871 Z-7.5000
G1 X1944.2890 Y496.7871 Z-7.5000
G1 X1951.8659 Y496.7871 Z-7.5000
G1 X1951.8659 Y497.6871 Z-7.5000
G1 X1953.6659 Y497.6871 Z-7.5000
G1 X1953.6659 Y500.3871 Z-7.5000
G1 X1942.4890 Y500.3871 Z-7.5000
G1 X1942.4890 Y494.9871 Z-7.5000
G1 X1953.6659 Y494.9871 Z-7.5000
G1 X1953.6659 Y497.6871 Z-7.5000
G1 X1955.4659 Y497.6871 Z-7.5000
G1 X1955.4659 Y502.1871 Z-7.5000
G1 X1940.6890 Y502.1871 Z-7.5000
G1 X1940.6890 Y493.1871 Z-7.5000
G1 X1955.4659 Y493.1871 Z-7.5000
G1 X1955.4659 Y497.6871 Z-7.5000
G1 X1954.4053 Y497.6871 Z-6.4393 F4000.
G1 X1954.4053 Y497.6871 Z-5.8393
G1 X1954.4053 Y497.6871 Z10.0000 F12000.
G1 X1917.3632 Y499.7871 Z10.0000 F12000.
G1 X1917.3632 Y499.7871 Z-1.3000 F4000.
G1 X1917.3632 Y499.7871 Z-1.9000
G1 X1919.8659 Y499.7871 Z-2.3413
G1 X1919.8659 Y500.6871 Z-2.5000
G1 X1919.8659 Y501.5871 Z-2.5000 F3500.
G1 X1912.2890 Y501.5871 Z-2.5000
G1 X1912.2890 Y499.7871 Z-2.5000
G1 X1919.8659 Y499.7871 Z-2.5000
G1 X1919.8659 Y500.6871 Z-2.5000
G1 X1921.6659 Y500.6871 Z-2.5000
G1 X1921.6659 Y503.3871 Z-2.5000
G1 X1910.4890 Y503.3871 Z-2.5000
G1 X1910.4890 Y497.9871 Z-2.5000
G1 X1921.6659 Y497.9871 Z-2.5000
G1 X1921.6659 Y500.6871 Z-2.5000
G1 X1923.4659 Y500.6871 Z-2.5000
G1 X1923.4659 Y505.1871 Z-2.5000
G1 X1908.6890 Y505.1871 Z-2.5000
G1 X1908.6890 Y496.1871 Z-2.5000
G1 X1923.4659 Y496.1871 Z-2.5000
G1 X1923.4659 Y500.6871 Z-2.5000
G1 X1923.4659 Y500.6871 Z10.0000 F12000.
G1 X1919.8659 Y500.6871 Z10.0000 F12000.
G1 X1919.8659 Y500.6871 Z-5.0000 F4000.
G1 X1919.8659 Y501.5871 Z-5.0000 F3500.
G1 X1912.2890 Y501.5871 Z-5.0000
G1 X1912.2890 Y499.7871 Z-5.0000
G1 X1919.8659 Y499.7871 Z-5.0000
G1 X1919.8659 Y500.6871 Z-5.0000
G1 X1921.6659 Y500.6871 Z-5.0000
G1 X1921.6659 Y503.3871 Z-5.0000
G1 X1910.4890 Y503.3871 Z-5.0000
G1 X1910.4890 Y497.9871 Z-5.0000
G1 X1921.6659 Y497.9871 Z-5.0000
G1 X1921.6659 Y500.6871 Z-5.0000
G1 X1923.4659 Y500.6871 Z-5.0000
G1 X1923.4659 Y505.1871 Z-5.0000
G1 X1908.6890 Y505.1871 Z-5.0000
G1 X1908.6890 Y496.1871 Z-5.0000
G1 X1923.4659 Y496.1871 Z-5.0000
G1 X1923.4659 Y500.6871 Z-5.0000
G1 X1923.4659 Y500.6871 Z10.0000 F12000.
G1 X1919.8659 Y500.6871 Z10.0000 F12000.
G1 X1919.8659 Y500.6871 Z-7.5000 F4000.
G1 X1919.8659 Y501.5871 Z-7.5000 F3500.
G1 X1912.2890 Y501.5871 Z-7.5000
G1 X1912.2890 Y499.7871 Z-7.5000
G1 X1919.8659 Y499.7871 Z-7.5000
G1 X1919.8659 Y500.6871 Z-7.5000
G1 X1921.6659 Y500.6871 Z-7.5000
G1 X1921.6659 Y503.3871 Z-7.5000
G1 X1910.4890 Y503.3871 Z-7.5000
G1 X1910.4890 Y497.9871 Z-7.5000
G1 X1921.6659 Y497.9871 Z-7.5000
G1 X1921.6659 Y500.6871 Z-7.5000
G1 X1923.4659 Y500.6871 Z-7.5000
G1 X1923.4659 Y505.1871 Z-7.5000
G1 X1908.6890 Y505.1871 Z-7.5000
G1 X1908.6890 Y496.1871 Z-7.5000
G1 X1923.4659 Y496.1871 Z-7.5000
G1 X1923.4659 Y500.6871 Z-7.5000
G1 X1922.4053 Y500.6871 Z-6.4393 F4000.
G1 X1922.4053 Y500.6871 Z-5.8393
G1 X1922.4053 Y500.6871 Z10.0000 F12000.
G1 X2031.1589 Y1083.4406 Z10.0000 F12000.
G1 X2031.1589 Y1083.4406 Z-1.3000 F4000.
G1 X2031.1589 Y1083.4406 Z-1.9000
G1 X2033.6617 Y1083.4406 Z-2.3413
G1 X2033.6617 Y1084.3406 Z-2.5000
G1 X2033.6617 Y1085.2406 Z-2.5000 F3500.
G1 X2026.0847 Y1085.2406 Z-2.5000
G1 X2026.0847 Y1083.4406 Z-2.5000
G1 X2033.6617 Y1083.4406 Z-2.5000
G1 X2033.6617 Y1084.3406 Z-2.5000
G1 X2035.4617 Y1084.3406 Z-2.5000
G1 X2035.4617 Y1087.0406 Z-2.5000
G1 X2024.2847 Y1087.0406 Z-2.5000
G1 X2024.2847 Y1081.6406 Z-2.5000
G1 X2035.4617 Y1081.6406 Z-2.5000
G1 X2035.4617 Y1084.3406 Z-2.5000
G1 X2037.2617 Y1084.3406 Z-2.5000
G1 X2037.2617 Y1088.8406 Z-2.5000
G1 X2022.4847 Y1088.8406 Z-2.5000
G1 X2022.4847 Y1079.8406 Z-2.5000
G1 X2037.2617 Y1079.8406 Z-2.5000
G1 X2037.2617 Y1084.3406 Z-2.5000
G1 X2037.2617 Y1084.3406 Z10.0000 F12000.
G1 X2033.6617 Y1084.3406 Z10.0000 F12000.
G1 X2033.6617 Y1084.3406 Z-5.0000 F4000.
G1 X2033.6617 Y1085.2406 Z-5.0000 F3500.
G1 X2026.0847 Y1085.2406 Z-5.0000
G1 X2026.0847 Y1083.4406 Z-5.0000
G1 X2033.6617 Y1083.4406 Z-5.0000
G1 X2033.6617 Y1084.3406 Z-5.0000
G1 X2035.4617 Y1084.3406 Z-5.0000
G1 X2035.4617 Y1087.0406 Z-5.0000
G1 X2024.2847 Y1087.0406 Z-5.0000
G1 X2024.2847 Y1081.6406 Z-5.0000
G1 X2035.4617 Y1081.6406 Z-5.0000
G1 X2035.4617 Y1084.3406 Z-5.0000
G1 X2037.2617 Y1084.3406 Z-5.0000
G1 X2037.2617 Y1088.8406 Z-5.0000
G1 X2022.4847 Y1088.8406 Z-5.0000
G1 X2022.4847 Y1079.8406 Z-5.0000
G1 X2037.2617 Y1079.8406 Z-5.0000
G1 X2037.2617 Y1084.3406 Z-5.0000
G1 X2037.2617 Y1084.3406 Z10.0000 F12000.
G1 X2033.6617 Y1084.3406 Z10.0000 F12000.
G1 X2033.6617 Y1084.3406 Z-7.5000 F4000.
G1 X2033.6617 Y1085.2406 Z-7.5000 F3500.
G1 X2026.0847 Y1085.2406 Z-7.5000
G1 X2026.0847 Y1083.4406 Z-7.5000
G1 X2033.6617 Y1083.4406 Z-7.5000
G1 X2033.6617 Y1084.3406 Z-7.5000
G1 X2035.4617 Y1084.3406 Z-7.5000
G1 X2035.4617 Y1087.0406 Z-7.5000
G1 X2024.2847 Y1087.0406 Z-7.5000
G1 X2024.2847 Y1081.6406 Z-7.5000
G1 X2035.4617 Y1081.6406 Z-7.5000
G1 X2035.4617 Y1084.3406 Z-7.5000
G1 X2037.2617 Y1084.3406 Z-7.5000
G1 X2037.2617 Y1088.8406 Z-7.5000
G1 X2022.4847 Y1088.8406 Z-7.5000
G1 X2022.4847 Y1079.8406 Z-7.5000
G1 X2037.2617 Y1079.8406 Z-7.5000
G1 X2037.2617 Y1084.3406 Z-7.5000
G1 X2036.2010 Y1084.3406 Z-6.4393 F4000.
G1 X2036.2010 Y1084.3406 Z-5.8393
G1 X2036.2010 Y1084.3406 Z10.0000 F12000.
G1 X2064.2760 Y1082.2406 Z10.0000 F12000.
G1 X2064.2760 Y1082.2406 Z-1.3000 F4000.
G1 X2064.2760 Y1082.2406 Z-1.9000
G1 X2060.8732 Y1082.2406 Z-2.5000
G1 X2057.0847 Y1082.2406 Z-2.5000 F3500.
G1 X2057.0847 Y1080.4406 Z-2.5000
G1 X2064.6617 Y1080.4406 Z-2.5000
G1 X2064.6617 Y1082.2406 Z-2.5000
G1 X2060.8732 Y1082.2406 Z-2.5000
G1 X2060.8732 Y1084.0406 Z-2.5000
G1 X2055.2847 Y1084.0406 Z-2.5000
G1 X2055.2847 Y1078.6406 Z-2.5000
G1 X2066.4617 Y1078.6406 Z-2.5000
G1 X2066.4617 Y1084.0406 Z-2.5000
G1 X2060.8732 Y1084.0406 Z-2.5000
G1 X2060.8732 Y1085.8406 Z-2.5000
G1 X2053.4847 Y1085.8406 Z-2.5000
G1 X2053.4847 Y1076.8406 Z-2.5000
G1 X2068.2617 Y1076.8406 Z-2.5000
G1 X2068.2617 Y1085.8406 Z-2.5000
G1 X2060.8732 Y1085.8406 Z-2.5000
G1 X2060.8732 Y1085.8406 Z10.0000 F12000.
G1 X2060.8732 Y1082.2406 Z10.0000 F12000.
G1 X2060.8732 Y1082.2406 Z-5.0000 F4000.
G1 X2057.0847 Y1082.2406 Z-5.0000 F3500.
G1 X2057.0847 Y1080.4406 Z-5.0000
G1 X2064.6617 Y1080.4406 Z-5.0000
G1 X2064.6617 Y1082.2406 Z-5.0000
G1 X2060.8732 Y1082.2406 Z-5.0000
G1 X2060.8732 Y1084.0406 Z-5.0000
G1 X2055.2847 Y1084.0406 Z-5.0000
G1 X2055.2847 Y1078.6406 Z-5.0000
G1 X2066.4617 Y1078.6406 Z-5.0000
G1 X2066.4617 Y1084.0406 Z-5.0000
G1 X2060.8732 Y1084.0406 Z-5.0000
G1 X2060.8732 Y1085.8406 Z-5.0000
G1 X2053.4847 Y1085.8406 Z-5.0000
G1 X2053.4847 Y1076.8406 Z-5.0000
G1 X2068.2617 Y1076.8406 Z-5.0000
G1 X2068.2617 Y1085.8406 Z-5.0000
G1 X2060.8732 Y1085.8406 Z-5.0000
G1 X2060.8732 Y1085.8406 Z10.0000 F12000.
G1 X2060.8732 Y1082.2406 Z10.0000 F12000.
G1 X2060.8732 Y1082.2406 Z-7.5000 F4000.
G1 X2057.0847 Y1082.2406 Z-7.5000 F3500.
G1 X2057.0847 Y1080.4406 Z-7.5000
G1 X2064.6617 Y1080.4406 Z-7.5000
G1 X2064.6617 Y1082.2406 Z-7.5000
G1 X2060.8732 Y1082.2406 Z-7.5000
G1 X2060.8732 Y1084.0406 Z-7.5000
G1 X2055.2847 Y1084.0406 Z-7.5000
G1 X2055.2847 Y1078.6406 Z-7.5000
G1 X2066.4617 Y1078.6406 Z-7.5000
G1 X2066.4617 Y1084.0406 Z-7.5000
G1 X2060.8732 Y1084.0406 Z-7.5000
G1 X2060.8732 Y1085.8406 Z-7.5000
G1 X2053.4847 Y1085.8406 Z-7.5000
G1 X2053.4847 Y1076.8406 Z-7.5000
G1 X2068.2617 Y1076.8406 Z-7.5000
G1 X2068.2617 Y1085.8406 Z-7.5000
G1 X2060.8732 Y1085.8406 Z-7.5000
G1 X2060.8732 Y1084.7799 Z-6.4393 F4000.
G1 X2060.8732 Y1084.7799 Z-5.8393
G1 X2060.8732 Y1084.7799 Z10.0000 F12000.
G1 X1998.9683 Y1148.7816 Z10.0000 F12000.
G1 X1998.9683 Y1148.7816 Z-1.3000 F4000.
G1 X1998.9683 Y1148.7816 Z-1.9000
G1 X2001.4711 Y1148.7816 Z-2.3413
G1 X2001.4711 Y1149.6816 Z-2.5000
G1 X2001.4711 Y1150.5816 Z-2.5000 F3500.
G1 X1993.8941 Y1150.5816 Z-2.5000
G1 X1993.8941 Y1148.7816 Z-2.5000
G1 X2001.4711 Y1148.7816 Z-2.5000
G1 X2001.4711 Y1149.6816 Z-2.5000
G1 X2003.2711 Y1149.6816 Z-2.5000
G1 X2003.2711 Y1152.3816 Z-2.5000
G1 X1992.0941 Y1152.3816 Z-2.5000
G1 X1992.0941 Y1146.9816 Z-2.5000
G1 X2003.2711 Y1146.9816 Z-2.5000
G1 X2003.2711 Y1149.6816 Z-2.5000
G1 X2005.0711 Y1149.6816 Z-2.5000
G1 X2005.0711 Y1154.1816 Z-2.5000
G1 X1990.2941 Y1154.1816 Z-2.5000
G1 X1990.2941 Y1145.1816 Z-2.5000
G1 X2005.0711 Y1145.1816 Z-2.5000
G1 X2005.0711 Y1149.6816 Z-2.5000
G1 X2005.0711 Y1149.6816 Z10.0000 F12000.
G1 X2001.4711 Y1149.6816 Z10.0000 F12000.
G1 X2001.4711 Y1149.6816 Z-5.0000 F4000.
G1 X2001.4711 Y1150.5816 Z-5.0000 F3500.
G1 X1993.8941 Y1150.5816 Z-5.0000
G1 X1993.8941 Y1148.7816 Z-5.0000
G1 X2001.4711 Y1148.7816 Z-5.0000
G1 X2001.4711 Y1149.6816 Z-5.0000
G1 X2003.2711 Y1149.6816 Z-5.0000
G1 X2003.2711 Y1152.3816 Z-5.0000
G1 X1992.0941 Y1152.3816 Z-5.0000
G1 X1992.0941 Y1146.9816 Z-5.0000
G1 X2003.2711 Y1146.9816 Z-5.0000
G1 X2003.2711 Y1149.6816 Z-5.0000
G1 X2005.0711 Y1149.6816 Z-5.0000
G1 X2005.0711 Y1154.1816 Z-5.0000
G1 X1990.2941 Y1154.1816 Z-5.0000
G1 X1990.2941 Y1145.1816 Z-5.0000
G1 X2005.0711 Y1145.1816 Z-5.0000
G1 X2005.0711 Y1149.6816 Z-5.0000
G1 X2005.0711 Y1149.6816 Z10.0000 F12000.
G1 X2001.4711 Y1149.6816 Z10.0000 F12000.
G1 X2001.4711 Y1149.6816 Z-7.5000 F4000.
G1 X2001.4711 Y1150.5816 Z-7.5000 F3500.
G1 X1993.8941 Y1150.5816 Z-7.5000
G1 X1993.8941 Y1148.7816 Z-7.5000
G1 X2001.4711 Y1148.7816 Z-7.5000
