(new g-code.nc)
(----------------------------------------------------------------)
( Generated for RhinoCam to export for CNC-STEP models Raptor X-SL3000s20 / T-Rex1215 )
( Postprocessor written at FabLab BCN/IaaC by eduardo.chamorro@iaac.net )
( Last edit : 22 January - 2019 )
(----------------------------------------------------------------)
(Stock Size X = 2500.0000, Y =  1220.0000, Z = 15.0000)
(Home Origin X =  0, Y = 0, Z = 0)
(Units = MM, Spindle Speed = 18000)
(Max cut depth = Z-15.0000)
(Tool dia= 6.0 mm, Tool length= 90.0 mm)(WARNING!-CHECK YOUR TOOL)
(-------------------------------------------------------------)
%
G90
G64
M7
M8
T1
S21000
M3
G0 Z10.0000
G0 X41.5744 Y112.1641
G1 X41.5744 Y112.1641 Z-1.8400 F2000.
G1 X41.5744 Y112.1641 Z-2.4400
G1 X42.6272 Y112.1641 Z-2.6256
G1 X42.6272 Y114.5141 Z-3.0400
G1 X42.6272 Y116.8641 Z-3.0400 F3800.
G1 X37.9272 Y116.8641 Z-3.0400
G1 X37.9272 Y112.1641 Z-3.0400
G1 X42.6272 Y112.1641 Z-3.0400
G1 X42.6272 Y114.5141 Z-3.0400
G1 X45.0272 Y114.5141 Z-3.0400
G1 X45.0272 Y117.6360 Z-3.0400
G2 X45.8537 Y119.7038 I3.0000 J0.0000
G3 X45.5030 Y120.0598 I-0.1811 J0.1723
G2 X43.4680 Y119.2641 I-2.0350 J2.2043
G1 X37.0864 Y119.2641 Z-3.0400
G2 X35.0514 Y120.0598 I0.0000 J3.0000
G3 X34.7007 Y119.7038 I-0.1696 J-0.1837
G2 X35.5272 Y117.6360 I-2.1735 J-2.0678
G1 X35.5272 Y111.3921 Z-3.0400
G2 X34.7007 Y109.3243 I-3.0000 J0.0000
G3 X35.0514 Y108.9683 I0.1811 J-0.1723
G2 X37.0864 Y109.7641 I2.0350 J-2.2042
G1 X43.4680 Y109.7641 Z-3.0400
G2 X45.5030 Y108.9683 I0.0000 J-3.0000
G3 X45.8537 Y109.3243 I0.1696 J0.1837
G2 X45.0272 Y111.3921 I2.1735 J2.0678
G1 X45.0272 Y114.5141 Z-3.0400
G0 Z10.0000
G0 X45.0272 Y114.5141
G0 Z10.0000
G0 X42.6272 Y114.5141
G1 X42.6272 Y114.5141 Z-6.0800 F2000.
G1 X42.6272 Y116.8641 Z-6.0800 F3800.
G1 X37.9272 Y116.8641 Z-6.0800
G1 X37.9272 Y112.1641 Z-6.0800
G1 X42.6272 Y112.1641 Z-6.0800
G1 X42.6272 Y114.5141 Z-6.0800
G1 X45.0272 Y114.5141 Z-6.0800
G1 X45.0272 Y117.6360 Z-6.0800
G2 X45.8537 Y119.7038 I3.0000 J0.0000
G3 X45.5030 Y120.0598 I-0.1811 J0.1723
G2 X43.4680 Y119.2641 I-2.0350 J2.2043
G1 X37.0864 Y119.2641 Z-6.0800
G2 X35.0514 Y120.0598 I0.0000 J3.0000
G3 X34.7007 Y119.7038 I-0.1696 J-0.1837
G2 X35.5272 Y117.6360 I-2.1735 J-2.0678
G1 X35.5272 Y111.3921 Z-6.0800
G2 X34.7007 Y109.3243 I-3.0000 J0.0000
G3 X35.0514 Y108.9683 I0.1811 J-0.1723
G2 X37.0864 Y109.7641 I2.0350 J-2.2042
G1 X43.4680 Y109.7641 Z-6.0800
G2 X45.5030 Y108.9683 I0.0000 J-3.0000
G3 X45.8537 Y109.3243 I0.1696 J0.1837
G2 X45.0272 Y111.3921 I2.1735 J2.0678
G1 X45.0272 Y114.5141 Z-6.0800
G0 Z10.0000
G0 X45.0272 Y114.5141
G0 Z10.0000
G0 X42.6272 Y114.5141
G1 X42.6272 Y114.5141 Z-9.1200 F2000.
G1 X42.6272 Y116.8641 Z-9.1200 F3800.
G1 X37.9272 Y116.8641 Z-9.1200
G1 X37.9272 Y112.1641 Z-9.1200
G1 X42.6272 Y112.1641 Z-9.1200
G1 X42.6272 Y114.5141 Z-9.1200
G1 X45.0272 Y114.5141 Z-9.1200
G1 X45.0272 Y117.6360 Z-9.1200
G2 X45.8537 Y119.7038 I3.0000 J0.0000
G3 X45.5030 Y120.0598 I-0.1811 J0.1723
G2 X43.4680 Y119.2641 I-2.0350 J2.2043
G1 X37.0864 Y119.2641 Z-9.1200
G2 X35.0514 Y120.0598 I0.0000 J3.0000
G3 X34.7007 Y119.7038 I-0.1696 J-0.1837
G2 X35.5272 Y117.6360 I-2.1735 J-2.0678
G1 X35.5272 Y111.3921 Z-9.1200
G2 X34.7007 Y109.3243 I-3.0000 J0.0000
G3 X35.0514 Y108.9683 I0.1811 J-0.1723
G2 X37.0864 Y109.7641 I2.0350 J-2.2042
G1 X43.4680 Y109.7641 Z-9.1200
G2 X45.5030 Y108.9683 I0.0000 J-3.0000
G3 X45.8537 Y109.3243 I0.1696 J0.1837
G2 X45.0272 Y111.3921 I2.1735 J2.0678
G1 X45.0272 Y114.5141 Z-9.1200
G0 Z10.0000
G0 X45.0272 Y114.5141
G0 Z10.0000
G0 X42.6272 Y114.5141
G1 X42.6272 Y114.5141 Z-12.1600 F2000.
G1 X42.6272 Y116.8641 Z-12.1600 F3800.
G1 X37.9272 Y116.8641 Z-12.1600
G1 X37.9272 Y112.1641 Z-12.1600
G1 X42.6272 Y112.1641 Z-12.1600
G1 X42.6272 Y114.5141 Z-12.1600
G1 X45.0272 Y114.5141 Z-12.1600
G1 X45.0272 Y117.6360 Z-12.1600
G2 X45.8537 Y119.7038 I3.0000 J0.0000
G3 X45.5030 Y120.0598 I-0.1811 J0.1723
G2 X43.4680 Y119.2641 I-2.0350 J2.2043
G1 X37.0864 Y119.2641 Z-12.1600
G2 X35.0514 Y120.0598 I0.0000 J3.0000
G3 X34.7007 Y119.7038 I-0.1696 J-0.1837
G2 X35.5272 Y117.6360 I-2.1735 J-2.0678
G1 X35.5272 Y111.3921 Z-12.1600
G2 X34.7007 Y109.3243 I-3.0000 J0.0000
G3 X35.0514 Y108.9683 I0.1811 J-0.1723
G2 X37.0864 Y109.7641 I2.0350 J-2.2042
G1 X43.4680 Y109.7641 Z-12.1600
G2 X45.5030 Y108.9683 I0.0000 J-3.0000
G3 X45.8537 Y109.3243 I0.1696 J0.1837
G2 X45.0272 Y111.3921 I2.1735 J2.0678
G1 X45.0272 Y114.5141 Z-12.1600
G0 Z10.0000
G0 X45.0272 Y114.5141
G0 Z10.0000
G0 X42.6272 Y114.5141
G1 X42.6272 Y114.5141 Z-15.2000 F2000.
G1 X42.6272 Y116.8641 Z-15.2000 F3800.
G1 X37.9272 Y116.8641 Z-15.2000
G1 X37.9272 Y112.1641 Z-15.2000
G1 X42.6272 Y112.1641 Z-15.2000
G1 X42.6272 Y114.5141 Z-15.2000
G1 X45.0272 Y114.5141 Z-15.2000
G1 X45.0272 Y117.6360 Z-15.2000
G2 X45.8537 Y119.7038 I3.0000 J0.0000
G3 X45.5030 Y120.0598 I-0.1811 J0.1723
G2 X43.4680 Y119.2641 I-2.0350 J2.2043
G1 X37.0864 Y119.2641 Z-15.2000
G2 X35.0514 Y120.0598 I0.0000 J3.0000
G3 X34.7007 Y119.7038 I-0.1696 J-0.1837
G2 X35.5272 Y117.6360 I-2.1735 J-2.0678
G1 X35.5272 Y111.3921 Z-15.2000
G2 X34.7007 Y109.3243 I-3.0000 J0.0000
G3 X35.0514 Y108.9683 I0.1811 J-0.1723
G2 X37.0864 Y109.7641 I2.0350 J-2.2042
G1 X43.4680 Y109.7641 Z-15.2000
G2 X45.5030 Y108.9683 I0.0000 J-3.0000
G3 X45.8537 Y109.3243 I0.1696 J0.1837
G2 X45.0272 Y111.3921 I2.1735 J2.0678
G1 X45.0272 Y114.5141 Z-15.2000
G1 X43.9665 Y114.5141 Z-14.1393 F2000.
G1 X43.9665 Y114.5141 Z-13.5393
G0 Z10.0000
G0 X43.9665 Y114.5141
G0 Z10.0000
G0 X43.8913 Y270.9572
G1 X43.8913 Y270.9572 Z-1.8400 F2000.
G1 X43.8913 Y270.9572 Z-2.4400
G1 X43.8913 Y272.0100 Z-2.6256
G1 X41.5413 Y272.0100 Z-3.0400
G1 X39.1913 Y272.0100 Z-3.0400 F3800.
G1 X39.1913 Y267.3100 Z-3.0400
G1 X43.8913 Y267.3100 Z-3.0400
G1 X43.8913 Y272.0100 Z-3.0400
G1 X41.5413 Y272.0100 Z-3.0400
G1 X41.5413 Y274.4100 Z-3.0400
G1 X38.3505 Y274.4100 Z-3.0400
G2 X36.3155 Y275.2057 I0.0000 J3.0000
G3 X35.9648 Y274.8497 I-0.1696 J-0.1836
G2 X36.7913 Y272.7819 I-2.1735 J-2.0678
G1 X36.7913 Y266.5381 Z-3.0400
G2 X35.9648 Y264.4702 I-3.0000 J0.0000
G3 X36.3155 Y264.1142 I0.1811 J-0.1723
G2 X38.3505 Y264.9100 I2.0350 J-2.2042
G1 X44.7321 Y264.9100 Z-3.0400
G2 X46.7671 Y264.1142 I0.0000 J-3.0000
G3 X47.1178 Y264.4702 I0.1696 J0.1837
G2 X46.2913 Y266.5381 I2.1735 J2.0679
G1 X46.2913 Y272.7819 Z-3.0400
G2 X47.1178 Y274.8497 I3.0000 J0.0000
G3 X46.7671 Y275.2057 I-0.1811 J0.1724
G2 X44.7321 Y274.4100 I-2.0350 J2.2043
G1 X41.5413 Y274.4100 Z-3.0400
G0 Z10.0000
G0 X41.5413 Y274.4100
G0 Z10.0000
G0 X41.5413 Y272.0100
G1 X41.5413 Y272.0100 Z-6.0800 F2000.
G1 X39.1913 Y272.0100 Z-6.0800 F3800.
G1 X39.1913 Y267.3100 Z-6.0800
G1 X43.8913 Y267.3100 Z-6.0800
G1 X43.8913 Y272.0100 Z-6.0800
G1 X41.5413 Y272.0100 Z-6.0800
G1 X41.5413 Y274.4100 Z-6.0800
G1 X38.3505 Y274.4100 Z-6.0800
G2 X36.3155 Y275.2057 I0.0000 J3.0000
G3 X35.9648 Y274.8497 I-0.1696 J-0.1836
G2 X36.7913 Y272.7819 I-2.1735 J-2.0678
G1 X36.7913 Y266.5381 Z-6.0800
G2 X35.9648 Y264.4702 I-3.0000 J0.0000
G3 X36.3155 Y264.1142 I0.1811 J-0.1723
G2 X38.3505 Y264.9100 I2.0350 J-2.2042
G1 X44.7321 Y264.9100 Z-6.0800
G2 X46.7671 Y264.1142 I0.0000 J-3.0000
G3 X47.1178 Y264.4702 I0.1696 J0.1837
G2 X46.2913 Y266.5381 I2.1735 J2.0679
G1 X46.2913 Y272.7819 Z-6.0800
G2 X47.1178 Y274.8497 I3.0000 J0.0000
G3 X46.7671 Y275.2057 I-0.1811 J0.1724
G2 X44.7321 Y274.4100 I-2.0350 J2.2043
G1 X41.5413 Y274.4100 Z-6.0800
G0 Z10.0000
G0 X41.5413 Y274.4100
G0 Z10.0000
G0 X41.5413 Y272.0100
G1 X41.5413 Y272.0100 Z-9.1200 F2000.
G1 X39.1913 Y272.0100 Z-9.1200 F3800.
G1 X39.1913 Y267.3100 Z-9.1200
G1 X43.8913 Y267.3100 Z-9.1200
G1 X43.8913 Y272.0100 Z-9.1200
G1 X41.5413 Y272.0100 Z-9.1200
G1 X41.5413 Y274.4100 Z-9.1200
G1 X38.3505 Y274.4100 Z-9.1200
G2 X36.3155 Y275.2057 I0.0000 J3.0000
G3 X35.9648 Y274.8497 I-0.1696 J-0.1836
G2 X36.7913 Y272.7819 I-2.1735 J-2.0678
G1 X36.7913 Y266.5381 Z-9.1200
G2 X35.9648 Y264.4702 I-3.0000 J0.0000
G3 X36.3155 Y264.1142 I0.1811 J-0.1723
G2 X38.3505 Y264.9100 I2.0350 J-2.2042
G1 X44.7321 Y264.9100 Z-9.1200
G2 X46.7671 Y264.1142 I0.0000 J-3.0000
G3 X47.1178 Y264.4702 I0.1696 J0.1837
G2 X46.2913 Y266.5381 I2.1735 J2.0679
G1 X46.2913 Y272.7819 Z-9.1200
G2 X47.1178 Y274.8497 I3.0000 J0.0000
G3 X46.7671 Y275.2057 I-0.1811 J0.1724
G2 X44.7321 Y274.4100 I-2.0350 J2.2043
G1 X41.5413 Y274.4100 Z-9.1200
G0 Z10.0000
G0 X41.5413 Y274.4100
G0 Z10.0000
G0 X41.5413 Y272.0100
G1 X41.5413 Y272.0100 Z-12.1600 F2000.
G1 X39.1913 Y272.0100 Z-12.1600 F3800.
G1 X39.1913 Y267.3100 Z-12.1600
G1 X43.8913 Y267.3100 Z-12.1600
G1 X43.8913 Y272.0100 Z-12.1600
G1 X41.5413 Y272.0100 Z-12.1600
G1 X41.5413 Y274.4100 Z-12.1600
G1 X38.3505 Y274.4100 Z-12.1600
G2 X36.3155 Y275.2057 I0.0000 J3.0000
G3 X35.9648 Y274.8497 I-0.1696 J-0.1836
G2 X36.7913 Y272.7819 I-2.1735 J-2.0678
G1 X36.7913 Y266.5381 Z-12.1600
G2 X35.9648 Y264.4702 I-3.0000 J0.0000
G3 X36.3155 Y264.1142 I0.1811 J-0.1723
G2 X38.3505 Y264.9100 I2.0350 J-2.2042
G1 X44.7321 Y264.9100 Z-12.1600
G2 X46.7671 Y264.1142 I0.0000 J-3.0000
G3 X47.1178 Y264.4702 I0.1696 J0.1837
G2 X46.2913 Y266.5381 I2.1735 J2.0679
G1 X46.2913 Y272.7819 Z-12.1600
G2 X47.1178 Y274.8497 I3.0000 J0.0000
G3 X46.7671 Y275.2057 I-0.1811 J0.1724
G2 X44.7321 Y274.4100 I-2.0350 J2.2043
G1 X41.5413 Y274.4100 Z-12.1600
G0 Z10.0000
G0 X41.5413 Y274.4100
G0 Z10.0000
G0 X41.5413 Y272.0100
G1 X41.5413 Y272.0100 Z-15.2000 F2000.
G1 X39.1913 Y272.0100 Z-15.2000 F3800.
G1 X39.1913 Y267.3100 Z-15.2000
G1 X43.8913 Y267.3100 Z-15.2000
G1 X43.8913 Y272.0100 Z-15.2000
G1 X41.5413 Y272.0100 Z-15.2000
G1 X41.5413 Y274.4100 Z-15.2000
G1 X38.3505 Y274.4100 Z-15.2000
G2 X36.3155 Y275.2057 I0.0000 J3.0000
G3 X35.9648 Y274.8497 I-0.1696 J-0.1836
G2 X36.7913 Y272.7819 I-2.1735 J-2.0678
G1 X36.7913 Y266.5381 Z-15.2000
G2 X35.9648 Y264.4702 I-3.0000 J0.0000
G3 X36.3155 Y264.1142 I0.1811 J-0.1723
G2 X38.3505 Y264.9100 I2.0350 J-2.2042
G1 X44.7321 Y264.9100 Z-15.2000
G2 X46.7671 Y264.1142 I0.0000 J-3.0000
G3 X47.1178 Y264.4702 I0.1696 J0.1837
G2 X46.2913 Y266.5381 I2.1735 J2.0679
G1 X46.2913 Y272.7819 Z-15.2000
G2 X47.1178 Y274.8497 I3.0000 J0.0000
G3 X46.7671 Y275.2057 I-0.1811 J0.1724
G2 X44.7321 Y274.4100 I-2.0350 J2.2043
G1 X41.5413 Y274.4100 Z-15.2000
G1 X41.5413 Y273.3493 Z-14.1393 F2000.
G1 X41.5413 Y273.3493 Z-13.5393
G0 Z10.0000
G0 X41.5413 Y273.3493
G0 Z10.0000
G0 X266.9241 Y404.4231
G1 X266.9241 Y404.4231 Z-1.8400 F2000.
G1 X266.9241 Y404.4231 Z-2.4400
G1 X263.5213 Y404.4231 Z-3.0400
G3 X263.5213 Y402.9231 I0.0000 J-0.7500 F3800.
G1 X550.5690 Y402.9231 Z-3.0400
G3 X551.3190 Y403.6731 I0.0000 J0.7500
G3 X550.5690 Y404.4231 I-0.7500 J0.0000
G1 X263.5213 Y404.4231 Z-3.0400
G1 X263.5213 Y404.4231 Z-6.0800
G3 X263.5213 Y402.9231 I0.0000 J-0.7500
G1 X550.5690 Y402.9231 Z-6.0800
G3 X551.3190 Y403.6731 I0.0000 J0.7500
G3 X550.5690 Y404.4231 I-0.7500 J0.0000
G1 X263.5213 Y404.4231 Z-6.0800
G1 X263.5213 Y404.4231 Z-9.1200
G3 X263.5213 Y402.9231 I0.0000 J-0.7500
G1 X550.5690 Y402.9231 Z-9.1200
G3 X551.3190 Y403.6731 I0.0000 J0.7500
G3 X550.5690 Y404.4231 I-0.7500 J0.0000
G1 X263.5213 Y404.4231 Z-9.1200
G1 X263.5213 Y404.4231 Z-12.1600
G3 X263.5213 Y402.9231 I0.0000 J-0.7500
G1 X550.5690 Y402.9231 Z-12.1600
G3 X551.3190 Y403.6731 I0.0000 J0.7500
G3 X550.5690 Y404.4231 I-0.7500 J0.0000
G1 X263.5213 Y404.4231 Z-12.1600
G1 X263.5213 Y404.4231 Z-15.2000
G3 X263.5213 Y402.9231 I0.0000 J-0.7500
G1 X550.5690 Y402.9231 Z-15.2000
G3 X551.3190 Y403.6731 I0.0000 J0.7500
G3 X550.5690 Y404.4231 I-0.7500 J0.0000
G1 X263.5213 Y404.4231 Z-15.2000
G1 X263.9272 Y403.4432 Z-14.1393 F2000.
G1 X263.9272 Y403.4432 Z-13.5393
G0 Z10.0000
G0 X263.9272 Y403.4432
G0 Z10.0000
G0 X264.3188 Y558.3134
G1 X264.3188 Y558.3134 Z-1.8400 F2000.
G1 X264.3188 Y558.3134 Z-2.4400
G1 X263.2679 Y558.3134 Z-2.6253
G1 X263.1120 Y558.2970 Z-2.6529
G1 X262.9629 Y558.2486 Z-2.6806
G1 X262.8271 Y558.1702 Z-2.7082
G1 X262.7106 Y558.0653 Z-2.7359
G1 X262.6184 Y557.9384 Z-2.7635
G1 X262.5546 Y557.7952 Z-2.7912
G1 X262.5220 Y557.6418 Z-2.8188
G1 X262.5220 Y557.4850 Z-2.8465
G1 X262.5546 Y557.3316 Z-2.8741
G1 X262.6184 Y557.1884 Z-2.9018
G1 X262.7106 Y557.0616 Z-2.9294
G1 X262.8271 Y556.9566 Z-2.9571
G1 X262.9629 Y556.8782 Z-2.9847
G1 X263.1120 Y556.8298 Z-3.0124
G1 X263.2679 Y556.8134 Z-3.0400
G1 X550.3156 Y556.8134 Z-3.0400 F3800.
G3 X551.0656 Y557.5634 I0.0000 J0.7500
G3 X550.3156 Y558.3134 I-0.7500 J0.0000
G1 X263.2679 Y558.3134 Z-3.0400
G3 X263.2679 Y556.8134 I0.0000 J-0.7500
G1 X263.2679 Y556.8134 Z-6.0800
G1 X550.3156 Y556.8134 Z-6.0800
G3 X551.0656 Y557.5634 I0.0000 J0.7500
G3 X550.3156 Y558.3134 I-0.7500 J0.0000
G1 X263.2679 Y558.3134 Z-6.0800
G3 X263.2679 Y556.8134 I0.0000 J-0.7500
G1 X263.2679 Y556.8134 Z-9.1200
G1 X550.3156 Y556.8134 Z-9.1200
G3 X551.0656 Y557.5634 I0.0000 J0.7500
G3 X550.3156 Y558.3134 I-0.7500 J0.0000
G1 X263.2679 Y558.3134 Z-9.1200
G3 X263.2679 Y556.8134 I0.0000 J-0.7500
G1 X263.2679 Y556.8134 Z-12.1600
G1 X550.3156 Y556.8134 Z-12.1600
G3 X551.0656 Y557.5634 I0.0000 J0.7500
G3 X550.3156 Y558.3134 I-0.7500 J0.0000
G1 X263.2679 Y558.3134 Z-12.1600
G3 X263.2679 Y556.8134 I0.0000 J-0.7500
G1 X263.2679 Y556.8134 Z-15.2000
G1 X550.3156 Y556.8134 Z-15.2000
G3 X551.0656 Y557.5634 I0.0000 J0.7500
G3 X550.3156 Y558.3134 I-0.7500 J0.0000
G1 X263.2679 Y558.3134 Z-15.2000
G3 X263.2679 Y556.8134 I0.0000 J-0.7500
G1 X263.2679 Y557.8741 Z-14.1393 F2000.
G1 X263.2679 Y557.8741 Z-13.5393
G0 Z10.0000
G0 X263.2679 Y557.8741
G0 Z10.0000
G0 X265.6704 Y640.3134
G1 X265.6704 Y640.3134 Z-1.8400 F2000.
G1 X265.6704 Y640.3134 Z-2.4400
G1 X262.2922 Y640.3134 Z-3.0357
G1 X262.2676 Y640.3134 Z-3.0400
G3 X261.5179 Y639.5636 I0.0001 J-0.7498 F3800.
G1 X261.5179 Y639.5633 Z-3.0400
G3 X262.2680 Y638.8133 I0.7501 J0.0000
G1 X536.2905 Y638.8134 Z-3.0400
G1 X536.3106 Y638.8133 Z-3.0400
G1 X536.3155 Y638.8133 Z-3.0400
G3 X537.0656 Y639.5633 I0.0000 J0.7500
G1 X537.0656 Y639.5636 Z-3.0400
G3 X536.3159 Y640.3134 I-0.7498 J0.0000
G1 X262.2922 Y640.3134 Z-3.0400
G1 X262.2676 Y640.3134 Z-3.0400
G1 X262.2676 Y640.3134 Z-6.0800
G3 X261.5179 Y639.5636 I0.0001 J-0.7498
G1 X261.5179 Y639.5633 Z-6.0800
G3 X262.2680 Y638.8133 I0.7501 J0.0000
G1 X536.2905 Y638.8134 Z-6.0800
G1 X536.3106 Y638.8133 Z-6.0800
G1 X536.3155 Y638.8133 Z-6.0800
G3 X537.0656 Y639.5633 I0.0000 J0.7500
G1 X537.0656 Y639.5636 Z-6.0800
G3 X536.3159 Y640.3134 I-0.7498 J0.0000
G1 X262.2922 Y640.3134 Z-6.0800
G1 X262.2676 Y640.3134 Z-6.0800
G1 X262.2676 Y640.3134 Z-9.1200
G3 X261.5179 Y639.5636 I0.0001 J-0.7498
G1 X261.5179 Y639.5633 Z-9.1200
G3 X262.2680 Y638.8133 I0.7501 J0.0000
G1 X536.2905 Y638.8134 Z-9.1200
G1 X536.3106 Y638.8133 Z-9.1200
G1 X536.3155 Y638.8133 Z-9.1200
G3 X537.0656 Y639.5633 I0.0000 J0.7500
G1 X537.0656 Y639.5636 Z-9.1200
G3 X536.3159 Y640.3134 I-0.7498 J0.0000
G1 X262.2922 Y640.3134 Z-9.1200
G1 X262.2676 Y640.3134 Z-9.1200
G1 X262.2676 Y640.3134 Z-12.1600
G3 X261.5179 Y639.5636 I0.0001 J-0.7498
G1 X261.5179 Y639.5633 Z-12.1600
G3 X262.2680 Y638.8133 I0.7501 J0.0000
G1 X536.2905 Y638.8134 Z-12.1600
G1 X536.3106 Y638.8133 Z-12.1600
G1 X536.3155 Y638.8133 Z-12.1600
G3 X537.0656 Y639.5633 I0.0000 J0.7500
G1 X537.0656 Y639.5636 Z-12.1600
G3 X536.3159 Y640.3134 I-0.7498 J0.0000
G1 X262.2922 Y640.3134 Z-12.1600
G1 X262.2676 Y640.3134 Z-12.1600
G1 X262.2676 Y640.3134 Z-15.2000
G3 X261.5179 Y639.5636 I0.0001 J-0.7498
G1 X261.5179 Y639.5633 Z-15.2000
G3 X262.2680 Y638.8133 I0.7501 J0.0000
G1 X536.2905 Y638.8134 Z-15.2000
G1 X536.3106 Y638.8133 Z-15.2000
G1 X536.3155 Y638.8133 Z-15.2000
G3 X537.0656 Y639.5633 I0.0000 J0.7500
G1 X537.0656 Y639.5636 Z-15.2000
G3 X536.3159 Y640.3134 I-0.7498 J0.0000
G1 X262.2922 Y640.3134 Z-15.2000
G1 X262.2676 Y640.3134 Z-15.2000
G1 X262.4746 Y639.2731 Z-14.1393 F2000.
G1 X262.4746 Y639.2731 Z-13.5393
G0 Z10.0000
G0 X262.4746 Y639.2731
G0 Z10.0000
G0 X265.9238 Y486.4231
G1 X265.9238 Y486.4231 Z-1.8400 F2000.
G1 X265.9238 Y486.4231 Z-2.4400
G1 X262.5210 Y486.4231 Z-3.0400
G3 X261.7713 Y485.6733 I0.0002 J-0.7498 F3800.
G1 X261.7713 Y485.6731 Z-3.0400
G3 X262.5214 Y484.9230 I0.7501 J-0.0001
G1 X536.5690 Y484.9230 Z-3.0400
G3 X537.3190 Y485.6731 I-0.0001 J0.7500
G1 X537.3190 Y485.6733 Z-3.0400
G3 X536.5692 Y486.4231 I-0.7498 J0.0000
G1 X536.5590 Y486.4231 Z-3.0400
G1 X536.5447 Y486.4231 Z-3.0400
G1 X262.5210 Y486.4231 Z-3.0400
G1 X262.5210 Y486.4231 Z-6.0800
G3 X261.7713 Y485.6733 I0.0002 J-0.7498
G1 X261.7713 Y485.6731 Z-6.0800
G3 X262.5214 Y484.9230 I0.7501 J-0.0001
G1 X536.5690 Y484.9230 Z-6.0800
G3 X537.3190 Y485.6731 I-0.0001 J0.7500
G1 X537.3190 Y485.6733 Z-6.0800
G3 X536.5692 Y486.4231 I-0.7498 J0.0000
G1 X536.5590 Y486.4231 Z-6.0800
G1 X536.5447 Y486.4231 Z-6.0800
G1 X262.5210 Y486.4231 Z-6.0800
G1 X262.5210 Y486.4231 Z-9.1200
G3 X261.7713 Y485.6733 I0.0002 J-0.7498
G1 X261.7713 Y485.6731 Z-9.1200
G3 X262.5214 Y484.9230 I0.7501 J-0.0001
G1 X536.5690 Y484.9230 Z-9.1200
G3 X537.3190 Y485.6731 I-0.0001 J0.7500
G1 X537.3190 Y485.6733 Z-9.1200
G3 X536.5692 Y486.4231 I-0.7498 J0.0000
G1 X536.5590 Y486.4231 Z-9.1200
G1 X536.5447 Y486.4231 Z-9.1200
G1 X262.5210 Y486.4231 Z-9.1200
G1 X262.5210 Y486.4231 Z-12.1600
G3 X261.7713 Y485.6733 I0.0002 J-0.7498
G1 X261.7713 Y485.6731 Z-12.1600
G3 X262.5214 Y484.9230 I0.7501 J-0.0001
G1 X536.5690 Y484.9230 Z-12.1600
G3 X537.3190 Y485.6731 I-0.0001 J0.7500
G1 X537.3190 Y485.6733 Z-12.1600
G3 X536.5692 Y486.4231 I-0.7498 J0.0000
G1 X536.5590 Y486.4231 Z-12.1600
G1 X536.5447 Y486.4231 Z-12.1600
G1 X262.5210 Y486.4231 Z-12.1600
G1 X262.5210 Y486.4231 Z-15.2000
G3 X261.7713 Y485.6733 I0.0002 J-0.7498
G1 X261.7713 Y485.6731 Z-15.2000
G3 X262.5214 Y484.9230 I0.7501 J-0.0001
G1 X536.5690 Y484.9230 Z-15.2000
G3 X537.3190 Y485.6731 I-0.0001 J0.7500
G1 X537.3190 Y485.6733 Z-15.2000
G3 X536.5692 Y486.4231 I-0.7498 J0.0000
G1 X536.5590 Y486.4231 Z-15.2000
G1 X536.5447 Y486.4231 Z-15.2000
G1 X262.5210 Y486.4231 Z-15.2000
G1 X262.7280 Y485.3828 Z-14.1393 F2000.
G1 X262.7280 Y485.3828 Z-13.5393
G0 Z10.0000
G0 X262.7280 Y485.3828
G0 Z10.0000
G0 X627.0423 Y550.8787
G1 X627.0423 Y550.8787 Z-1.8400 F2000.
G1 X627.0423 Y550.8787 Z-2.4400
G1 X627.0541 Y553.7289 Z-2.9426
G1 X627.0586 Y553.7848 Z-2.9525
G1 X626.7159 Y553.7440 Z-3.0133
G1 X626.5648 Y553.7356 Z-3.0400
G2 X622.2404 Y553.7674 I-1.9181 J33.1744 F3800.
G1 X622.2812 Y553.4247 Z-3.0400
G1 X622.2981 Y553.1322 Z-3.0400
G1 X622.2677 Y544.6533 Z-3.0400
G1 X622.2578 Y544.4433 Z-3.0400
G1 X622.6005 Y544.4842 Z-3.0400
G2 X627.0760 Y544.4607 I2.0580 J-34.3291
G1 X627.0351 Y544.8034 Z-3.0400
G1 X627.0183 Y545.0960 Z-3.0400
G1 X627.0541 Y553.7289 Z-3.0400
G1 X627.0586 Y553.7848 Z-3.0400
G1 X626.7159 Y553.7440 Z-3.0400
G1 X626.5648 Y553.7356 Z-3.0400
G1 X626.4319 Y556.1271 Z-3.0400
G1 X622.4589 Y556.1574 Z-3.0400
G1 X621.6154 Y556.2783 Z-3.0400
G2 X620.8415 Y556.4982 I0.4255 J2.9697
G1 X619.4739 Y557.0947 Z-3.0400
G1 X619.1505 Y557.0535 Z-3.0400
G1 X618.9218 Y556.7101 Z-3.0400
G1 X618.9305 Y556.5513 Z-3.0400
G1 X619.5270 Y555.1837 Z-3.0400
G2 X619.7469 Y554.4098 I-2.7498 J-1.1994
G1 X619.8981 Y553.1408 Z-3.0400
G1 X619.8678 Y544.6619 Z-3.0400
G1 X619.7469 Y543.8183 Z-3.0400
G2 X619.5270 Y543.0444 I-2.9697 J0.4255
G1 X618.9305 Y541.6769 Z-3.0400
G1 X618.9716 Y541.3534 Z-3.0400
G1 X619.3151 Y541.1248 Z-3.0400
G1 X619.4739 Y541.1334 Z-3.0400
G1 X620.8415 Y541.7300 Z-3.0400
G2 X621.6154 Y541.9498 I1.1994 J-2.7498
G2 X627.7010 Y541.9498 I3.0428 J-20.1376
G2 X628.4832 Y541.7263 I-0.4255 J-2.9696
G1 X629.9896 Y541.1234 Z-3.0400
G1 X630.2680 Y541.2513 Z-3.0400
G1 X630.3959 Y541.5297 Z-3.0400
G1 X629.7930 Y543.0361 Z-3.0400
G2 X629.5695 Y543.8183 I2.7462 J1.2077
G1 X629.4183 Y545.0874 Z-3.0400
G1 X629.4486 Y553.5663 Z-3.0400
G1 X629.5695 Y554.4098 Z-3.0400
G2 X629.7894 Y555.1837 I2.9697 J-0.4255
G1 X630.3859 Y556.5513 Z-3.0400
G1 X630.3447 Y556.8747 Z-3.0400
G1 X630.0013 Y557.1034 Z-3.0400
G1 X629.2567 Y556.8534 Z-3.0400
G1 X628.5178 Y556.5173 Z-3.0400
G2 X627.7010 Y556.2783 I-1.2423 J2.7307
G1 X626.4319 Y556.1271 Z-3.0400
G0 Z10.0000
G0 X626.4319 Y556.1271
G0 Z10.0000
G0 X626.5648 Y553.7356
G1 X626.5648 Y553.7356 Z-6.0800 F2000.
G2 X622.2404 Y553.7674 I-1.9181 J33.1744 F3800.
G1 X622.2812 Y553.4247 Z-6.0800
G1 X622.2981 Y553.1322 Z-6.0800
G1 X622.2677 Y544.6533 Z-6.0800
G1 X622.2578 Y544.4433 Z-6.0800
G1 X622.6005 Y544.4842 Z-6.0800
G2 X627.0760 Y544.4607 I2.0580 J-34.3291
G1 X627.0351 Y544.8034 Z-6.0800
G1 X627.0183 Y545.0960 Z-6.0800
G1 X627.0541 Y553.7289 Z-6.0800
G1 X627.0586 Y553.7848 Z-6.0800
G1 X626.7159 Y553.7440 Z-6.0800
G1 X626.5648 Y553.7356 Z-6.0800
G1 X626.4319 Y556.1271 Z-6.0800
G1 X622.4589 Y556.1574 Z-6.0800
G1 X621.6154 Y556.2783 Z-6.0800
G2 X620.8415 Y556.4982 I0.4255 J2.9697
G1 X619.4739 Y557.0947 Z-6.0800
G1 X619.1505 Y557.0535 Z-6.0800
G1 X618.9218 Y556.7101 Z-6.0800
G1 X618.9305 Y556.5513 Z-6.0800
G1 X619.5270 Y555.1837 Z-6.0800
G2 X619.7469 Y554.4098 I-2.7498 J-1.1994
G1 X619.8981 Y553.1408 Z-6.0800
G1 X619.8678 Y544.6619 Z-6.0800
G1 X619.7469 Y543.8183 Z-6.0800
G2 X619.5270 Y543.0444 I-2.9697 J0.4255
G1 X618.9305 Y541.6769 Z-6.0800
G1 X618.9716 Y541.3534 Z-6.0800
G1 X619.3151 Y541.1248 Z-6.0800
G1 X619.4739 Y541.1334 Z-6.0800
G1 X620.8415 Y541.7300 Z-6.0800
G2 X621.6154 Y541.9498 I1.1994 J-2.7498
G2 X627.7010 Y541.9498 I3.0428 J-20.1376
G2 X628.4832 Y541.7263 I-0.4255 J-2.9696
G1 X629.9896 Y541.1234 Z-6.0800
G1 X630.2680 Y541.2513 Z-6.0800
G1 X630.3959 Y541.5297 Z-6.0800
G1 X629.7930 Y543.0361 Z-6.0800
G2 X629.5695 Y543.8183 I2.7462 J1.2077
G1 X629.4183 Y545.0874 Z-6.0800
G1 X629.4486 Y553.5663 Z-6.0800
G1 X629.5695 Y554.4098 Z-6.0800
G2 X629.7894 Y555.1837 I2.9697 J-0.4255
G1 X630.3859 Y556.5513 Z-6.0800
G1 X630.3447 Y556.8747 Z-6.0800
G1 X630.0013 Y557.1034 Z-6.0800
G1 X629.2567 Y556.8534 Z-6.0800
G1 X628.5178 Y556.5173 Z-6.0800
G2 X627.7010 Y556.2783 I-1.2423 J2.7307
G1 X626.4319 Y556.1271 Z-6.0800
G0 Z10.0000
G0 X626.4319 Y556.1271
G0 Z10.0000
G0 X626.5648 Y553.7356
G1 X626.5648 Y553.7356 Z-9.1200 F2000.
G2 X622.2404 Y553.7674 I-1.9181 J33.1744 F3800.
G1 X622.2812 Y553.4247 Z-9.1200
G1 X622.2981 Y553.1322 Z-9.1200
G1 X622.2677 Y544.6533 Z-9.1200
G1 X622.2578 Y544.4433 Z-9.1200
G1 X622.6005 Y544.4842 Z-9.1200
G2 X627.0760 Y544.4607 I2.0580 J-34.3291
G1 X627.0351 Y544.8034 Z-9.1200
G1 X627.0183 Y545.0960 Z-9.1200
G1 X627.0541 Y553.7289 Z-9.1200
G1 X627.0586 Y553.7848 Z-9.1200
G1 X626.7159 Y553.7440 Z-9.1200
G1 X626.5648 Y553.7356 Z-9.1200
G1 X626.4319 Y556.1271 Z-9.1200
G1 X622.4589 Y556.1574 Z-9.1200
G1 X621.6154 Y556.2783 Z-9.1200
G2 X620.8415 Y556.4982 I0.4255 J2.9697
G1 X619.4739 Y557.0947 Z-9.1200
G1 X619.1505 Y557.0535 Z-9.1200
G1 X618.9218 Y556.7101 Z-9.1200
G1 X618.9305 Y556.5513 Z-9.1200
G1 X619.5270 Y555.1837 Z-9.1200
G2 X619.7469 Y554.4098 I-2.7498 J-1.1994
G1 X619.8981 Y553.1408 Z-9.1200
G1 X619.8678 Y544.6619 Z-9.1200
G1 X619.7469 Y543.8183 Z-9.1200
G2 X619.5270 Y543.0444 I-2.9697 J0.4255
G1 X618.9305 Y541.6769 Z-9.1200
G1 X618.9716 Y541.3534 Z-9.1200
G1 X619.3151 Y541.1248 Z-9.1200
G1 X619.4739 Y541.1334 Z-9.1200
G1 X620.8415 Y541.7300 Z-9.1200
G2 X621.6154 Y541.9498 I1.1994 J-2.7498
G2 X627.7010 Y541.9498 I3.0428 J-20.1376
G2 X628.4832 Y541.7263 I-0.4255 J-2.9696
G1 X629.9896 Y541.1234 Z-9.1200
G1 X630.2680 Y541.2513 Z-9.1200
G1 X630.3959 Y541.5297 Z-9.1200
G1 X629.7930 Y543.0361 Z-9.1200
G2 X629.5695 Y543.8183 I2.7462 J1.2077
G1 X629.4183 Y545.0874 Z-9.1200
G1 X629.4486 Y553.5663 Z-9.1200
G1 X629.5695 Y554.4098 Z-9.1200
G2 X629.7894 Y555.1837 I2.9697 J-0.4255
G1 X630.3859 Y556.5513 Z-9.1200
G1 X630.3447 Y556.8747 Z-9.1200
G1 X630.0013 Y557.1034 Z-9.1200
G1 X629.2567 Y556.8534 Z-9.1200
G1 X628.5178 Y556.5173 Z-9.1200
G2 X627.7010 Y556.2783 I-1.2423 J2.7307
G1 X626.4319 Y556.1271 Z-9.1200
G0 Z10.0000
G0 X626.4319 Y556.1271
G0 Z10.0000
G0 X626.5648 Y553.7356
G1 X626.5648 Y553.7356 Z-12.1600 F2000.
G2 X622.2404 Y553.7674 I-1.9181 J33.1744 F3800.
G1 X622.2812 Y553.4247 Z-12.1600
G1 X622.2981 Y553.1322 Z-12.1600
G1 X622.2677 Y544.6533 Z-12.1600
G1 X622.2578 Y544.4433 Z-12.1600
G1 X622.6005 Y544.4842 Z-12.1600
G2 X627.0760 Y544.4607 I2.0580 J-34.3291
G1 X627.0351 Y544.8034 Z-12.1600
G1 X627.0183 Y545.0960 Z-12.1600
G1 X627.0541 Y553.7289 Z-12.1600
G1 X627.0586 Y553.7848 Z-12.1600
G1 X626.7159 Y553.7440 Z-12.1600
G1 X626.5648 Y553.7356 Z-12.1600
G1 X626.4319 Y556.1271 Z-12.1600
G1 X622.4589 Y556.1574 Z-12.1600
G1 X621.6154 Y556.2783 Z-12.1600
G2 X620.8415 Y556.4982 I0.4255 J2.9697
G1 X619.4739 Y557.0947 Z-12.1600
G1 X619.1505 Y557.0535 Z-12.1600
G1 X618.9218 Y556.7101 Z-12.1600
G1 X618.9305 Y556.5513 Z-12.1600
G1 X619.5270 Y555.1837 Z-12.1600
G2 X619.7469 Y554.4098 I-2.7498 J-1.1994
G1 X619.8981 Y553.1408 Z-12.1600
G1 X619.8678 Y544.6619 Z-12.1600
G1 X619.7469 Y543.8183 Z-12.1600
G2 X619.5270 Y543.0444 I-2.9697 J0.4255
G1 X618.9305 Y541.6769 Z-12.1600
G1 X618.9716 Y541.3534 Z-12.1600
G1 X619.3151 Y541.1248 Z-12.1600
G1 X619.4739 Y541.1334 Z-12.1600
G1 X620.8415 Y541.7300 Z-12.1600
G2 X621.6154 Y541.9498 I1.1994 J-2.7498
G2 X627.7010 Y541.9498 I3.0428 J-20.1376
G2 X628.4832 Y541.7263 I-0.4255 J-2.9696
G1 X629.9896 Y541.1234 Z-12.1600
G1 X630.2680 Y541.2513 Z-12.1600
G1 X630.3959 Y541.5297 Z-12.1600
G1 X629.7930 Y543.0361 Z-12.1600
G2 X629.5695 Y543.8183 I2.7462 J1.2077
G1 X629.4183 Y545.0874 Z-12.1600
G1 X629.4486 Y553.5663 Z-12.1600
G1 X629.5695 Y554.4098 Z-12.1600
G2 X629.7894 Y555.1837 I2.9697 J-0.4255
G1 X630.3859 Y556.5513 Z-12.1600
G1 X630.3447 Y556.8747 Z-12.1600
G1 X630.0013 Y557.1034 Z-12.1600
G1 X629.2567 Y556.8534 Z-12.1600
G1 X628.5178 Y556.5173 Z-12.1600
G2 X627.7010 Y556.2783 I-1.2423 J2.7307
G1 X626.4319 Y556.1271 Z-12.1600
G0 Z10.0000
G0 X626.4319 Y556.1271
G0 Z10.0000
G0 X626.5648 Y553.7356
G1 X626.5648 Y553.7356 Z-15.2000 F2000.
G2 X622.2404 Y553.7674 I-1.9181 J33.1744 F3800.
G1 X622.2812 Y553.4247 Z-15.2000
G1 X622.2981 Y553.1322 Z-15.2000
G1 X622.2677 Y544.6533 Z-15.2000
G1 X622.2578 Y544.4433 Z-15.2000
G1 X622.6005 Y544.4842 Z-15.2000
G2 X627.0760 Y544.4607 I2.0580 J-34.3291
G1 X627.0351 Y544.8034 Z-15.2000
G1 X627.0183 Y545.0960 Z-15.2000
G1 X627.0541 Y553.7289 Z-15.2000
G1 X627.0586 Y553.7848 Z-15.2000
G1 X626.7159 Y553.7440 Z-15.2000
G1 X626.5648 Y553.7356 Z-15.2000
G1 X626.4319 Y556.1271 Z-15.2000
G1 X622.4589 Y556.1574 Z-15.2000
G1 X621.6154 Y556.2783 Z-15.2000
G2 X620.8415 Y556.4982 I0.4255 J2.9697
G1 X619.4739 Y557.0947 Z-15.2000
G1 X619.1505 Y557.0535 Z-15.2000
G1 X618.9218 Y556.7101 Z-15.2000
G1 X618.9305 Y556.5513 Z-15.2000
G1 X619.5270 Y555.1837 Z-15.2000
G2 X619.7469 Y554.4098 I-2.7498 J-1.1994
G1 X619.8981 Y553.1408 Z-15.2000
G1 X619.8678 Y544.6619 Z-15.2000
G1 X619.7469 Y543.8183 Z-15.2000
G2 X619.5270 Y543.0444 I-2.9697 J0.4255
G1 X618.9305 Y541.6769 Z-15.2000
G1 X618.9716 Y541.3534 Z-15.2000
G1 X619.3151 Y541.1248 Z-15.2000
G1 X619.4739 Y541.1334 Z-15.2000
G1 X620.8415 Y541.7300 Z-15.2000
G2 X621.6154 Y541.9498 I1.1994 J-2.7498
G2 X627.7010 Y541.9498 I3.0428 J-20.1376
G2 X628.4832 Y541.7263 I-0.4255 J-2.9696
G1 X629.9896 Y541.1234 Z-15.2000
G1 X630.2680 Y541.2513 Z-15.2000
G1 X630.3959 Y541.5297 Z-15.2000
G1 X629.7930 Y543.0361 Z-15.2000
G2 X629.5695 Y543.8183 I2.7462 J1.2077
G1 X629.4183 Y545.0874 Z-15.2000
G1 X629.4486 Y553.5663 Z-15.2000
G1 X629.5695 Y554.4098 Z-15.2000
G2 X629.7894 Y555.1837 I2.9697 J-0.4255
G1 X630.3859 Y556.5513 Z-15.2000
G1 X630.3447 Y556.8747 Z-15.2000
G1 X630.0013 Y557.1034 Z-15.2000
G1 X629.2567 Y556.8534 Z-15.2000
G1 X628.5178 Y556.5173 Z-15.2000
G2 X627.7010 Y556.2783 I-1.2423 J2.7307
G1 X626.4319 Y556.1271 Z-15.2000
G1 X626.5574 Y555.0739 Z-14.1393 F2000.
G1 X626.5574 Y555.0739 Z-13.5393
G0 Z10.0000
G0 X626.5574 Y555.0739
G0 Z10.0000
G0 X692.2552 Y552.2045
G1 X692.2552 Y552.2045 Z-1.8400 F2000.
G1 X692.2552 Y552.2045 Z-2.4400
G1 X692.2552 Y554.6938 Z-2.8789
G1 X692.2553 Y554.7344 Z-2.8861
G1 X692.2556 Y554.7750 Z-2.8933
G1 X692.2560 Y554.8156 Z-2.9004
G1 X692.2567 Y554.8562 Z-2.9076
G1 X692.2576 Y554.8968 Z-2.9147
G1 X692.2587 Y554.9374 Z-2.9219
G1 X692.2600 Y554.9780 Z-2.9291
G1 X692.2614 Y555.0185 Z-2.9362
G1 X692.2631 Y555.0591 Z-2.9434
G1 X692.2650 Y555.0996 Z-2.9505
G1 X692.2670 Y555.1402 Z-2.9577
G1 X692.2693 Y555.1807 Z-2.9648
G1 X692.2717 Y555.2212 Z-2.9720
G1 X692.2744 Y555.2617 Z-2.9792
G1 X692.2772 Y555.3022 Z-2.9863
G1 X692.2570 Y555.3008 Z-2.9899
G1 X692.2367 Y555.2994 Z-2.9935
G1 X692.2165 Y555.2981 Z-2.9971
G1 X692.1962 Y555.2968 Z-3.0006
G1 X692.1759 Y555.2955 Z-3.0042
G1 X692.1557 Y555.2943 Z-3.0078
G1 X692.1354 Y555.2932 Z-3.0114
G1 X692.1152 Y555.2920 Z-3.0149
G1 X692.0949 Y555.2910 Z-3.0185
G1 X692.0746 Y555.2900 Z-3.0221
G1 X692.0543 Y555.2890 Z-3.0257
G1 X692.0341 Y555.2881 Z-3.0293
G1 X692.0138 Y555.2873 Z-3.0328
G1 X691.9935 Y555.2865 Z-3.0364
G1 X691.9732 Y555.2857 Z-3.0400
G2 X691.6688 Y555.2802 I-0.3044 J8.3984 F3800.
G1 X688.1213 Y555.2802 Z-3.0400
G2 X687.5129 Y555.3022 I0.0000 J8.4039
G2 X687.5350 Y554.6938 I-8.3819 J-0.6084
G1 X687.5350 Y546.6405 Z-3.0400
G2 X687.5129 Y546.0321 I-8.4040 J0.0000
G2 X688.1213 Y546.0541 I0.6084 J-8.3819
G1 X691.6688 Y546.0541 Z-3.0400
G2 X692.2772 Y546.0321 I0.0000 J-8.4039
G2 X692.2552 Y546.6405 I8.3819 J0.6084
G1 X692.2552 Y554.6938 Z-3.0400
G2 X692.2772 Y555.3022 I8.4039 J0.0000
G2 X691.9732 Y555.2857 I-0.6084 J8.3819
G1 X691.8863 Y557.6841 Z-3.0400
G2 X691.6688 Y557.6802 I-0.2175 J6.0000
G1 X688.1213 Y557.6802 Z-3.0400
G2 X684.8850 Y558.6271 I0.0000 J6.0039
G3 X684.1881 Y557.9301 I-0.2719 J-0.4250
G2 X685.1350 Y554.6938 I-5.0571 J-3.2363
G1 X685.1350 Y546.6405 Z-3.0400
G2 X684.1881 Y543.4042 I-6.0040 J0.0000
G3 X684.8850 Y542.7072 I0.4250 J-0.2720
G2 X688.1213 Y543.6541 I3.2363 J-5.0570
G1 X691.6688 Y543.6541 Z-3.0400
G2 X694.9051 Y542.7072 I0.0000 J-6.0039
G3 X695.6020 Y543.4042 I0.2720 J0.4250
G2 X694.6552 Y546.6405 I5.0571 J3.2363
G1 X694.6552 Y554.6938 Z-3.0400
G2 X695.6020 Y557.9301 I6.0039 J0.0000
G3 X694.9051 Y558.6271 I-0.4249 J0.2720
G2 X691.8863 Y557.6841 I-3.2363 J5.0570
G0 Z10.0000
G0 X691.8863 Y557.6841
G0 Z10.0000
G0 X691.9732 Y555.2857
G1 X691.9732 Y555.2857 Z-6.0800 F2000.
G2 X691.6688 Y555.2802 I-0.3044 J8.3984 F3800.
G1 X688.1213 Y555.2802 Z-6.0800
G2 X687.5129 Y555.3022 I0.0000 J8.4039
G2 X687.5350 Y554.6938 I-8.3819 J-0.6084
G1 X687.5350 Y546.6405 Z-6.0800
G2 X687.5129 Y546.0321 I-8.4040 J0.0000
G2 X688.1213 Y546.0541 I0.6084 J-8.3819
G1 X691.6688 Y546.0541 Z-6.0800
G2 X692.2772 Y546.0321 I0.0000 J-8.4039
G2 X692.2552 Y546.6405 I8.3819 J0.6084
G1 X692.2552 Y554.6938 Z-6.0800
G2 X692.2772 Y555.3022 I8.4039 J0.0000
G2 X691.9732 Y555.2857 I-0.6084 J8.3819
G1 X691.8863 Y557.6841 Z-6.0800
G2 X691.6688 Y557.6802 I-0.2175 J6.0000
G1 X688.1213 Y557.6802 Z-6.0800
G2 X684.8850 Y558.6271 I0.0000 J6.0039
G3 X684.1881 Y557.9301 I-0.2719 J-0.4250
G2 X685.1350 Y554.6938 I-5.0571 J-3.2363
G1 X685.1350 Y546.6405 Z-6.0800
G2 X684.1881 Y543.4042 I-6.0040 J0.0000
G3 X684.8850 Y542.7072 I0.4250 J-0.2720
G2 X688.1213 Y543.6541 I3.2363 J-5.0570
G1 X691.6688 Y543.6541 Z-6.0800
G2 X694.9051 Y542.7072 I0.0000 J-6.0039
G3 X695.6020 Y543.4042 I0.2720 J0.4250
G2 X694.6552 Y546.6405 I5.0571 J3.2363
G1 X694.6552 Y554.6938 Z-6.0800
G2 X695.6020 Y557.9301 I6.0039 J0.0000
G3 X694.9051 Y558.6271 I-0.4249 J0.2720
G2 X691.8863 Y557.6841 I-3.2363 J5.0570
G0 Z10.0000
G0 X691.8863 Y557.6841
G0 Z10.0000
G0 X691.9732 Y555.2857
G1 X691.9732 Y555.2857 Z-9.1200 F2000.
G2 X691.6688 Y555.2802 I-0.3044 J8.3984 F3800.
G1 X688.1213 Y555.2802 Z-9.1200
G2 X687.5129 Y555.3022 I0.0000 J8.4039
G2 X687.5350 Y554.6938 I-8.3819 J-0.6084
G1 X687.5350 Y546.6405 Z-9.1200
G2 X687.5129 Y546.0321 I-8.4040 J0.0000
G2 X688.1213 Y546.0541 I0.6084 J-8.3819
G1 X691.6688 Y546.0541 Z-9.1200
G2 X692.2772 Y546.0321 I0.0000 J-8.4039
G2 X692.2552 Y546.6405 I8.3819 J0.6084
G1 X692.2552 Y554.6938 Z-9.1200
G2 X692.2772 Y555.3022 I8.4039 J0.0000
G2 X691.9732 Y555.2857 I-0.6084 J8.3819
G1 X691.8863 Y557.6841 Z-9.1200
G2 X691.6688 Y557.6802 I-0.2175 J6.0000
G1 X688.1213 Y557.6802 Z-9.1200
G2 X684.8850 Y558.6271 I0.0000 J6.0039
G3 X684.1881 Y557.9301 I-0.2719 J-0.4250
G2 X685.1350 Y554.6938 I-5.0571 J-3.2363
G1 X685.1350 Y546.6405 Z-9.1200
G2 X684.1881 Y543.4042 I-6.0040 J0.0000
G3 X684.8850 Y542.7072 I0.4250 J-0.2720
G2 X688.1213 Y543.6541 I3.2363 J-5.0570
G1 X691.6688 Y543.6541 Z-9.1200
G2 X694.9051 Y542.7072 I0.0000 J-6.0039
G3 X695.6020 Y543.4042 I0.2720 J0.4250
G2 X694.6552 Y546.6405 I5.0571 J3.2363
G1 X694.6552 Y554.6938 Z-9.1200
G2 X695.6020 Y557.9301 I6.0039 J0.0000
G3 X694.9051 Y558.6271 I-0.4249 J0.2720
G2 X691.8863 Y557.6841 I-3.2363 J5.0570
G0 Z10.0000
G0 X691.8863 Y557.6841
G0 Z10.0000
G0 X691.9732 Y555.2857
G1 X691.9732 Y555.2857 Z-12.1600 F2000.
G2 X691.6688 Y555.2802 I-0.3044 J8.3984 F3800.
G1 X688.1213 Y555.2802 Z-12.1600
G2 X687.5129 Y555.3022 I0.0000 J8.4039
G2 X687.5350 Y554.6938 I-8.3819 J-0.6084
G1 X687.5350 Y546.6405 Z-12.1600
G2 X687.5129 Y546.0321 I-8.4040 J0.0000
G2 X688.1213 Y546.0541 I0.6084 J-8.3819
G1 X691.6688 Y546.0541 Z-12.1600
G2 X692.2772 Y546.0321 I0.0000 J-8.4039
G2 X692.2552 Y546.6405 I8.3819 J0.6084
G1 X692.2552 Y554.6938 Z-12.1600
G2 X692.2772 Y555.3022 I8.4039 J0.0000
G2 X691.9732 Y555.2857 I-0.6084 J8.3819
G1 X691.8863 Y557.6841 Z-12.1600
G2 X691.6688 Y557.6802 I-0.2175 J6.0000
G1 X688.1213 Y557.6802 Z-12.1600
G2 X684.8850 Y558.6271 I0.0000 J6.0039
G3 X684.1881 Y557.9301 I-0.2719 J-0.4250
G2 X685.1350 Y554.6938 I-5.0571 J-3.2363
G1 X685.1350 Y546.6405 Z-12.1600
G2 X684.1881 Y543.4042 I-6.0040 J0.0000
G3 X684.8850 Y542.7072 I0.4250 J-0.2720
G2 X688.1213 Y543.6541 I3.2363 J-5.0570
G1 X691.6688 Y543.6541 Z-12.1600
G2 X694.9051 Y542.7072 I0.0000 J-6.0039
G3 X695.6020 Y543.4042 I0.2720 J0.4250
G2 X694.6552 Y546.6405 I5.0571 J3.2363
G1 X694.6552 Y554.6938 Z-12.1600
G2 X695.6020 Y557.9301 I6.0039 J0.0000
G3 X694.9051 Y558.6271 I-0.4249 J0.2720
G2 X691.8863 Y557.6841 I-3.2363 J5.0570
G0 Z10.0000
G0 X691.8863 Y557.6841
G0 Z10.0000
G0 X691.9732 Y555.2857
G1 X691.9732 Y555.2857 Z-15.2000 F2000.
G2 X691.6688 Y555.2802 I-0.3044 J8.3984 F3800.
G1 X688.1213 Y555.2802 Z-15.2000
G2 X687.5129 Y555.3022 I0.0000 J8.4039
G2 X687.5350 Y554.6938 I-8.3819 J-0.6084
G1 X687.5350 Y546.6405 Z-15.2000
G2 X687.5129 Y546.0321 I-8.4040 J0.0000
G2 X688.1213 Y546.0541 I0.6084 J-8.3819
G1 X691.6688 Y546.0541 Z-15.2000
G2 X692.2772 Y546.0321 I0.0000 J-8.4039
G2 X692.2552 Y546.6405 I8.3819 J0.6084
G1 X692.2552 Y554.6938 Z-15.2000
G2 X692.2772 Y555.3022 I8.4039 J0.0000
G2 X691.9732 Y555.2857 I-0.6084 J8.3819
G1 X691.8863 Y557.6841 Z-15.2000
G2 X691.6688 Y557.6802 I-0.2175 J6.0000
G1 X688.1213 Y557.6802 Z-15.2000
G2 X684.8850 Y558.6271 I0.0000 J6.0039
G3 X684.1881 Y557.9301 I-0.2719 J-0.4250
G2 X685.1350 Y554.6938 I-5.0571 J-3.2363
G1 X685.1350 Y546.6405 Z-15.2000
G2 X684.1881 Y543.4042 I-6.0040 J0.0000
G3 X684.8850 Y542.7072 I0.4250 J-0.2720
G2 X688.1213 Y543.6541 I3.2363 J-5.0570
G1 X691.6688 Y543.6541 Z-15.2000
G2 X694.9051 Y542.7072 I0.0000 J-6.0039
G3 X695.6020 Y543.4042 I0.2720 J0.4250
G2 X694.6552 Y546.6405 I5.0571 J3.2363
G1 X694.6552 Y554.6938 Z-15.2000
G2 X695.6020 Y557.9301 I6.0039 J0.0000
G3 X694.9051 Y558.6271 I-0.4249 J0.2720
G2 X691.8863 Y557.6841 I-3.2363 J5.0570
G1 X692.3255 Y556.7187 Z-14.1393 F2000.
G1 X692.3255 Y556.7187 Z-13.5393
G0 Z10.0000
G0 X692.3255 Y556.7187
G0 Z10.0000
G0 X629.9597 Y744.7054
G1 X629.9597 Y744.7054 Z-1.8400 F2000.
G1 X629.9597 Y744.7054 Z-2.4400
G1 X627.4703 Y744.7054 Z-2.8789
G1 X627.4297 Y744.7055 Z-2.8861
G1 X627.3891 Y744.7058 Z-2.8933
G1 X627.3485 Y744.7063 Z-2.9004
G1 X627.3079 Y744.7070 Z-2.9076
G1 X627.2673 Y744.7079 Z-2.9147
G1 X627.2268 Y744.7090 Z-2.9219
G1 X627.1862 Y744.7102 Z-2.9291
G1 X627.1456 Y744.7117 Z-2.9362
G1 X627.1051 Y744.7134 Z-2.9434
G1 X627.0645 Y744.7152 Z-2.9505
G1 X627.0240 Y744.7173 Z-2.9577
G1 X626.9834 Y744.7195 Z-2.9648
G1 X626.9429 Y744.7220 Z-2.9720
G1 X626.9024 Y744.7246 Z-2.9792
G1 X626.8619 Y744.7275 Z-2.9863
G1 X626.8633 Y744.7072 Z-2.9899
G1 X626.8647 Y744.6870 Z-2.9935
G1 X626.8661 Y744.6667 Z-2.9971
G1 X626.8674 Y744.6465 Z-3.0006
G1 X626.8686 Y744.6262 Z-3.0042
G1 X626.8698 Y744.6060 Z-3.0078
G1 X626.8710 Y744.5857 Z-3.0114
G1 X626.8721 Y744.5654 Z-3.0149
G1 X626.8731 Y744.5451 Z-3.0185
G1 X626.8741 Y744.5249 Z-3.0221
G1 X626.8751 Y744.5046 Z-3.0257
G1 X626.8760 Y744.4843 Z-3.0293
G1 X626.8769 Y744.4640 Z-3.0328
G1 X626.8777 Y744.4438 Z-3.0364
G1 X626.8784 Y744.4235 Z-3.0400
G2 X626.8840 Y744.1191 I-8.3984 J-0.3044 F3800.
G1 X626.8840 Y736.0657 Z-3.0400
G2 X626.8619 Y735.4573 I-8.4040 J0.0000
G2 X627.4703 Y735.4794 I0.6084 J-8.3819
G1 X631.0178 Y735.4794 Z-3.0400
G2 X631.6262 Y735.4573 I0.0000 J-8.4040
G2 X631.6042 Y736.0657 I8.3819 J0.6084
G1 X631.6042 Y744.1191 Z-3.0400
G2 X631.6262 Y744.7275 I8.4039 J0.0000
G2 X631.0178 Y744.7054 I-0.6084 J8.3818
G1 X627.4703 Y744.7054 Z-3.0400
G2 X626.8619 Y744.7275 I0.0000 J8.4039
G2 X626.8784 Y744.4235 I-8.3819 J-0.6084
G1 X624.4800 Y744.3365 Z-3.0400
G2 X624.4840 Y744.1191 I-6.0000 J-0.2174
G1 X624.4840 Y736.0657 Z-3.0400
G2 X623.5371 Y732.8294 I-6.0040 J0.0000
G3 X624.2340 Y732.1325 I0.4250 J-0.2719
G2 X627.4703 Y733.0794 I3.2363 J-5.0571
G1 X631.0178 Y733.0794 Z-3.0400
G2 X634.2541 Y732.1325 I0.0000 J-6.0040
G3 X634.9510 Y732.8294 I0.2720 J0.4250
G2 X634.0042 Y736.0657 I5.0571 J3.2363
G1 X634.0042 Y744.1191 Z-3.0400
G2 X634.9510 Y747.3554 I6.0039 J0.0000
G3 X634.2541 Y748.0523 I-0.4249 J0.2719
G2 X631.0178 Y747.1054 I-3.2363 J5.0570
G1 X627.4703 Y747.1054 Z-3.0400
G2 X624.2340 Y748.0523 I0.0000 J6.0039
G3 X623.5371 Y747.3554 I-0.2719 J-0.4250
G2 X624.4800 Y744.3365 I-5.0571 J-3.2363
G0 Z10.0000
G0 X624.4800 Y744.3365
G0 Z10.0000
G0 X626.8784 Y744.4235
G1 X626.8784 Y744.4235 Z-6.0800 F2000.
G2 X626.8840 Y744.1191 I-8.3984 J-0.3044 F3800.
G1 X626.8840 Y736.0657 Z-6.0800
G2 X626.8619 Y735.4573 I-8.4040 J0.0000
G2 X627.4703 Y735.4794 I0.6084 J-8.3819
G1 X631.0178 Y735.4794 Z-6.0800
G2 X631.6262 Y735.4573 I0.0000 J-8.4040
G2 X631.6042 Y736.0657 I8.3819 J0.6084
G1 X631.6042 Y744.1191 Z-6.0800
G2 X631.6262 Y744.7275 I8.4039 J0.0000
G2 X631.0178 Y744.7054 I-0.6084 J8.3818
G1 X627.4703 Y744.7054 Z-6.0800
G2 X626.8619 Y744.7275 I0.0000 J8.4039
G2 X626.8784 Y744.4235 I-8.3819 J-0.6084
G1 X624.4800 Y744.3365 Z-6.0800
G2 X624.4840 Y744.1191 I-6.0000 J-0.2174
G1 X624.4840 Y736.0657 Z-6.0800
G2 X623.5371 Y732.8294 I-6.0040 J0.0000
G3 X624.2340 Y732.1325 I0.4250 J-0.2719
G2 X627.4703 Y733.0794 I3.2363 J-5.0571
G1 X631.0178 Y733.0794 Z-6.0800
G2 X634.2541 Y732.1325 I0.0000 J-6.0040
G3 X634.9510 Y732.8294 I0.2720 J0.4250
G2 X634.0042 Y736.0657 I5.0571 J3.2363
G1 X634.0042 Y744.1191 Z-6.0800
G2 X634.9510 Y747.3554 I6.0039 J0.0000
G3 X634.2541 Y748.0523 I-0.4249 J0.2719
G2 X631.0178 Y747.1054 I-3.2363 J5.0570
G1 X627.4703 Y747.1054 Z-6.0800
G2 X624.2340 Y748.0523 I0.0000 J6.0039
G3 X623.5371 Y747.3554 I-0.2719 J-0.4250
G2 X624.4800 Y744.3365 I-5.0571 J-3.2363
G0 Z10.0000
G0 X624.4800 Y744.3365
G0 Z10.0000
G0 X626.8784 Y744.4235
G1 X626.8784 Y744.4235 Z-9.1200 F2000.
G2 X626.8840 Y744.1191 I-8.3984 J-0.3044 F3800.
G1 X626.8840 Y736.0657 Z-9.1200
G2 X626.8619 Y735.4573 I-8.4040 J0.0000
G2 X627.4703 Y735.4794 I0.6084 J-8.3819
G1 X631.0178 Y735.4794 Z-9.1200
G2 X631.6262 Y735.4573 I0.0000 J-8.4040
G2 X631.6042 Y736.0657 I8.3819 J0.6084
G1 X631.6042 Y744.1191 Z-9.1200
G2 X631.6262 Y744.7275 I8.4039 J0.0000
G2 X631.0178 Y744.7054 I-0.6084 J8.3818
G1 X627.4703 Y744.7054 Z-9.1200
G2 X626.8619 Y744.7275 I0.0000 J8.4039
G2 X626.8784 Y744.4235 I-8.3819 J-0.6084
G1 X624.4800 Y744.3365 Z-9.1200
G2 X624.4840 Y744.1191 I-6.0000 J-0.2174
G1 X624.4840 Y736.0657 Z-9.1200
G2 X623.5371 Y732.8294 I-6.0040 J0.0000
G3 X624.2340 Y732.1325 I0.4250 J-0.2719
G2 X627.4703 Y733.0794 I3.2363 J-5.0571
G1 X631.0178 Y733.0794 Z-9.1200
G2 X634.2541 Y732.1325 I0.0000 J-6.0040
G3 X634.9510 Y732.8294 I0.2720 J0.4250
G2 X634.0042 Y736.0657 I5.0571 J3.2363
G1 X634.0042 Y744.1191 Z-9.1200
G2 X634.9510 Y747.3554 I6.0039 J0.0000
G3 X634.2541 Y748.0523 I-0.4249 J0.2719
G2 X631.0178 Y747.1054 I-3.2363 J5.0570
G1 X627.4703 Y747.1054 Z-9.1200
G2 X624.2340 Y748.0523 I0.0000 J6.0039
G3 X623.5371 Y747.3554 I-0.2719 J-0.4250
G2 X624.4800 Y744.3365 I-5.0571 J-3.2363
G0 Z10.0000
G0 X624.4800 Y744.3365
G0 Z10.0000
G0 X626.8784 Y744.4235
G1 X626.8784 Y744.4235 Z-12.1600 F2000.
G2 X626.8840 Y744.1191 I-8.3984 J-0.3044 F3800.
G1 X626.8840 Y736.0657 Z-12.1600
G2 X626.8619 Y735.4573 I-8.4040 J0.0000
G2 X627.4703 Y735.4794 I0.6084 J-8.3819
G1 X631.0178 Y735.4794 Z-12.1600
G2 X631.6262 Y735.4573 I0.0000 J-8.4040
G2 X631.6042 Y736.0657 I8.3819 J0.6084
G1 X631.6042 Y744.1191 Z-12.1600
G2 X631.6262 Y744.7275 I8.4039 J0.0000
G2 X631.0178 Y744.7054 I-0.6084 J8.3818
G1 X627.4703 Y744.7054 Z-12.1600
G2 X626.8619 Y744.7275 I0.0000 J8.4039
G2 X626.8784 Y744.4235 I-8.3819 J-0.6084
G1 X624.4800 Y744.3365 Z-12.1600
G2 X624.4840 Y744.1191 I-6.0000 J-0.2174
G1 X624.4840 Y736.0657 Z-12.1600
G2 X623.5371 Y732.8294 I-6.0040 J0.0000
G3 X624.2340 Y732.1325 I0.4250 J-0.2719
G2 X627.4703 Y733.0794 I3.2363 J-5.0571
G1 X631.0178 Y733.0794 Z-12.1600
G2 X634.2541 Y732.1325 I0.0000 J-6.0040
G3 X634.9510 Y732.8294 I0.2720 J0.4250
G2 X634.0042 Y736.0657 I5.0571 J3.2363
G1 X634.0042 Y744.1191 Z-12.1600
G2 X634.9510 Y747.3554 I6.0039 J0.0000
G3 X634.2541 Y748.0523 I-0.4249 J0.2719
G2 X631.0178 Y747.1054 I-3.2363 J5.0570
G1 X627.4703 Y747.1054 Z-12.1600
G2 X624.2340 Y748.0523 I0.0000 J6.0039
G3 X623.5371 Y747.3554 I-0.2719 J-0.4250
G2 X624.4800 Y744.3365 I-5.0571 J-3.2363
G0 Z10.0000
G0 X624.4800 Y744.3365
G0 Z10.0000
G0 X626.8784 Y744.4235
G1 X626.8784 Y744.4235 Z-15.2000 F2000.
G2 X626.8840 Y744.1191 I-8.3984 J-0.3044 F3800.
G1 X626.8840 Y736.0657 Z-15.2000
G2 X626.8619 Y735.4573 I-8.4040 J0.0000
G2 X627.4703 Y735.4794 I0.6084 J-8.3819
G1 X631.0178 Y735.4794 Z-15.2000
G2 X631.6262 Y735.4573 I0.0000 J-8.4040
G2 X631.6042 Y736.0657 I8.3819 J0.6084
G1 X631.6042 Y744.1191 Z-15.2000
G2 X631.6262 Y744.7275 I8.4039 J0.0000
G2 X631.0178 Y744.7054 I-0.6084 J8.3818
G1 X627.4703 Y744.7054 Z-15.2000
G2 X626.8619 Y744.7275 I0.0000 J8.4039
G2 X626.8784 Y744.4235 I-8.3819 J-0.6084
G1 X624.4800 Y744.3365 Z-15.2000
G2 X624.4840 Y744.1191 I-6.0000 J-0.2174
G1 X624.4840 Y736.0657 Z-15.2000
G2 X623.5371 Y732.8294 I-6.0040 J0.0000
G3 X624.2340 Y732.1325 I0.4250 J-0.2719
G2 X627.4703 Y733.0794 I3.2363 J-5.0571
G1 X631.0178 Y733.0794 Z-15.2000
G2 X634.2541 Y732.1325 I0.0000 J-6.0040
G3 X634.9510 Y732.8294 I0.2720 J0.4250
G2 X634.0042 Y736.0657 I5.0571 J3.2363
G1 X634.0042 Y744.1191 Z-15.2000
G2 X634.9510 Y747.3554 I6.0039 J0.0000
G3 X634.2541 Y748.0523 I-0.4249 J0.2719
G2 X631.0178 Y747.1054 I-3.2363 J5.0570
G1 X627.4703 Y747.1054 Z-15.2000
G2 X624.2340 Y748.0523 I0.0000 J6.0039
G3 X623.5371 Y747.3554 I-0.2719 J-0.4250
G2 X624.4800 Y744.3365 I-5.0571 J-3.2363
G1 X625.4455 Y744.7758 Z-14.1393 F2000.
G1 X625.4455 Y744.7758 Z-13.5393
G0 Z10.0000
G0 X625.4455 Y744.7758
G0 Z10.0000
G0 X853.8155 Y741.6297
G1 X853.8155 Y741.6297 Z-1.8400 F2000.
G1 X853.8155 Y741.6297 Z-2.4400
G1 X853.8155 Y744.1191 Z-2.8789
G1 X853.8156 Y744.1597 Z-2.8861
G1 X853.8159 Y744.2003 Z-2.8933
G1 X853.8164 Y744.2409 Z-2.9004
G1 X853.8171 Y744.2815 Z-2.9076
G1 X853.8179 Y744.3220 Z-2.9147
G1 X853.8190 Y744.3626 Z-2.9219
G1 X853.8203 Y744.4032 Z-2.9291
G1 X853.8218 Y744.4438 Z-2.9362
G1 X853.8234 Y744.4843 Z-2.9434
G1 X853.8253 Y744.5249 Z-2.9505
G1 X853.8273 Y744.5654 Z-2.9577
G1 X853.8296 Y744.6060 Z-2.9648
G1 X853.8321 Y744.6465 Z-2.9720
G1 X853.8347 Y744.6870 Z-2.9792
G1 X853.8375 Y744.7275 Z-2.9863
G1 X853.8173 Y744.7260 Z-2.9899
G1 X853.7970 Y744.7246 Z-2.9935
G1 X853.7768 Y744.7233 Z-2.9971
G1 X853.7565 Y744.7220 Z-3.0006
G1 X853.7363 Y744.7207 Z-3.0042
G1 X853.7160 Y744.7195 Z-3.0078
G1 X853.6957 Y744.7184 Z-3.0114
G1 X853.6755 Y744.7173 Z-3.0149
G1 X853.6552 Y744.7162 Z-3.0185
G1 X853.6349 Y744.7152 Z-3.0221
G1 X853.6147 Y744.7143 Z-3.0257
G1 X853.5944 Y744.7134 Z-3.0293
G1 X853.5741 Y744.7125 Z-3.0328
G1 X853.5538 Y744.7117 Z-3.0364
G1 X853.5335 Y744.7109 Z-3.0400
G2 X853.2291 Y744.7054 I-0.3044 J8.3984 F3800.
G1 X849.6816 Y744.7054 Z-3.0400
G2 X849.0732 Y744.7275 I0.0000 J8.4039
G2 X849.0953 Y744.1191 I-8.3818 J-0.6084
G1 X849.0953 Y736.0657 Z-3.0400
G2 X849.0732 Y735.4573 I-8.4039 J0.0000
G2 X849.6816 Y735.4794 I0.6084 J-8.3819
G1 X853.2291 Y735.4794 Z-3.0400
G2 X853.8375 Y735.4573 I0.0000 J-8.4040
G2 X853.8155 Y736.0657 I8.3819 J0.6084
G1 X853.8155 Y744.1191 Z-3.0400
G2 X853.8375 Y744.7275 I8.4039 J0.0000
G2 X853.5335 Y744.7109 I-0.6084 J8.3818
G1 X853.4466 Y747.1094 Z-3.0400
G2 X853.2291 Y747.1054 I-0.2175 J5.9999
G1 X849.6816 Y747.1054 Z-3.0400
G2 X846.4454 Y748.0523 I0.0000 J6.0039
G3 X845.7484 Y747.3554 I-0.2720 J-0.4250
G2 X846.6953 Y744.1191 I-5.0570 J-3.2363
G1 X846.6953 Y736.0657 Z-3.0400
G2 X845.7484 Y732.8294 I-6.0039 J0.0000
G3 X846.4454 Y732.1325 I0.4250 J-0.2719
G2 X849.6816 Y733.0794 I3.2362 J-5.0571
G1 X853.2291 Y733.0794 Z-3.0400
G2 X856.4654 Y732.1325 I0.0000 J-6.0040
G3 X857.1624 Y732.8294 I0.2720 J0.4250
G2 X856.2155 Y736.0657 I5.0570 J3.2363
G1 X856.2155 Y744.1191 Z-3.0400
G2 X857.1624 Y747.3554 I6.0039 J0.0000
G3 X856.4654 Y748.0523 I-0.4250 J0.2719
G2 X853.4466 Y747.1094 I-3.2363 J5.0570
G0 Z10.0000
G0 X853.4466 Y747.1094
G0 Z10.0000
G0 X853.5335 Y744.7109
G1 X853.5335 Y744.7109 Z-6.0800 F2000.
G2 X853.2291 Y744.7054 I-0.3044 J8.3984 F3800.
G1 X849.6816 Y744.7054 Z-6.0800
G2 X849.0732 Y744.7275 I0.0000 J8.4039
G2 X849.0953 Y744.1191 I-8.3818 J-0.6084
G1 X849.0953 Y736.0657 Z-6.0800
G2 X849.0732 Y735.4573 I-8.4039 J0.0000
G2 X849.6816 Y735.4794 I0.6084 J-8.3819
G1 X853.2291 Y735.4794 Z-6.0800
G2 X853.8375 Y735.4573 I0.0000 J-8.4040
G2 X853.8155 Y736.0657 I8.3819 J0.6084
G1 X853.8155 Y744.1191 Z-6.0800
G2 X853.8375 Y744.7275 I8.4039 J0.0000
G2 X853.5335 Y744.7109 I-0.6084 J8.3818
G1 X853.4466 Y747.1094 Z-6.0800
G2 X853.2291 Y747.1054 I-0.2175 J5.9999
G1 X849.6816 Y747.1054 Z-6.0800
G2 X846.4454 Y748.0523 I0.0000 J6.0039
G3 X845.7484 Y747.3554 I-0.2720 J-0.4250
G2 X846.6953 Y744.1191 I-5.0570 J-3.2363
G1 X846.6953 Y736.0657 Z-6.0800
G2 X845.7484 Y732.8294 I-6.0039 J0.0000
G3 X846.4454 Y732.1325 I0.4250 J-0.2719
G2 X849.6816 Y733.0794 I3.2362 J-5.0571
G1 X853.2291 Y733.0794 Z-6.0800
G2 X856.4654 Y732.1325 I0.0000 J-6.0040
G3 X857.1624 Y732.8294 I0.2720 J0.4250
G2 X856.2155 Y736.0657 I5.0570 J3.2363
G1 X856.2155 Y744.1191 Z-6.0800
G2 X857.1624 Y747.3554 I6.0039 J0.0000
G3 X856.4654 Y748.0523 I-0.4250 J0.2719
G2 X853.4466 Y747.1094 I-3.2363 J5.0570
G0 Z10.0000
G0 X853.4466 Y747.1094
G0 Z10.0000
G0 X853.5335 Y744.7109
G1 X853.5335 Y744.7109 Z-9.1200 F2000.
G2 X853.2291 Y744.7054 I-0.3044 J8.3984 F3800.
G1 X849.6816 Y744.7054 Z-9.1200
G2 X849.0732 Y744.7275 I0.0000 J8.4039
G2 X849.0953 Y744.1191 I-8.3818 J-0.6084
G1 X849.0953 Y736.0657 Z-9.1200
G2 X849.0732 Y735.4573 I-8.4039 J0.0000
G2 X849.6816 Y735.4794 I0.6084 J-8.3819
G1 X853.2291 Y735.4794 Z-9.1200
G2 X853.8375 Y735.4573 I0.0000 J-8.4040
G2 X853.8155 Y736.0657 I8.3819 J0.6084
G1 X853.8155 Y744.1191 Z-9.1200
G2 X853.8375 Y744.7275 I8.4039 J0.0000
G2 X853.5335 Y744.7109 I-0.6084 J8.3818
G1 X853.4466 Y747.1094 Z-9.1200
G2 X853.2291 Y747.1054 I-0.2175 J5.9999
G1 X849.6816 Y747.1054 Z-9.1200
G2 X846.4454 Y748.0523 I0.0000 J6.0039
G3 X845.7484 Y747.3554 I-0.2720 J-0.4250
G2 X846.6953 Y744.1191 I-5.0570 J-3.2363
G1 X846.6953 Y736.0657 Z-9.1200
G2 X845.7484 Y732.8294 I-6.0039 J0.0000
G3 X846.4454 Y732.1325 I0.4250 J-0.2719
G2 X849.6816 Y733.0794 I3.2362 J-5.0571
G1 X853.2291 Y733.0794 Z-9.1200
G2 X856.4654 Y732.1325 I0.0000 J-6.0040
G3 X857.1624 Y732.8294 I0.2720 J0.4250
G2 X856.2155 Y736.0657 I5.0570 J3.2363
G1 X856.2155 Y744.1191 Z-9.1200
G2 X857.1624 Y747.3554 I6.0039 J0.0000
G3 X856.4654 Y748.0523 I-0.4250 J0.2719
G2 X853.4466 Y747.1094 I-3.2363 J5.0570
G0 Z10.0000
G0 X853.4466 Y747.1094
G0 Z10.0000
G0 X853.5335 Y744.7109
G1 X853.5335 Y744.7109 Z-12.1600 F2000.
G2 X853.2291 Y744.7054 I-0.3044 J8.3984 F3800.
G1 X849.6816 Y744.7054 Z-12.1600
G2 X849.0732 Y744.7275 I0.0000 J8.4039
G2 X849.0953 Y744.1191 I-8.3818 J-0.6084
G1 X849.0953 Y736.0657 Z-12.1600
G2 X849.0732 Y735.4573 I-8.4039 J0.0000
G2 X849.6816 Y735.4794 I0.6084 J-8.3819
G1 X853.2291 Y735.4794 Z-12.1600
G2 X853.8375 Y735.4573 I0.0000 J-8.4040
G2 X853.8155 Y736.0657 I8.3819 J0.6084
G1 X853.8155 Y744.1191 Z-12.1600
G2 X853.8375 Y744.7275 I8.4039 J0.0000
G2 X853.5335 Y744.7109 I-0.6084 J8.3818
G1 X853.4466 Y747.1094 Z-12.1600
G2 X853.2291 Y747.1054 I-0.2175 J5.9999
G1 X849.6816 Y747.1054 Z-12.1600
G2 X846.4454 Y748.0523 I0.0000 J6.0039
G3 X845.7484 Y747.3554 I-0.2720 J-0.4250
G2 X846.6953 Y744.1191 I-5.0570 J-3.2363
G1 X846.6953 Y736.0657 Z-12.1600
G2 X845.7484 Y732.8294 I-6.0039 J0.0000
G3 X846.4454 Y732.1325 I0.4250 J-0.2719
G2 X849.6816 Y733.0794 I3.2362 J-5.0571
G1 X853.2291 Y733.0794 Z-12.1600
G2 X856.4654 Y732.1325 I0.0000 J-6.0040
G3 X857.1624 Y732.8294 I0.2720 J0.4250
G2 X856.2155 Y736.0657 I5.0570 J3.2363
G1 X856.2155 Y744.1191 Z-12.1600
G2 X857.1624 Y747.3554 I6.0039 J0.0000
G3 X856.4654 Y748.0523 I-0.4250 J0.2719
G2 X853.4466 Y747.1094 I-3.2363 J5.0570
G0 Z10.0000
G0 X853.4466 Y747.1094
G0 Z10.0000
G0 X853.5335 Y744.7109
G1 X853.5335 Y744.7109 Z-15.2000 F2000.
G2 X853.2291 Y744.7054 I-0.3044 J8.3984 F3800.
G1 X849.6816 Y744.7054 Z-15.2000
G2 X849.0732 Y744.7275 I0.0000 J8.4039
G2 X849.0953 Y744.1191 I-8.3818 J-0.6084
G1 X849.0953 Y736.0657 Z-15.2000
G2 X849.0732 Y735.4573 I-8.4039 J0.0000
G2 X849.6816 Y735.4794 I0.6084 J-8.3819
G1 X853.2291 Y735.4794 Z-15.2000
G2 X853.8375 Y735.4573 I0.0000 J-8.4040
G2 X853.8155 Y736.0657 I8.3819 J0.6084
G1 X853.8155 Y744.1191 Z-15.2000
G2 X853.8375 Y744.7275 I8.4039 J0.0000
G2 X853.5335 Y744.7109 I-0.6084 J8.3818
G1 X853.4466 Y747.1094 Z-15.2000
G2 X853.2291 Y747.1054 I-0.2175 J5.9999
G1 X849.6816 Y747.1054 Z-15.2000
G2 X846.4454 Y748.0523 I0.0000 J6.0039
G3 X845.7484 Y747.3554 I-0.2720 J-0.4250
G2 X846.6953 Y744.1191 I-5.0570 J-3.2363
G1 X846.6953 Y736.0657 Z-15.2000
G2 X845.7484 Y732.8294 I-6.0039 J0.0000
G3 X846.4454 Y732.1325 I0.4250 J-0.2719
G2 X849.6816 Y733.0794 I3.2362 J-5.0571
G1 X853.2291 Y733.0794 Z-15.2000
G2 X856.4654 Y732.1325 I0.0000 J-6.0040
G3 X857.1624 Y732.8294 I0.2720 J0.4250
G2 X856.2155 Y736.0657 I5.0570 J3.2363
G1 X856.2155 Y744.1191 Z-15.2000
G2 X857.1624 Y747.3554 I6.0039 J0.0000
G3 X856.4654 Y748.0523 I-0.4250 J0.2719
G2 X853.4466 Y747.1094 I-3.2363 J5.0570
G1 X853.8858 Y746.1439 Z-14.1393 F2000.
G1 X853.8858 Y746.1439 Z-13.5393
G0 Z10.0000
G0 X853.8858 Y746.1439
G0 Z10.0000
G0 X1152.2411 Y857.6594
G1 X1152.2411 Y857.6594 Z-1.8400 F2000.
G1 X1152.2411 Y857.6594 Z-2.4400
G1 X1155.4438 Y857.6594 Z-3.0047
G1 X1155.4439 Y857.8595 Z-3.0400
G1 X1155.4441 Y858.0595 Z-3.0400 F3800.
G1 X1121.4321 Y858.0621 Z-3.0400
G1 X1121.4321 Y857.6594 Z-3.0400
G1 X1155.4438 Y857.6594 Z-3.0400
G1 X1155.4439 Y857.8595 Z-3.0400
G1 X1157.8439 Y857.8577 Z-3.0400
G2 X1157.8566 Y860.4946 I104.5993 J0.8149
G1 X1157.3011 Y860.4594 Z-3.0400
G1 X1119.8497 Y860.4622 Z-3.0400
G1 X1119.2066 Y860.4736 Z-3.0400
G1 X1119.0312 Y860.4705 Z-3.0400
G2 X1119.0321 Y856.1451 I-32.9411 J-2.1696
G1 X1118.9980 Y855.2276 Z-3.0400
G1 X1119.5734 Y855.2594 Z-3.0400
G1 X1156.9567 Y855.2594 Z-3.0400
G1 X1157.8792 Y855.2244 Z-3.0400
G1 X1157.8424 Y855.8007 Z-3.0400
G1 X1157.8439 Y857.8577 Z-3.0400
G1 X1160.2424 Y857.8577 Z-3.0400
G1 X1160.2424 Y859.5737 Z-3.0400
G2 X1160.9089 Y862.1961 I5.5811 J-0.0226
G1 X1161.0946 Y862.4862 Z-3.0400
G1 X1161.1597 Y862.5880 Z-3.0400
G3 X1160.9746 Y863.5916 I-0.7891 J0.3734
G3 X1159.8692 Y863.7116 I-0.6272 J-0.6272
G2 X1157.3011 Y862.8594 I-2.9893 J4.7131
G1 X1119.9178 Y862.8594 Z-3.0400
G2 X1117.2954 Y863.5259 I0.0226 J5.5811
G1 X1116.9035 Y863.7767 Z-3.0400
G3 X1115.8999 Y863.5916 I-0.3734 J-0.7892
G3 X1115.7148 Y862.5880 I0.6489 J-0.6385
G1 X1115.9656 Y862.1961 Z-3.0400
G2 X1116.6321 Y859.5737 I-4.5801 J-2.5600
G1 X1116.6321 Y856.1451 Z-3.0400
G2 X1115.7799 Y853.2326 I-5.4032 J0.0000
G1 X1115.7799 Y853.2326 Z-3.0400
G3 X1115.8144 Y852.2127 I0.7708 J-0.4845
G1 X1115.9854 Y852.0417 Z-3.0400
G3 X1116.9035 Y851.9421 I0.5417 J0.7127
G1 X1117.2954 Y852.1929 Z-3.0400
G2 X1119.5734 Y852.8594 I2.6224 J-4.7367
G1 X1156.9567 Y852.8594 Z-3.0400
G2 X1159.8692 Y852.0072 I0.0000 J-5.4032
G3 X1160.8891 Y852.0417 I0.4845 J0.7708
G1 X1161.0601 Y852.2127 Z-3.0400
G3 X1161.0946 Y853.2326 I-0.6907 J0.5338
G1 X1161.0946 Y853.2326 Z-3.0400
G2 X1160.2424 Y855.8007 I4.7131 J2.9893
G1 X1160.2424 Y857.8577 Z-3.0400
G0 Z10.0000
G0 X1160.2424 Y857.8577
G0 Z10.0000
G0 X1155.4439 Y857.8595
G1 X1155.4439 Y857.8595 Z-6.0800 F2000.
G1 X1155.4441 Y858.0595 Z-6.0800 F3800.
G1 X1121.4321 Y858.0621 Z-6.0800
G1 X1121.4321 Y857.6594 Z-6.0800
G1 X1155.4438 Y857.6594 Z-6.0800
G1 X1155.4439 Y857.8595 Z-6.0800
G1 X1157.8439 Y857.8577 Z-6.0800
G2 X1157.8566 Y860.4946 I104.5993 J0.8149
G1 X1157.3011 Y860.4594 Z-6.0800
G1 X1119.8497 Y860.4622 Z-6.0800
G1 X1119.2066 Y860.4736 Z-6.0800
G1 X1119.0312 Y860.4705 Z-6.0800
G2 X1119.0321 Y856.1451 I-32.9411 J-2.1696
G1 X1118.9980 Y855.2276 Z-6.0800
G1 X1119.5734 Y855.2594 Z-6.0800
G1 X1156.9567 Y855.2594 Z-6.0800
G1 X1157.8792 Y855.2244 Z-6.0800
G1 X1157.8424 Y855.8007 Z-6.0800
G1 X1157.8439 Y857.8577 Z-6.0800
G1 X1160.2424 Y857.8577 Z-6.0800
G1 X1160.2424 Y859.5737 Z-6.0800
G2 X1160.9089 Y862.1961 I5.5811 J-0.0226
G1 X1161.0946 Y862.4862 Z-6.0800
G1 X1161.1597 Y862.5880 Z-6.0800
G3 X1160.9746 Y863.5916 I-0.7891 J0.3734
G3 X1159.8692 Y863.7116 I-0.6272 J-0.6272
G2 X1157.3011 Y862.8594 I-2.9893 J4.7131
G1 X1119.9178 Y862.8594 Z-6.0800
G2 X1117.2954 Y863.5259 I0.0226 J5.5811
G1 X1116.9035 Y863.7767 Z-6.0800
G3 X1115.8999 Y863.5916 I-0.3734 J-0.7892
G3 X1115.7148 Y862.5880 I0.6489 J-0.6385
G1 X1115.9656 Y862.1961 Z-6.0800
G2 X1116.6321 Y859.5737 I-4.5801 J-2.5600
G1 X1116.6321 Y856.1451 Z-6.0800
G2 X1115.7799 Y853.2326 I-5.4032 J0.0000
G1 X1115.7799 Y853.2326 Z-6.0800
G3 X1115.8144 Y852.2127 I0.7708 J-0.4845
G1 X1115.9854 Y852.0417 Z-6.0800
G3 X1116.9035 Y851.9421 I0.5417 J0.7127
G1 X1117.2954 Y852.1929 Z-6.0800
G2 X1119.5734 Y852.8594 I2.6224 J-4.7367
G1 X1156.9567 Y852.8594 Z-6.0800
G2 X1159.8692 Y852.0072 I0.0000 J-5.4032
G3 X1160.8891 Y852.0417 I0.4845 J0.7708
G1 X1161.0601 Y852.2127 Z-6.0800
G3 X1161.0946 Y853.2326 I-0.6907 J0.5338
G1 X1161.0946 Y853.2326 Z-6.0800
G2 X1160.2424 Y855.8007 I4.7131 J2.9893
G1 X1160.2424 Y857.8577 Z-6.0800
G0 Z10.0000
G0 X1160.2424 Y857.8577
G0 Z10.0000
G0 X1155.4439 Y857.8595
G1 X1155.4439 Y857.8595 Z-9.1200 F2000.
G1 X1155.4441 Y858.0595 Z-9.1200 F3800.
G1 X1121.4321 Y858.0621 Z-9.1200
G1 X1121.4321 Y857.6594 Z-9.1200
G1 X1155.4438 Y857.6594 Z-9.1200
G1 X1155.4439 Y857.8595 Z-9.1200
G1 X1157.8439 Y857.8577 Z-9.1200
G2 X1157.8566 Y860.4946 I104.5993 J0.8149
G1 X1157.3011 Y860.4594 Z-9.1200
G1 X1119.8497 Y860.4622 Z-9.1200
G1 X1119.2066 Y860.4736 Z-9.1200
G1 X1119.0312 Y860.4705 Z-9.1200
G2 X1119.0321 Y856.1451 I-32.9411 J-2.1696
G1 X1118.9980 Y855.2276 Z-9.1200
G1 X1119.5734 Y855.2594 Z-9.1200
G1 X1156.9567 Y855.2594 Z-9.1200
G1 X1157.8792 Y855.2244 Z-9.1200
G1 X1157.8424 Y855.8007 Z-9.1200
G1 X1157.8439 Y857.8577 Z-9.1200
G1 X1160.2424 Y857.8577 Z-9.1200
G1 X1160.2424 Y859.5737 Z-9.1200
G2 X1160.9089 Y862.1961 I5.5811 J-0.0226
G1 X1161.0946 Y862.4862 Z-9.1200
G1 X1161.1597 Y862.5880 Z-9.1200
G3 X1160.9746 Y863.5916 I-0.7891 J0.3734
G3 X1159.8692 Y863.7116 I-0.6272 J-0.6272
G2 X1157.3011 Y862.8594 I-2.9893 J4.7131
G1 X1119.9178 Y862.8594 Z-9.1200
G2 X1117.2954 Y863.5259 I0.0226 J5.5811
G1 X1116.9035 Y863.7767 Z-9.1200
G3 X1115.8999 Y863.5916 I-0.3734 J-0.7892
G3 X1115.7148 Y862.5880 I0.6489 J-0.6385
G1 X1115.9656 Y862.1961 Z-9.1200
G2 X1116.6321 Y859.5737 I-4.5801 J-2.5600
G1 X1116.6321 Y856.1451 Z-9.1200
G2 X1115.7799 Y853.2326 I-5.4032 J0.0000
G1 X1115.7799 Y853.2326 Z-9.1200
G3 X1115.8144 Y852.2127 I0.7708 J-0.4845
G1 X1115.9854 Y852.0417 Z-9.1200
G3 X1116.9035 Y851.9421 I0.5417 J0.7127
G1 X1117.2954 Y852.1929 Z-9.1200
G2 X1119.5734 Y852.8594 I2.6224 J-4.7367
G1 X1156.9567 Y852.8594 Z-9.1200
G2 X1159.8692 Y852.0072 I0.0000 J-5.4032
G3 X1160.8891 Y852.0417 I0.4845 J0.7708
G1 X1161.0601 Y852.2127 Z-9.1200
G3 X1161.0946 Y853.2326 I-0.6907 J0.5338
G1 X1161.0946 Y853.2326 Z-9.1200
G2 X1160.2424 Y855.8007 I4.7131 J2.9893
G1 X1160.2424 Y857.8577 Z-9.1200
G0 Z10.0000
G0 X1160.2424 Y857.8577
G0 Z10.0000
G0 X1155.4439 Y857.8595
G1 X1155.4439 Y857.8595 Z-12.1600 F2000.
G1 X1155.4441 Y858.0595 Z-12.1600 F3800.
G1 X1121.4321 Y858.0621 Z-12.1600
G1 X1121.4321 Y857.6594 Z-12.1600
G1 X1155.4438 Y857.6594 Z-12.1600
G1 X1155.4439 Y857.8595 Z-12.1600
G1 X1157.8439 Y857.8577 Z-12.1600
G2 X1157.8566 Y860.4946 I104.5993 J0.8149
G1 X1157.3011 Y860.4594 Z-12.1600
G1 X1119.8497 Y860.4622 Z-12.1600
G1 X1119.2066 Y860.4736 Z-12.1600
G1 X1119.0312 Y860.4705 Z-12.1600
G2 X1119.0321 Y856.1451 I-32.9411 J-2.1696
G1 X1118.9980 Y855.2276 Z-12.1600
G1 X1119.5734 Y855.2594 Z-12.1600
G1 X1156.9567 Y855.2594 Z-12.1600
G1 X1157.8792 Y855.2244 Z-12.1600
G1 X1157.8424 Y855.8007 Z-12.1600
G1 X1157.8439 Y857.8577 Z-12.1600
G1 X1160.2424 Y857.8577 Z-12.1600
G1 X1160.2424 Y859.5737 Z-12.1600
G2 X1160.9089 Y862.1961 I5.5811 J-0.0226
G1 X1161.0946 Y862.4862 Z-12.1600
G1 X1161.1597 Y862.5880 Z-12.1600
G3 X1160.9746 Y863.5916 I-0.7891 J0.3734
G3 X1159.8692 Y863.7116 I-0.6272 J-0.6272
G2 X1157.3011 Y862.8594 I-2.9893 J4.7131
G1 X1119.9178 Y862.8594 Z-12.1600
G2 X1117.2954 Y863.5259 I0.0226 J5.5811
G1 X1116.9035 Y863.7767 Z-12.1600
G3 X1115.8999 Y863.5916 I-0.3734 J-0.7892
G3 X1115.7148 Y862.5880 I0.6489 J-0.6385
G1 X1115.9656 Y862.1961 Z-12.1600
G2 X1116.6321 Y859.5737 I-4.5801 J-2.5600
G1 X1116.6321 Y856.1451 Z-12.1600
G2 X1115.7799 Y853.2326 I-5.4032 J0.0000
G1 X1115.7799 Y853.2326 Z-12.1600
G3 X1115.8144 Y852.2127 I0.7708 J-0.4845
G1 X1115.9854 Y852.0417 Z-12.1600
G3 X1116.9035 Y851.9421 I0.5417 J0.7127
G1 X1117.2954 Y852.1929 Z-12.1600
G2 X1119.5734 Y852.8594 I2.6224 J-4.7367
G1 X1156.9567 Y852.8594 Z-12.1600
G2 X1159.8692 Y852.0072 I0.0000 J-5.4032
G3 X1160.8891 Y852.0417 I0.4845 J0.7708
G1 X1161.0601 Y852.2127 Z-12.1600
G3 X1161.0946 Y853.2326 I-0.6907 J0.5338
G1 X1161.0946 Y853.2326 Z-12.1600
G2 X1160.2424 Y855.8007 I4.7131 J2.9893
G1 X1160.2424 Y857.8577 Z-12.1600
G0 Z10.0000
G0 X1160.2424 Y857.8577
G0 Z10.0000
G0 X1155.4439 Y857.8595
G1 X1155.4439 Y857.8595 Z-15.2000 F2000.
G1 X1155.4441 Y858.0595 Z-15.2000 F3800.
G1 X1121.4321 Y858.0621 Z-15.2000
G1 X1121.4321 Y857.6594 Z-15.2000
G1 X1155.4438 Y857.6594 Z-15.2000
G1 X1155.4439 Y857.8595 Z-15.2000
G1 X1157.8439 Y857.8577 Z-15.2000
G2 X1157.8566 Y860.4946 I104.5993 J0.8149
G1 X1157.3011 Y860.4594 Z-15.2000
G1 X1119.8497 Y860.4622 Z-15.2000
G1 X1119.2066 Y860.4736 Z-15.2000
G1 X1119.0312 Y860.4705 Z-15.2000
G2 X1119.0321 Y856.1451 I-32.9411 J-2.1696
G1 X1118.9980 Y855.2276 Z-15.2000
G1 X1119.5734 Y855.2594 Z-15.2000
G1 X1156.9567 Y855.2594 Z-15.2000
G1 X1157.8792 Y855.2244 Z-15.2000
G1 X1157.8424 Y855.8007 Z-15.2000
G1 X1157.8439 Y857.8577 Z-15.2000
G1 X1160.2424 Y857.8577 Z-15.2000
G1 X1160.2424 Y859.5737 Z-15.2000
G2 X1160.9089 Y862.1961 I5.5811 J-0.0226
G1 X1161.0946 Y862.4862 Z-15.2000
G1 X1161.1597 Y862.5880 Z-15.2000
G3 X1160.9746 Y863.5916 I-0.7891 J0.3734
G3 X1159.8692 Y863.7116 I-0.6272 J-0.6272
G2 X1157.3011 Y862.8594 I-2.9893 J4.7131
G1 X1119.9178 Y862.8594 Z-15.2000
G2 X1117.2954 Y863.5259 I0.0226 J5.5811
G1 X1116.9035 Y863.7767 Z-15.2000
G3 X1115.8999 Y863.5916 I-0.3734 J-0.7892
G3 X1115.7148 Y862.5880 I0.6489 J-0.6385
G1 X1115.9656 Y862.1961 Z-15.2000
G2 X1116.6321 Y859.5737 I-4.5801 J-2.5600
G1 X1116.6321 Y856.1451 Z-15.2000
G2 X1115.7799 Y853.2326 I-5.4032 J0.0000
G1 X1115.7799 Y853.2326 Z-15.2000
G3 X1115.8144 Y852.2127 I0.7708 J-0.4845
G1 X1115.9854 Y852.0417 Z-15.2000
G3 X1116.9035 Y851.9421 I0.5417 J0.7127
G1 X1117.2954 Y852.1929 Z-15.2000
G2 X1119.5734 Y852.8594 I2.6224 J-4.7367
G1 X1156.9567 Y852.8594 Z-15.2000
G2 X1159.8692 Y852.0072 I0.0000 J-5.4032
G3 X1160.8891 Y852.0417 I0.4845 J0.7708
G1 X1161.0601 Y852.2127 Z-15.2000
G3 X1161.0946 Y853.2326 I-0.6907 J0.5338
G1 X1161.0946 Y853.2326 Z-15.2000
G2 X1160.2424 Y855.8007 I4.7131 J2.9893
G1 X1160.2424 Y857.8577 Z-15.2000
G1 X1159.1817 Y857.8577 Z-14.1393 F2000.
G1 X1159.1817 Y857.8577 Z-13.5393
G0 Z10.0000
G0 X1159.1817 Y857.8577
G0 Z10.0000
G0 X1377.6047 Y866.3748
G1 X1377.6047 Y866.3748 Z-1.8400 F2000.
G1 X1377.6047 Y866.3748 Z-2.4400
G1 X1374.4033 Y866.3751 Z-3.0045
G1 X1374.4032 Y866.1737 Z-3.0400
G1 X1374.4030 Y865.9723 Z-3.0400 F3800.
G1 X1408.4151 Y865.9723 Z-3.0400
G1 X1408.4151 Y866.3725 Z-3.0400
G1 X1374.4033 Y866.3751 Z-3.0400
G1 X1374.4032 Y866.1737 Z-3.0400
G1 X1372.0032 Y866.1754 Z-3.0400
G2 X1371.9910 Y863.5418 I-108.0900 J-0.8165
G1 X1372.5461 Y863.5723 Z-3.0400
G1 X1409.9294 Y863.5723 Z-3.0400
G1 X1410.8518 Y863.5373 Z-3.0400
G2 X1410.8492 Y868.8041 I37.0447 J2.6519
G1 X1410.5395 Y868.7776 Z-3.0400
G1 X1410.2737 Y868.7723 Z-3.0400
G1 X1372.8203 Y868.7752 Z-3.0400
G1 X1372.0946 Y868.7879 Z-3.0400
G1 X1371.9736 Y868.7862 Z-3.0400
G1 X1372.0048 Y868.4008 Z-3.0400
G1 X1372.0032 Y866.1754 Z-3.0400
G1 X1369.6048 Y866.1754 Z-3.0400
G1 X1369.6048 Y864.4580 Z-3.0400
G2 X1368.9382 Y861.8356 I-5.5812 J0.0226
G1 X1368.6874 Y861.4437 Z-3.0400
G3 X1368.7870 Y860.5256 I0.8124 J-0.3763
G1 X1368.9580 Y860.3546 Z-3.0400
G3 X1369.8761 Y860.2550 I0.5418 J0.7128
G1 X1370.2680 Y860.5058 Z-3.0400
G2 X1372.5461 Y861.1723 I2.6225 J-4.7367
G1 X1409.9294 Y861.1723 Z-3.0400
G2 X1412.8419 Y860.3202 I0.0000 J-5.4032
G3 X1413.8618 Y860.3546 I0.4845 J0.7707
G1 X1414.0328 Y860.5256 Z-3.0400
G3 X1414.0672 Y861.5455 I-0.6908 J0.5338
G2 X1413.2151 Y864.1137 I4.7132 J2.9894
G1 X1413.2151 Y867.8866 Z-3.0400
G2 X1414.0672 Y870.7991 I5.4032 J0.0000
G3 X1413.9473 Y871.9045 I-0.7472 J0.4782
G3 X1412.9437 Y872.0896 I-0.6385 J-0.6488
G1 X1412.5518 Y871.8389 Z-3.0400
G2 X1410.2737 Y871.1723 I-2.6224 J4.7366
G1 X1372.8905 Y871.1723 Z-3.0400
G2 X1370.2680 Y871.8389 I0.0226 J5.5812
G1 X1369.8761 Y872.0896 Z-3.0400
G3 X1368.9580 Y871.9900 I-0.3763 J-0.8123
G1 X1368.8725 Y871.9045 Z-3.0400
G1 X1368.7870 Y871.8191 Z-3.0400
G3 X1368.7447 Y870.8111 I0.6908 J-0.5339
G1 X1368.7526 Y870.7991 Z-3.0400
G2 X1369.6048 Y867.8866 I-4.5511 J-2.9125
G1 X1369.6048 Y866.1754 Z-3.0400
G0 Z10.0000
G0 X1369.6048 Y866.1754
G0 Z10.0000
G0 X1374.4032 Y866.1737
G1 X1374.4032 Y866.1737 Z-6.0800 F2000.
G1 X1374.4030 Y865.9723 Z-6.0800 F3800.
G1 X1408.4151 Y865.9723 Z-6.0800
G1 X1408.4151 Y866.3725 Z-6.0800
G1 X1374.4033 Y866.3751 Z-6.0800
G1 X1374.4032 Y866.1737 Z-6.0800
G1 X1372.0032 Y866.1754 Z-6.0800
G2 X1371.9910 Y863.5418 I-108.0900 J-0.8165
G1 X1372.5461 Y863.5723 Z-6.0800
G1 X1409.9294 Y863.5723 Z-6.0800
G1 X1410.8518 Y863.5373 Z-6.0800
G2 X1410.8492 Y868.8041 I37.0447 J2.6519
G1 X1410.5395 Y868.7776 Z-6.0800
G1 X1410.2737 Y868.7723 Z-6.0800
G1 X1372.8203 Y868.7752 Z-6.0800
G1 X1372.0946 Y868.7879 Z-6.0800
G1 X1371.9736 Y868.7862 Z-6.0800
G1 X1372.0048 Y868.4008 Z-6.0800
G1 X1372.0032 Y866.1754 Z-6.0800
G1 X1369.6048 Y866.1754 Z-6.0800
G1 X1369.6048 Y864.4580 Z-6.0800
G2 X1368.9382 Y861.8356 I-5.5812 J0.0226
G1 X1368.6874 Y861.4437 Z-6.0800
G3 X1368.7870 Y860.5256 I0.8124 J-0.3763
G1 X1368.9580 Y860.3546 Z-6.0800
G3 X1369.8761 Y860.2550 I0.5418 J0.7128
G1 X1370.2680 Y860.5058 Z-6.0800
G2 X1372.5461 Y861.1723 I2.6225 J-4.7367
G1 X1409.9294 Y861.1723 Z-6.0800
G2 X1412.8419 Y860.3202 I0.0000 J-5.4032
G3 X1413.8618 Y860.3546 I0.4845 J0.7707
G1 X1414.0328 Y860.5256 Z-6.0800
G3 X1414.0672 Y861.5455 I-0.6908 J0.5338
G2 X1413.2151 Y864.1137 I4.7132 J2.9894
G1 X1413.2151 Y867.8866 Z-6.0800
G2 X1414.0672 Y870.7991 I5.4032 J0.0000
G3 X1413.9473 Y871.9045 I-0.7472 J0.4782
G3 X1412.9437 Y872.0896 I-0.6385 J-0.6488
G1 X1412.5518 Y871.8389 Z-6.0800
G2 X1410.2737 Y871.1723 I-2.6224 J4.7366
G1 X1372.8905 Y871.1723 Z-6.0800
G2 X1370.2680 Y871.8389 I0.0226 J5.5812
G1 X1369.8761 Y872.0896 Z-6.0800
G3 X1368.9580 Y871.9900 I-0.3763 J-0.8123
G1 X1368.8725 Y871.9045 Z-6.0800
G1 X1368.7870 Y871.8191 Z-6.0800
G3 X1368.7447 Y870.8111 I0.6908 J-0.5339
G1 X1368.7526 Y870.7991 Z-6.0800
G2 X1369.6048 Y867.8866 I-4.5511 J-2.9125
G1 X1369.6048 Y866.1754 Z-6.0800
G0 Z10.0000
G0 X1369.6048 Y866.1754
G0 Z10.0000
G0 X1374.4032 Y866.1737
G1 X1374.4032 Y866.1737 Z-9.1200 F2000.
G1 X1374.4030 Y865.9723 Z-9.1200 F3800.
G1 X1408.4151 Y865.9723 Z-9.1200
G1 X1408.4151 Y866.3725 Z-9.1200
G1 X1374.4033 Y866.3751 Z-9.1200
G1 X1374.4032 Y866.1737 Z-9.1200
G1 X1372.0032 Y866.1754 Z-9.1200
G2 X1371.9910 Y863.5418 I-108.0900 J-0.8165
G1 X1372.5461 Y863.5723 Z-9.1200
G1 X1409.9294 Y863.5723 Z-9.1200
G1 X1410.8518 Y863.5373 Z-9.1200
G2 X1410.8492 Y868.8041 I37.0447 J2.6519
G1 X1410.5395 Y868.7776 Z-9.1200
G1 X1410.2737 Y868.7723 Z-9.1200
G1 X1372.8203 Y868.7752 Z-9.1200
G1 X1372.0946 Y868.7879 Z-9.1200
G1 X1371.9736 Y868.7862 Z-9.1200
G1 X1372.0048 Y868.4008 Z-9.1200
G1 X1372.0032 Y866.1754 Z-9.1200
G1 X1369.6048 Y866.1754 Z-9.1200
G1 X1369.6048 Y864.4580 Z-9.1200
G2 X1368.9382 Y861.8356 I-5.5812 J0.0226
G1 X1368.6874 Y861.4437 Z-9.1200
G3 X1368.7870 Y860.5256 I0.8124 J-0.3763
G1 X1368.9580 Y860.3546 Z-9.1200
G3 X1369.8761 Y860.2550 I0.5418 J0.7128
G1 X1370.2680 Y860.5058 Z-9.1200
G2 X1372.5461 Y861.1723 I2.6225 J-4.7367
G1 X1409.9294 Y861.1723 Z-9.1200
G2 X1412.8419 Y860.3202 I0.0000 J-5.4032
G3 X1413.8618 Y860.3546 I0.4845 J0.7707
G1 X1414.0328 Y860.5256 Z-9.1200
G3 X1414.0672 Y861.5455 I-0.6908 J0.5338
G2 X1413.2151 Y864.1137 I4.7132 J2.9894
G1 X1413.2151 Y867.8866 Z-9.1200
G2 X1414.0672 Y870.7991 I5.4032 J0.0000
G3 X1413.9473 Y871.9045 I-0.7472 J0.4782
G3 X1412.9437 Y872.0896 I-0.6385 J-0.6488
G1 X1412.5518 Y871.8389 Z-9.1200
G2 X1410.2737 Y871.1723 I-2.6224 J4.7366
G1 X1372.8905 Y871.1723 Z-9.1200
G2 X1370.2680 Y871.8389 I0.0226 J5.5812
G1 X1369.8761 Y872.0896 Z-9.1200
G3 X1368.9580 Y871.9900 I-0.3763 J-0.8123
G1 X1368.8725 Y871.9045 Z-9.1200
G1 X1368.7870 Y871.8191 Z-9.1200
G3 X1368.7447 Y870.8111 I0.6908 J-0.5339
G1 X1368.7526 Y870.7991 Z-9.1200
G2 X1369.6048 Y867.8866 I-4.5511 J-2.9125
G1 X1369.6048 Y866.1754 Z-9.1200
G0 Z10.0000
G0 X1369.6048 Y866.1754
G0 Z10.0000
G0 X1374.4032 Y866.1737
G1 X1374.4032 Y866.1737 Z-12.1600 F2000.
G1 X1374.4030 Y865.9723 Z-12.1600 F3800.
G1 X1408.4151 Y865.9723 Z-12.1600
G1 X1408.4151 Y866.3725 Z-12.1600
G1 X1374.4033 Y866.3751 Z-12.1600
G1 X1374.4032 Y866.1737 Z-12.1600
G1 X1372.0032 Y866.1754 Z-12.1600
G2 X1371.9910 Y863.5418 I-108.0900 J-0.8165
G1 X1372.5461 Y863.5723 Z-12.1600
G1 X1409.9294 Y863.5723 Z-12.1600
G1 X1410.8518 Y863.5373 Z-12.1600
G2 X1410.8492 Y868.8041 I37.0447 J2.6519
G1 X1410.5395 Y868.7776 Z-12.1600
G1 X1410.2737 Y868.7723 Z-12.1600
G1 X1372.8203 Y868.7752 Z-12.1600
G1 X1372.0946 Y868.7879 Z-12.1600
G1 X1371.9736 Y868.7862 Z-12.1600
G1 X1372.0048 Y868.4008 Z-12.1600
G1 X1372.0032 Y866.1754 Z-12.1600
G1 X1369.6048 Y866.1754 Z-12.1600
G1 X1369.6048 Y864.4580 Z-12.1600
G2 X1368.9382 Y861.8356 I-5.5812 J0.0226
G1 X1368.6874 Y861.4437 Z-12.1600
G3 X1368.7870 Y860.5256 I0.8124 J-0.3763
G1 X1368.9580 Y860.3546 Z-12.1600
G3 X1369.8761 Y860.2550 I0.5418 J0.7128
G1 X1370.2680 Y860.5058 Z-12.1600
G2 X1372.5461 Y861.1723 I2.6225 J-4.7367
G1 X1409.9294 Y861.1723 Z-12.1600
G2 X1412.8419 Y860.3202 I0.0000 J-5.4032
G3 X1413.8618 Y860.3546 I0.4845 J0.7707
G1 X1414.0328 Y860.5256 Z-12.1600
G3 X1414.0672 Y861.5455 I-0.6908 J0.5338
G2 X1413.2151 Y864.1137 I4.7132 J2.9894
G1 X1413.2151 Y867.8866 Z-12.1600
G2 X1414.0672 Y870.7991 I5.4032 J0.0000
G3 X1413.9473 Y871.9045 I-0.7472 J0.4782
G3 X1412.9437 Y872.0896 I-0.6385 J-0.6488
G1 X1412.5518 Y871.8389 Z-12.1600
G2 X1410.2737 Y871.1723 I-2.6224 J4.7366
G1 X1372.8905 Y871.1723 Z-12.1600
G2 X1370.2680 Y871.8389 I0.0226 J5.5812
G1 X1369.8761 Y872.0896 Z-12.1600
G3 X1368.9580 Y871.9900 I-0.3763 J-0.8123
G1 X1368.8725 Y871.9045 Z-12.1600
G1 X1368.7870 Y871.8191 Z-12.1600
G3 X1368.7447 Y870.8111 I0.6908 J-0.5339
G1 X1368.7526 Y870.7991 Z-12.1600
G2 X1369.6048 Y867.8866 I-4.5511 J-2.9125
G1 X1369.6048 Y866.1754 Z-12.1600
G0 Z10.0000
G0 X1369.6048 Y866.1754
G0 Z10.0000
G0 X1374.4032 Y866.1737
G1 X1374.4032 Y866.1737 Z-15.2000 F2000.
G1 X1374.4030 Y865.9723 Z-15.2000 F3800.
G1 X1408.4151 Y865.9723 Z-15.2000
G1 X1408.4151 Y866.3725 Z-15.2000
G1 X1374.4033 Y866.3751 Z-15.2000
G1 X1374.4032 Y866.1737 Z-15.2000
G1 X1372.0032 Y866.1754 Z-15.2000
G2 X1371.9910 Y863.5418 I-108.0900 J-0.8165
G1 X1372.5461 Y863.5723 Z-15.2000
G1 X1409.9294 Y863.5723 Z-15.2000
G1 X1410.8518 Y863.5373 Z-15.2000
G2 X1410.8492 Y868.8041 I37.0447 J2.6519
G1 X1410.5395 Y868.7776 Z-15.2000
G1 X1410.2737 Y868.7723 Z-15.2000
G1 X1372.8203 Y868.7752 Z-15.2000
G1 X1372.0946 Y868.7879 Z-15.2000
G1 X1371.9736 Y868.7862 Z-15.2000
G1 X1372.0048 Y868.4008 Z-15.2000
G1 X1372.0032 Y866.1754 Z-15.2000
G1 X1369.6048 Y866.1754 Z-15.2000
G1 X1369.6048 Y864.4580 Z-15.2000
G2 X1368.9382 Y861.8356 I-5.5812 J0.0226
G1 X1368.6874 Y861.4437 Z-15.2000
G3 X1368.7870 Y860.5256 I0.8124 J-0.3763
G1 X1368.9580 Y860.3546 Z-15.2000
G3 X1369.8761 Y860.2550 I0.5418 J0.7128
G1 X1370.2680 Y860.5058 Z-15.2000
G2 X1372.5461 Y861.1723 I2.6225 J-4.7367
G1 X1409.9294 Y861.1723 Z-15.2000
G2 X1412.8419 Y860.3202 I0.0000 J-5.4032
G3 X1413.8618 Y860.3546 I0.4845 J0.7707
G1 X1414.0328 Y860.5256 Z-15.2000
G3 X1414.0672 Y861.5455 I-0.6908 J0.5338
G2 X1413.2151 Y864.1137 I4.7132 J2.9894
G1 X1413.2151 Y867.8866 Z-15.2000
G2 X1414.0672 Y870.7991 I5.4032 J0.0000
G3 X1413.9473 Y871.9045 I-0.7472 J0.4782
G3 X1412.9437 Y872.0896 I-0.6385 J-0.6488
G1 X1412.5518 Y871.8389 Z-15.2000
G2 X1410.2737 Y871.1723 I-2.6224 J4.7366
G1 X1372.8905 Y871.1723 Z-15.2000
G2 X1370.2680 Y871.8389 I0.0226 J5.5812
G1 X1369.8761 Y872.0896 Z-15.2000
G3 X1368.9580 Y871.9900 I-0.3763 J-0.8123
G1 X1368.8725 Y871.9045 Z-15.2000
G1 X1368.7870 Y871.8191 Z-15.2000
G3 X1368.7447 Y870.8111 I0.6908 J-0.5339
G1 X1368.7526 Y870.7991 Z-15.2000
G2 X1369.6048 Y867.8866 I-4.5511 J-2.9125
G1 X1369.6048 Y866.1754 Z-15.2000
G1 X1370.6654 Y866.1754 Z-14.1393 F2000.
G1 X1370.6654 Y866.1754 Z-13.5393
G0 Z10.0000
G0 X1370.6654 Y866.1754
G0 Z10.0000
G0 X1355.4182 Y464.8065
G1 X1355.4182 Y464.8065 Z-1.8400 F2000.
G1 X1355.4182 Y464.8065 Z-2.4400
G1 X1355.4182 Y468.2092 Z-3.0400
G3 X1354.9182 Y468.7092 I-0.5000 J0.0000 F3800.
G3 X1354.4182 Y468.2092 I0.0000 J-0.5000
G1 X1354.4182 Y194.2092 Z-3.0400
G3 X1355.4182 Y194.2092 I0.5000 J0.0000
G1 X1355.4182 Y468.2092 Z-3.0400
G1 X1355.4182 Y468.2092 Z-6.0800
G3 X1354.9182 Y468.7092 I-0.5000 J0.0000
G3 X1354.4182 Y468.2092 I0.0000 J-0.5000
G1 X1354.4182 Y194.2092 Z-6.0800
G3 X1355.4182 Y194.2092 I0.5000 J0.0000
G1 X1355.4182 Y468.2092 Z-6.0800
G1 X1355.4182 Y468.2092 Z-9.1200
G3 X1354.9182 Y468.7092 I-0.5000 J0.0000
G3 X1354.4182 Y468.2092 I0.0000 J-0.5000
G1 X1354.4182 Y194.2092 Z-9.1200
G3 X1355.4182 Y194.2092 I0.5000 J0.0000
G1 X1355.4182 Y468.2092 Z-9.1200
G1 X1355.4182 Y468.2092 Z-12.1600
G3 X1354.9182 Y468.7092 I-0.5000 J0.0000
G3 X1354.4182 Y468.2092 I0.0000 J-0.5000
G1 X1354.4182 Y194.2092 Z-12.1600
G3 X1355.4182 Y194.2092 I0.5000 J0.0000
G1 X1355.4182 Y468.2092 Z-12.1600
G1 X1355.4182 Y468.2092 Z-15.2000
G3 X1354.9182 Y468.7092 I-0.5000 J0.0000
G3 X1354.4182 Y468.2092 I0.0000 J-0.5000
G1 X1354.4182 Y194.2092 Z-15.2000
G3 X1355.4182 Y194.2092 I0.5000 J0.0000
G1 X1355.4182 Y468.2092 Z-15.2000
G1 X1354.4383 Y467.8033 Z-14.1393 F2000.
G1 X1354.4383 Y467.8033 Z-13.5393
G0 Z10.0000
G0 X1354.4383 Y467.8033
G0 Z10.0000
G0 X1180.4182 Y464.8065
G1 X1180.4182 Y464.8065 Z-1.8400 F2000.
G1 X1180.4182 Y464.8065 Z-2.4400
G1 X1180.4182 Y468.2092 Z-3.0400
G3 X1179.4182 Y468.2092 I-0.5000 J0.0000 F3800.
G1 X1179.4182 Y194.2092 Z-3.0400
G3 X1180.4182 Y194.2092 I0.5000 J0.0000
G1 X1180.4182 Y468.2092 Z-3.0400
G1 X1180.4182 Y468.2092 Z-6.0800
G3 X1179.4182 Y468.2092 I-0.5000 J0.0000
G1 X1179.4182 Y194.2092 Z-6.0800
G3 X1180.4182 Y194.2092 I0.5000 J0.0000
G1 X1180.4182 Y468.2092 Z-6.0800
G1 X1180.4182 Y468.2092 Z-9.1200
G3 X1179.4182 Y468.2092 I-0.5000 J0.0000
G1 X1179.4182 Y194.2092 Z-9.1200
G3 X1180.4182 Y194.2092 I0.5000 J0.0000
G1 X1180.4182 Y468.2092 Z-9.1200
G1 X1180.4182 Y468.2092 Z-12.1600
G3 X1179.4182 Y468.2092 I-0.5000 J0.0000
G1 X1179.4182 Y194.2092 Z-12.1600
G3 X1180.4182 Y194.2092 I0.5000 J0.0000
G1 X1180.4182 Y468.2092 Z-12.1600
G1 X1180.4182 Y468.2092 Z-15.2000
G3 X1179.4182 Y468.2092 I-0.5000 J0.0000
G1 X1179.4182 Y194.2092 Z-15.2000
G3 X1180.4182 Y194.2092 I0.5000 J0.0000
G1 X1180.4182 Y468.2092 Z-15.2000
G1 X1179.4383 Y467.8033 Z-14.1393 F2000.
G1 X1179.4383 Y467.8033 Z-13.5393
G0 Z10.0000
G0 X1179.4383 Y467.8033
G0 Z10.0000
G0 X1014.5761 Y338.6879
G1 X1014.5761 Y338.6879 Z-1.8400 F2000.
G1 X1014.5761 Y338.6879 Z-2.4400
G1 X1011.1733 Y338.6875 Z-3.0400
G1 X994.1670 Y338.6853 Z-3.0400 F3800.
G1 X994.1675 Y338.2851 Z-3.0400
G1 X1028.1797 Y338.2851 Z-3.0400
G1 X1028.1797 Y338.6897 Z-3.0400
G1 X1011.1733 Y338.6875 Z-3.0400
G1 X1011.1730 Y341.0875 Z-3.0400
G1 X992.6551 Y341.0851 Z-3.0400
G2 X991.7234 Y341.1409 I0.0000 J7.8032
G1 X991.7645 Y340.6964 Z-3.0400
G1 X991.7694 Y336.7708 Z-3.0400
G2 X991.7130 Y335.8347 I-7.8033 J0.0000
G2 X992.6680 Y335.8851 I0.8796 J-7.5962
G1 X1029.7037 Y335.8851 Z-3.0400
G2 X1030.6302 Y335.8273 I-0.0323 J-7.9811
G2 X1030.5797 Y336.7837 I7.5961 J0.8811
G1 X1030.5797 Y340.2091 Z-3.0400
G2 X1030.6369 Y341.1312 I7.9811 J-0.0323
G1 X1030.1910 Y341.0900 Z-3.0400
G1 X1011.1730 Y341.0875 Z-3.0400
G1 X1011.1730 Y343.4851 Z-3.0400
G1 X992.6551 Y343.4851 Z-3.0400
G2 X989.7426 Y344.3373 I0.0000 J5.4032
G3 X988.6371 Y344.2173 I-0.4782 J-0.7472
G3 X988.4520 Y343.2137 I0.6489 J-0.6385
G1 X988.7028 Y342.8218 Z-3.0400
G2 X989.3694 Y340.5438 I-4.7367 J-2.6224
G1 X989.3694 Y336.7708 Z-3.0400
G2 X988.5172 Y333.8583 I-5.4033 J0.0000
G1 X988.5172 Y333.8583 Z-3.0400
G3 X988.5516 Y332.8384 I0.7707 J-0.4845
G1 X988.7226 Y332.6674 Z-3.0400
G3 X989.6407 Y332.5678 I0.5418 J0.7127
G1 X990.0326 Y332.8186 Z-3.0400
G2 X992.6551 Y333.4851 I2.5600 J-4.5801
G1 X1029.6940 Y333.4851 Z-3.0400
G2 X1032.3164 Y332.8186 I-0.0226 J-5.5811
G1 X1032.7083 Y332.5678 Z-3.0400
G3 X1033.7119 Y332.7529 I0.3733 J0.7892
G3 X1033.8970 Y333.7565 I-0.6489 J0.6385
G1 X1033.6462 Y334.1484 Z-3.0400
G2 X1032.9797 Y336.7708 I4.5801 J2.5600
G1 X1032.9797 Y340.1994 Z-3.0400
G2 X1033.6462 Y342.8218 I5.5811 J-0.0226
G1 X1033.8318 Y343.1119 Z-3.0400
G1 X1033.8970 Y343.2137 Z-3.0400
G3 X1033.7974 Y344.1318 I-0.8124 J0.3764
G1 X1033.6264 Y344.3028 Z-3.0400
G3 X1032.7083 Y344.4024 I-0.5418 J-0.7127
G1 X1032.3164 Y344.1516 Z-3.0400
G2 X1030.0383 Y343.4851 I-2.6224 J4.7367
G1 X1011.1730 Y343.4851 Z-3.0400
G0 Z10.0000
G0 X1011.1730 Y343.4851
G0 Z10.0000
G0 X1011.1733 Y338.6875
G1 X1011.1733 Y338.6875 Z-6.0800 F2000.
G1 X994.1670 Y338.6853 Z-6.0800 F3800.
G1 X994.1675 Y338.2851 Z-6.0800
G1 X1028.1797 Y338.2851 Z-6.0800
G1 X1028.1797 Y338.6897 Z-6.0800
G1 X1011.1733 Y338.6875 Z-6.0800
G1 X1011.1730 Y341.0875 Z-6.0800
G1 X992.6551 Y341.0851 Z-6.0800
G2 X991.7234 Y341.1409 I0.0000 J7.8032
G1 X991.7645 Y340.6964 Z-6.0800
G1 X991.7694 Y336.7708 Z-6.0800
G2 X991.7130 Y335.8347 I-7.8033 J0.0000
G2 X992.6680 Y335.8851 I0.8796 J-7.5962
G1 X1029.7037 Y335.8851 Z-6.0800
G2 X1030.6302 Y335.8273 I-0.0323 J-7.9811
G2 X1030.5797 Y336.7837 I7.5961 J0.8811
G1 X1030.5797 Y340.2091 Z-6.0800
G2 X1030.6369 Y341.1312 I7.9811 J-0.0323
G1 X1030.1910 Y341.0900 Z-6.0800
G1 X1011.1730 Y341.0875 Z-6.0800
G1 X1011.1730 Y343.4851 Z-6.0800
G1 X992.6551 Y343.4851 Z-6.0800
G2 X989.7426 Y344.3373 I0.0000 J5.4032
G3 X988.6371 Y344.2173 I-0.4782 J-0.7472
G3 X988.4520 Y343.2137 I0.6489 J-0.6385
G1 X988.7028 Y342.8218 Z-6.0800
G2 X989.3694 Y340.5438 I-4.7367 J-2.6224
G1 X989.3694 Y336.7708 Z-6.0800
G2 X988.5172 Y333.8583 I-5.4033 J0.0000
G1 X988.5172 Y333.8583 Z-6.0800
G3 X988.5516 Y332.8384 I0.7707 J-0.4845
G1 X988.7226 Y332.6674 Z-6.0800
G3 X989.6407 Y332.5678 I0.5418 J0.7127
G1 X990.0326 Y332.8186 Z-6.0800
G2 X992.6551 Y333.4851 I2.5600 J-4.5801
G1 X1029.6940 Y333.4851 Z-6.0800
G2 X1032.3164 Y332.8186 I-0.0226 J-5.5811
G1 X1032.7083 Y332.5678 Z-6.0800
G3 X1033.7119 Y332.7529 I0.3733 J0.7892
G3 X1033.8970 Y333.7565 I-0.6489 J0.6385
G1 X1033.6462 Y334.1484 Z-6.0800
G2 X1032.9797 Y336.7708 I4.5801 J2.5600
G1 X1032.9797 Y340.1994 Z-6.0800
G2 X1033.6462 Y342.8218 I5.5811 J-0.0226
G1 X1033.8318 Y343.1119 Z-6.0800
G1 X1033.8970 Y343.2137 Z-6.0800
G3 X1033.7974 Y344.1318 I-0.8124 J0.3764
G1 X1033.6264 Y344.3028 Z-6.0800
G3 X1032.7083 Y344.4024 I-0.5418 J-0.7127
G1 X1032.3164 Y344.1516 Z-6.0800
G2 X1030.0383 Y343.4851 I-2.6224 J4.7367
G1 X1011.1730 Y343.4851 Z-6.0800
G0 Z10.0000
G0 X1011.1730 Y343.4851
G0 Z10.0000
G0 X1011.1733 Y338.6875
G1 X1011.1733 Y338.6875 Z-9.1200 F2000.
G1 X994.1670 Y338.6853 Z-9.1200 F3800.
G1 X994.1675 Y338.2851 Z-9.1200
G1 X1028.1797 Y338.2851 Z-9.1200
G1 X1028.1797 Y338.6897 Z-9.1200
G1 X1011.1733 Y338.6875 Z-9.1200
G1 X1011.1730 Y341.0875 Z-9.1200
G1 X992.6551 Y341.0851 Z-9.1200
G2 X991.7234 Y341.1409 I0.0000 J7.8032
G1 X991.7645 Y340.6964 Z-9.1200
G1 X991.7694 Y336.7708 Z-9.1200
G2 X991.7130 Y335.8347 I-7.8033 J0.0000
G2 X992.6680 Y335.8851 I0.8796 J-7.5962
G1 X1029.7037 Y335.8851 Z-9.1200
G2 X1030.6302 Y335.8273 I-0.0323 J-7.9811
G2 X1030.5797 Y336.7837 I7.5961 J0.8811
G1 X1030.5797 Y340.2091 Z-9.1200
G2 X1030.6369 Y341.1312 I7.9811 J-0.0323
G1 X1030.1910 Y341.0900 Z-9.1200
G1 X1011.1730 Y341.0875 Z-9.1200
G1 X1011.1730 Y343.4851 Z-9.1200
G1 X992.6551 Y343.4851 Z-9.1200
G2 X989.7426 Y344.3373 I0.0000 J5.4032
G3 X988.6371 Y344.2173 I-0.4782 J-0.7472
G3 X988.4520 Y343.2137 I0.6489 J-0.6385
G1 X988.7028 Y342.8218 Z-9.1200
G2 X989.3694 Y340.5438 I-4.7367 J-2.6224
G1 X989.3694 Y336.7708 Z-9.1200
G2 X988.5172 Y333.8583 I-5.4033 J0.0000
G1 X988.5172 Y333.8583 Z-9.1200
G3 X988.5516 Y332.8384 I0.7707 J-0.4845
G1 X988.7226 Y332.6674 Z-9.1200
G3 X989.6407 Y332.5678 I0.5418 J0.7127
G1 X990.0326 Y332.8186 Z-9.1200
G2 X992.6551 Y333.4851 I2.5600 J-4.5801
G1 X1029.6940 Y333.4851 Z-9.1200
G2 X1032.3164 Y332.8186 I-0.0226 J-5.5811
G1 X1032.7083 Y332.5678 Z-9.1200
G3 X1033.7119 Y332.7529 I0.3733 J0.7892
G3 X1033.8970 Y333.7565 I-0.6489 J0.6385
G1 X1033.6462 Y334.1484 Z-9.1200
G2 X1032.9797 Y336.7708 I4.5801 J2.5600
G1 X1032.9797 Y340.1994 Z-9.1200
G2 X1033.6462 Y342.8218 I5.5811 J-0.0226
G1 X1033.8318 Y343.1119 Z-9.1200
G1 X1033.8970 Y343.2137 Z-9.1200
G3 X1033.7974 Y344.1318 I-0.8124 J0.3764
G1 X1033.6264 Y344.3028 Z-9.1200
G3 X1032.7083 Y344.4024 I-0.5418 J-0.7127
G1 X1032.3164 Y344.1516 Z-9.1200
G2 X1030.0383 Y343.4851 I-2.6224 J4.7367
G1 X1011.1730 Y343.4851 Z-9.1200
G0 Z10.0000
G0 X1011.1730 Y343.4851
G0 Z10.0000
G0 X1011.1733 Y338.6875
G1 X1011.1733 Y338.6875 Z-12.1600 F2000.
G1 X994.1670 Y338.6853 Z-12.1600 F3800.
G1 X994.1675 Y338.2851 Z-12.1600
G1 X1028.1797 Y338.2851 Z-12.1600
G1 X1028.1797 Y338.6897 Z-12.1600
G1 X1011.1733 Y338.6875 Z-12.1600
G1 X1011.1730 Y341.0875 Z-12.1600
G1 X992.6551 Y341.0851 Z-12.1600
G2 X991.7234 Y341.1409 I0.0000 J7.8032
G1 X991.7645 Y340.6964 Z-12.1600
G1 X991.7694 Y336.7708 Z-12.1600
G2 X991.7130 Y335.8347 I-7.8033 J0.0000
G2 X992.6680 Y335.8851 I0.8796 J-7.5962
G1 X1029.7037 Y335.8851 Z-12.1600
G2 X1030.6302 Y335.8273 I-0.0323 J-7.9811
G2 X1030.5797 Y336.7837 I7.5961 J0.8811
G1 X1030.5797 Y340.2091 Z-12.1600
G2 X1030.6369 Y341.1312 I7.9811 J-0.0323
G1 X1030.1910 Y341.0900 Z-12.1600
G1 X1011.1730 Y341.0875 Z-12.1600
G1 X1011.1730 Y343.4851 Z-12.1600
G1 X992.6551 Y343.4851 Z-12.1600
G2 X989.7426 Y344.3373 I0.0000 J5.4032
G3 X988.6371 Y344.2173 I-0.4782 J-0.7472
G3 X988.4520 Y343.2137 I0.6489 J-0.6385
G1 X988.7028 Y342.8218 Z-12.1600
G2 X989.3694 Y340.5438 I-4.7367 J-2.6224
G1 X989.3694 Y336.7708 Z-12.1600
G2 X988.5172 Y333.8583 I-5.4033 J0.0000
G1 X988.5172 Y333.8583 Z-12.1600
G3 X988.5516 Y332.8384 I0.7707 J-0.4845
G1 X988.7226 Y332.6674 Z-12.1600
G3 X989.6407 Y332.5678 I0.5418 J0.7127
G1 X990.0326 Y332.8186 Z-12.1600
G2 X992.6551 Y333.4851 I2.5600 J-4.5801
G1 X1029.6940 Y333.4851 Z-12.1600
G2 X1032.3164 Y332.8186 I-0.0226 J-5.5811
G1 X1032.7083 Y332.5678 Z-12.1600
G3 X1033.7119 Y332.7529 I0.3733 J0.7892
G3 X1033.8970 Y333.7565 I-0.6489 J0.6385
G1 X1033.6462 Y334.1484 Z-12.1600
G2 X1032.9797 Y336.7708 I4.5801 J2.5600
G1 X1032.9797 Y340.1994 Z-12.1600
G2 X1033.6462 Y342.8218 I5.5811 J-0.0226
G1 X1033.8318 Y343.1119 Z-12.1600
G1 X1033.8970 Y343.2137 Z-12.1600
G3 X1033.7974 Y344.1318 I-0.8124 J0.3764
G1 X1033.6264 Y344.3028 Z-12.1600
G3 X1032.7083 Y344.4024 I-0.5418 J-0.7127
G1 X1032.3164 Y344.1516 Z-12.1600
G2 X1030.0383 Y343.4851 I-2.6224 J4.7367
G1 X1011.1730 Y343.4851 Z-12.1600
G0 Z10.0000
G0 X1011.1730 Y343.4851
G0 Z10.0000
G0 X1011.1733 Y338.6875
G1 X1011.1733 Y338.6875 Z-15.2000 F2000.
G1 X994.1670 Y338.6853 Z-15.2000 F3800.
G1 X994.1675 Y338.2851 Z-15.2000
G1 X1028.1797 Y338.2851 Z-15.2000
G1 X1028.1797 Y338.6897 Z-15.2000
G1 X1011.1733 Y338.6875 Z-15.2000
G1 X1011.1730 Y341.0875 Z-15.2000
G1 X992.6551 Y341.0851 Z-15.2000
G2 X991.7234 Y341.1409 I0.0000 J7.8032
G1 X991.7645 Y340.6964 Z-15.2000
G1 X991.7694 Y336.7708 Z-15.2000
G2 X991.7130 Y335.8347 I-7.8033 J0.0000
G2 X992.6680 Y335.8851 I0.8796 J-7.5962
G1 X1029.7037 Y335.8851 Z-15.2000
G2 X1030.6302 Y335.8273 I-0.0323 J-7.9811
G2 X1030.5797 Y336.7837 I7.5961 J0.8811
G1 X1030.5797 Y340.2091 Z-15.2000
G2 X1030.6369 Y341.1312 I7.9811 J-0.0323
G1 X1030.1910 Y341.0900 Z-15.2000
G1 X1011.1730 Y341.0875 Z-15.2000
G1 X1011.1730 Y343.4851 Z-15.2000
G1 X992.6551 Y343.4851 Z-15.2000
G2 X989.7426 Y344.3373 I0.0000 J5.4032
G3 X988.6371 Y344.2173 I-0.4782 J-0.7472
G3 X988.4520 Y343.2137 I0.6489 J-0.6385
G1 X988.7028 Y342.8218 Z-15.2000
G2 X989.3694 Y340.5438 I-4.7367 J-2.6224
G1 X989.3694 Y336.7708 Z-15.2000
G2 X988.5172 Y333.8583 I-5.4033 J0.0000
G1 X988.5172 Y333.8583 Z-15.2000
G3 X988.5516 Y332.8384 I0.7707 J-0.4845
G1 X988.7226 Y332.6674 Z-15.2000
G3 X989.6407 Y332.5678 I0.5418 J0.7127
G1 X990.0326 Y332.8186 Z-15.2000
G2 X992.6551 Y333.4851 I2.5600 J-4.5801
G1 X1029.6940 Y333.4851 Z-15.2000
G2 X1032.3164 Y332.8186 I-0.0226 J-5.5811
G1 X1032.7083 Y332.5678 Z-15.2000
G3 X1033.7119 Y332.7529 I0.3733 J0.7892
G3 X1033.8970 Y333.7565 I-0.6489 J0.6385
G1 X1033.6462 Y334.1484 Z-15.2000
G2 X1032.9797 Y336.7708 I4.5801 J2.5600
G1 X1032.9797 Y340.1994 Z-15.2000
G2 X1033.6462 Y342.8218 I5.5811 J-0.0226
G1 X1033.8318 Y343.1119 Z-15.2000
G1 X1033.8970 Y343.2137 Z-15.2000
G3 X1033.7974 Y344.1318 I-0.8124 J0.3764
G1 X1033.6264 Y344.3028 Z-15.2000
G3 X1032.7083 Y344.4024 I-0.5418 J-0.7127
G1 X1032.3164 Y344.1516 Z-15.2000
G2 X1030.0383 Y343.4851 I-2.6224 J4.7367
G1 X1011.1730 Y343.4851 Z-15.2000
G1 X1011.1730 Y342.4244 Z-14.1393 F2000.
G1 X1011.1730 Y342.4244 Z-13.5393
G0 Z10.0000
G0 X1011.1730 Y342.4244
G0 Z10.0000
G0 X1086.2637 Y76.2351
G1 X1086.2637 Y76.2351 Z-1.8400 F2000.
G1 X1086.2637 Y76.2351 Z-2.4400
G1 X1089.6665 Y76.2349 Z-3.0400
G1 X1113.6379 Y76.2336 Z-3.0400 F3800.
G1 X1113.6382 Y76.6364 Z-3.0400
G1 X1065.6954 Y76.6390 Z-3.0400
G1 X1065.6951 Y76.2362 Z-3.0400
G1 X1089.6665 Y76.2349 Z-3.0400
G1 X1089.6664 Y73.8349 Z-3.0400
G1 X1115.2191 Y73.8335 Z-3.0400
G1 X1115.8621 Y73.8221 Z-3.0400
G1 X1116.0376 Y73.8252 Z-3.0400
G2 X1116.0395 Y78.2207 I33.1531 J2.1830
G1 X1116.0522 Y78.9459 Z-3.0400
G1 X1116.0504 Y79.0668 Z-3.0400
G1 X1115.4953 Y79.0363 Z-3.0400
G1 X1064.1142 Y79.0391 Z-3.0400
G1 X1063.4712 Y79.0505 Z-3.0400
G1 X1063.2958 Y79.0474 Z-3.0400
G2 X1063.2938 Y74.6519 I-33.1532 J-2.1830
G1 X1063.2811 Y73.9267 Z-3.0400
G1 X1063.2829 Y73.8058 Z-3.0400
G1 X1063.8380 Y73.8363 Z-3.0400
G1 X1089.6664 Y73.8349 Z-3.0400
G1 X1089.6664 Y71.4363 Z-3.0400
G1 X1115.1509 Y71.4363 Z-3.0400
G2 X1117.7734 Y70.7698 I-0.0226 J-5.5811
G1 X1118.1653 Y70.5190 Z-3.0400
G3 X1119.0834 Y70.6186 I0.3763 J0.8123
G1 X1119.2544 Y70.7896 Z-3.0400
G3 X1119.3540 Y71.7077 I-0.7128 J0.5417
G1 X1119.1032 Y72.0996 Z-3.0400
G2 X1118.4366 Y74.7220 I4.5800 J2.5600
G1 X1118.4366 Y78.1506 Z-3.0400
G2 X1119.1032 Y80.7730 I5.5812 J-0.0226
G1 X1119.2888 Y81.0631 Z-3.0400
G1 X1119.3540 Y81.1649 Z-3.0400
G3 X1119.2544 Y82.0830 I-0.8124 J0.3764
G1 X1119.0834 Y82.2540 Z-3.0400
G3 X1118.1653 Y82.3536 I-0.5418 J-0.7127
G1 X1117.7734 Y82.1028 Z-3.0400
G2 X1115.4953 Y81.4363 I-2.6225 J4.7367
G1 X1064.1824 Y81.4363 Z-3.0400
G2 X1061.5599 Y82.1028 I0.0226 J5.5811
G1 X1061.1680 Y82.3536 Z-3.0400
G3 X1060.1644 Y82.1685 I-0.3733 J-0.7892
G3 X1059.9793 Y81.1649 I0.6489 J-0.6385
G1 X1060.2301 Y80.7730 Z-3.0400
G2 X1060.8967 Y78.1506 I-4.5800 J-2.5600
G1 X1060.8967 Y74.7220 Z-3.0400
G2 X1060.2301 Y72.0996 I-5.5812 J0.0226
G1 X1059.9793 Y71.7077 Z-3.0400
G3 X1060.0789 Y70.7896 I0.8124 J-0.3764
G1 X1060.2499 Y70.6186 Z-3.0400
G3 X1061.1680 Y70.5190 I0.5418 J0.7127
G1 X1061.5599 Y70.7698 Z-3.0400
G2 X1063.8380 Y71.4363 I2.6225 J-4.7367
G1 X1089.6664 Y71.4363 Z-3.0400
G0 Z10.0000
G0 X1089.6664 Y71.4363
G0 Z10.0000
G0 X1089.6665 Y76.2349
G1 X1089.6665 Y76.2349 Z-6.0800 F2000.
G1 X1113.6379 Y76.2336 Z-6.0800 F3800.
G1 X1113.6382 Y76.6364 Z-6.0800
G1 X1065.6954 Y76.6390 Z-6.0800
G1 X1065.6951 Y76.2362 Z-6.0800
G1 X1089.6665 Y76.2349 Z-6.0800
G1 X1089.6664 Y73.8349 Z-6.0800
G1 X1115.2191 Y73.8335 Z-6.0800
G1 X1115.8621 Y73.8221 Z-6.0800
G1 X1116.0376 Y73.8252 Z-6.0800
G2 X1116.0395 Y78.2207 I33.1531 J2.1830
G1 X1116.0522 Y78.9459 Z-6.0800
G1 X1116.0504 Y79.0668 Z-6.0800
G1 X1115.4953 Y79.0363 Z-6.0800
G1 X1064.1142 Y79.0391 Z-6.0800
G1 X1063.4712 Y79.0505 Z-6.0800
G1 X1063.2958 Y79.0474 Z-6.0800
G2 X1063.2938 Y74.6519 I-33.1532 J-2.1830
G1 X1063.2811 Y73.9267 Z-6.0800
G1 X1063.2829 Y73.8058 Z-6.0800
G1 X1063.8380 Y73.8363 Z-6.0800
G1 X1089.6664 Y73.8349 Z-6.0800
G1 X1089.6664 Y71.4363 Z-6.0800
G1 X1115.1509 Y71.4363 Z-6.0800
G2 X1117.7734 Y70.7698 I-0.0226 J-5.5811
G1 X1118.1653 Y70.5190 Z-6.0800
G3 X1119.0834 Y70.6186 I0.3763 J0.8123
G1 X1119.2544 Y70.7896 Z-6.0800
G3 X1119.3540 Y71.7077 I-0.7128 J0.5417
G1 X1119.1032 Y72.0996 Z-6.0800
G2 X1118.4366 Y74.7220 I4.5800 J2.5600
G1 X1118.4366 Y78.1506 Z-6.0800
G2 X1119.1032 Y80.7730 I5.5812 J-0.0226
G1 X1119.2888 Y81.0631 Z-6.0800
G1 X1119.3540 Y81.1649 Z-6.0800
G3 X1119.2544 Y82.0830 I-0.8124 J0.3764
G1 X1119.0834 Y82.2540 Z-6.0800
G3 X1118.1653 Y82.3536 I-0.5418 J-0.7127
G1 X1117.7734 Y82.1028 Z-6.0800
G2 X1115.4953 Y81.4363 I-2.6225 J4.7367
G1 X1064.1824 Y81.4363 Z-6.0800
G2 X1061.5599 Y82.1028 I0.0226 J5.5811
G1 X1061.1680 Y82.3536 Z-6.0800
G3 X1060.1644 Y82.1685 I-0.3733 J-0.7892
G3 X1059.9793 Y81.1649 I0.6489 J-0.6385
G1 X1060.2301 Y80.7730 Z-6.0800
G2 X1060.8967 Y78.1506 I-4.5800 J-2.5600
G1 X1060.8967 Y74.7220 Z-6.0800
G2 X1060.2301 Y72.0996 I-5.5812 J0.0226
G1 X1059.9793 Y71.7077 Z-6.0800
G3 X1060.0789 Y70.7896 I0.8124 J-0.3764
G1 X1060.2499 Y70.6186 Z-6.0800
G3 X1061.1680 Y70.5190 I0.5418 J0.7127
G1 X1061.5599 Y70.7698 Z-6.0800
G2 X1063.8380 Y71.4363 I2.6225 J-4.7367
G1 X1089.6664 Y71.4363 Z-6.0800
G0 Z10.0000
G0 X1089.6664 Y71.4363
G0 Z10.0000
G0 X1089.6665 Y76.2349
G1 X1089.6665 Y76.2349 Z-9.1200 F2000.
G1 X1113.6379 Y76.2336 Z-9.1200 F3800.
G1 X1113.6382 Y76.6364 Z-9.1200
G1 X1065.6954 Y76.6390 Z-9.1200
G1 X1065.6951 Y76.2362 Z-9.1200
G1 X1089.6665 Y76.2349 Z-9.1200
G1 X1089.6664 Y73.8349 Z-9.1200
G1 X1115.2191 Y73.8335 Z-9.1200
G1 X1115.8621 Y73.8221 Z-9.1200
G1 X1116.0376 Y73.8252 Z-9.1200
G2 X1116.0395 Y78.2207 I33.1531 J2.1830
G1 X1116.0522 Y78.9459 Z-9.1200
G1 X1116.0504 Y79.0668 Z-9.1200
G1 X1115.4953 Y79.0363 Z-9.1200
G1 X1064.1142 Y79.0391 Z-9.1200
G1 X1063.4712 Y79.0505 Z-9.1200
G1 X1063.2958 Y79.0474 Z-9.1200
G2 X1063.2938 Y74.6519 I-33.1532 J-2.1830
G1 X1063.2811 Y73.9267 Z-9.1200
G1 X1063.2829 Y73.8058 Z-9.1200
G1 X1063.8380 Y73.8363 Z-9.1200
G1 X1089.6664 Y73.8349 Z-9.1200
G1 X1089.6664 Y71.4363 Z-9.1200
G1 X1115.1509 Y71.4363 Z-9.1200
G2 X1117.7734 Y70.7698 I-0.0226 J-5.5811
G1 X1118.1653 Y70.5190 Z-9.1200
G3 X1119.0834 Y70.6186 I0.3763 J0.8123
G1 X1119.2544 Y70.7896 Z-9.1200
G3 X1119.3540 Y71.7077 I-0.7128 J0.5417
G1 X1119.1032 Y72.0996 Z-9.1200
G2 X1118.4366 Y74.7220 I4.5800 J2.5600
G1 X1118.4366 Y78.1506 Z-9.1200
G2 X1119.1032 Y80.7730 I5.5812 J-0.0226
G1 X1119.2888 Y81.0631 Z-9.1200
G1 X1119.3540 Y81.1649 Z-9.1200
G3 X1119.2544 Y82.0830 I-0.8124 J0.3764
G1 X1119.0834 Y82.2540 Z-9.1200
G3 X1118.1653 Y82.3536 I-0.5418 J-0.7127
G1 X1117.7734 Y82.1028 Z-9.1200
G2 X1115.4953 Y81.4363 I-2.6225 J4.7367
G1 X1064.1824 Y81.4363 Z-9.1200
G2 X1061.5599 Y82.1028 I0.0226 J5.5811
G1 X1061.1680 Y82.3536 Z-9.1200
G3 X1060.1644 Y82.1685 I-0.3733 J-0.7892
G3 X1059.9793 Y81.1649 I0.6489 J-0.6385
G1 X1060.2301 Y80.7730 Z-9.1200
G2 X1060.8967 Y78.1506 I-4.5800 J-2.5600
G1 X1060.8967 Y74.7220 Z-9.1200
G2 X1060.2301 Y72.0996 I-5.5812 J0.0226
G1 X1059.9793 Y71.7077 Z-9.1200
G3 X1060.0789 Y70.7896 I0.8124 J-0.3764
G1 X1060.2499 Y70.6186 Z-9.1200
G3 X1061.1680 Y70.5190 I0.5418 J0.7127
G1 X1061.5599 Y70.7698 Z-9.1200
G2 X1063.8380 Y71.4363 I2.6225 J-4.7367
G1 X1089.6664 Y71.4363 Z-9.1200
G0 Z10.0000
G0 X1089.6664 Y71.4363
G0 Z10.0000
G0 X1089.6665 Y76.2349
G1 X1089.6665 Y76.2349 Z-12.1600 F2000.
G1 X1113.6379 Y76.2336 Z-12.1600 F3800.
G1 X1113.6382 Y76.6364 Z-12.1600
G1 X1065.6954 Y76.6390 Z-12.1600
G1 X1065.6951 Y76.2362 Z-12.1600
G1 X1089.6665 Y76.2349 Z-12.1600
G1 X1089.6664 Y73.8349 Z-12.1600
G1 X1115.2191 Y73.8335 Z-12.1600
G1 X1115.8621 Y73.8221 Z-12.1600
G1 X1116.0376 Y73.8252 Z-12.1600
G2 X1116.0395 Y78.2207 I33.1531 J2.1830
G1 X1116.0522 Y78.9459 Z-12.1600
G1 X1116.0504 Y79.0668 Z-12.1600
G1 X1115.4953 Y79.0363 Z-12.1600
G1 X1064.1142 Y79.0391 Z-12.1600
G1 X1063.4712 Y79.0505 Z-12.1600
G1 X1063.2958 Y79.0474 Z-12.1600
G2 X1063.2938 Y74.6519 I-33.1532 J-2.1830
G1 X1063.2811 Y73.9267 Z-12.1600
G1 X1063.2829 Y73.8058 Z-12.1600
G1 X1063.8380 Y73.8363 Z-12.1600
G1 X1089.6664 Y73.8349 Z-12.1600
G1 X1089.6664 Y71.4363 Z-12.1600
G1 X1115.1509 Y71.4363 Z-12.1600
G2 X1117.7734 Y70.7698 I-0.0226 J-5.5811
G1 X1118.1653 Y70.5190 Z-12.1600
G3 X1119.0834 Y70.6186 I0.3763 J0.8123
G1 X1119.2544 Y70.7896 Z-12.1600
G3 X1119.3540 Y71.7077 I-0.7128 J0.5417
G1 X1119.1032 Y72.0996 Z-12.1600
G2 X1118.4366 Y74.7220 I4.5800 J2.5600
G1 X1118.4366 Y78.1506 Z-12.1600
G2 X1119.1032 Y80.7730 I5.5812 J-0.0226
G1 X1119.2888 Y81.0631 Z-12.1600
G1 X1119.3540 Y81.1649 Z-12.1600
G3 X1119.2544 Y82.0830 I-0.8124 J0.3764
G1 X1119.0834 Y82.2540 Z-12.1600
G3 X1118.1653 Y82.3536 I-0.5418 J-0.7127
G1 X1117.7734 Y82.1028 Z-12.1600
G2 X1115.4953 Y81.4363 I-2.6225 J4.7367
G1 X1064.1824 Y81.4363 Z-12.1600
G2 X1061.5599 Y82.1028 I0.0226 J5.5811
G1 X1061.1680 Y82.3536 Z-12.1600
G3 X1060.1644 Y82.1685 I-0.3733 J-0.7892
G3 X1059.9793 Y81.1649 I0.6489 J-0.6385
G1 X1060.2301 Y80.7730 Z-12.1600
G2 X1060.8967 Y78.1506 I-4.5800 J-2.5600
G1 X1060.8967 Y74.7220 Z-12.1600
G2 X1060.2301 Y72.0996 I-5.5812 J0.0226
G1 X1059.9793 Y71.7077 Z-12.1600
G3 X1060.0789 Y70.7896 I0.8124 J-0.3764
G1 X1060.2499 Y70.6186 Z-12.1600
G3 X1061.1680 Y70.5190 I0.5418 J0.7127
G1 X1061.5599 Y70.7698 Z-12.1600
G2 X1063.8380 Y71.4363 I2.6225 J-4.7367
G1 X1089.6664 Y71.4363 Z-12.1600
G0 Z10.0000
G0 X1089.6664 Y71.4363
G0 Z10.0000
G0 X1089.6665 Y76.2349
G1 X1089.6665 Y76.2349 Z-15.2000 F2000.
G1 X1113.6379 Y76.2336 Z-15.2000 F3800.
G1 X1113.6382 Y76.6364 Z-15.2000
G1 X1065.6954 Y76.6390 Z-15.2000
G1 X1065.6951 Y76.2362 Z-15.2000
G1 X1089.6665 Y76.2349 Z-15.2000
G1 X1089.6664 Y73.8349 Z-15.2000
G1 X1115.2191 Y73.8335 Z-15.2000
G1 X1115.8621 Y73.8221 Z-15.2000
G1 X1116.0376 Y73.8252 Z-15.2000
G2 X1116.0395 Y78.2207 I33.1531 J2.1830
G1 X1116.0522 Y78.9459 Z-15.2000
G1 X1116.0504 Y79.0668 Z-15.2000
G1 X1115.4953 Y79.0363 Z-15.2000
G1 X1064.1142 Y79.0391 Z-15.2000
G1 X1063.4712 Y79.0505 Z-15.2000
G1 X1063.2958 Y79.0474 Z-15.2000
G2 X1063.2938 Y74.6519 I-33.1532 J-2.1830
G1 X1063.2811 Y73.9267 Z-15.2000
G1 X1063.2829 Y73.8058 Z-15.2000
G1 X1063.8380 Y73.8363 Z-15.2000
G1 X1089.6664 Y73.8349 Z-15.2000
G1 X1089.6664 Y71.4363 Z-15.2000
G1 X1115.1509 Y71.4363 Z-15.2000
G2 X1117.7734 Y70.7698 I-0.0226 J-5.5811
G1 X1118.1653 Y70.5190 Z-15.2000
G3 X1119.0834 Y70.6186 I0.3763 J0.8123
G1 X1119.2544 Y70.7896 Z-15.2000
G3 X1119.3540 Y71.7077 I-0.7128 J0.5417
G1 X1119.1032 Y72.0996 Z-15.2000
G2 X1118.4366 Y74.7220 I4.5800 J2.5600
G1 X1118.4366 Y78.1506 Z-15.2000
G2 X1119.1032 Y80.7730 I5.5812 J-0.0226
G1 X1119.2888 Y81.0631 Z-15.2000
G1 X1119.3540 Y81.1649 Z-15.2000
G3 X1119.2544 Y82.0830 I-0.8124 J0.3764
G1 X1119.0834 Y82.2540 Z-15.2000
G3 X1118.1653 Y82.3536 I-0.5418 J-0.7127
G1 X1117.7734 Y82.1028 Z-15.2000
G2 X1115.4953 Y81.4363 I-2.6225 J4.7367
G1 X1064.1824 Y81.4363 Z-15.2000
G2 X1061.5599 Y82.1028 I0.0226 J5.5811
G1 X1061.1680 Y82.3536 Z-15.2000
G3 X1060.1644 Y82.1685 I-0.3733 J-0.7892
G3 X1059.9793 Y81.1649 I0.6489 J-0.6385
G1 X1060.2301 Y80.7730 Z-15.2000
G2 X1060.8967 Y78.1506 I-4.5800 J-2.5600
G1 X1060.8967 Y74.7220 Z-15.2000
G2 X1060.2301 Y72.0996 I-5.5812 J0.0226
G1 X1059.9793 Y71.7077 Z-15.2000
G3 X1060.0789 Y70.7896 I0.8124 J-0.3764
G1 X1060.2499 Y70.6186 Z-15.2000
G3 X1061.1680 Y70.5190 I0.5418 J0.7127
G1 X1061.5599 Y70.7698 Z-15.2000
G2 X1063.8380 Y71.4363 I2.6225 J-4.7367
G1 X1089.6664 Y71.4363 Z-15.2000
G1 X1089.6664 Y72.4970 Z-14.1393 F2000.
G1 X1089.6664 Y72.4970 Z-13.5393
G0 Z10.0000
G0 X1089.6664 Y72.4970
G0 Z10.0000
G0 X873.9766 Y76.6383
G1 X873.9766 Y76.6383 Z-1.8400 F2000.
G1 X873.9766 Y76.6383 Z-2.4400
G1 X870.5739 Y76.6386 Z-3.0400
G1 X846.6025 Y76.6407 Z-3.0400 F3800.
G1 X846.6022 Y76.2362 Z-3.0400
G1 X894.5449 Y76.2336 Z-3.0400
G1 X894.5452 Y76.6365 Z-3.0400
G1 X870.5739 Y76.6386 Z-3.0400
G1 X870.5741 Y79.0386 Z-3.0400
G1 X844.9117 Y79.0409 Z-3.0400
G1 X844.2011 Y79.0656 Z-3.0400
G2 X844.2009 Y74.6539 I-28.4422 J-2.2044
G1 X844.1896 Y74.0108 Z-3.0400
G1 X844.1926 Y73.8354 Z-3.0400
G1 X844.3824 Y73.8473 Z-3.0400
G1 X845.1037 Y73.8363 Z-3.0400
G1 X896.1261 Y73.8335 Z-3.0400
G1 X896.7692 Y73.8221 Z-3.0400
G1 X896.9446 Y73.8252 Z-3.0400
G2 X896.9465 Y78.2207 I33.1531 J2.1830
G1 X896.9592 Y78.9459 Z-3.0400
G1 X896.9575 Y79.0668 Z-3.0400
G1 X896.4023 Y79.0363 Z-3.0400
G1 X870.5741 Y79.0386 Z-3.0400
G1 X870.5741 Y81.4363 Z-3.0400
G1 X845.0894 Y81.4363 Z-3.0400
G2 X842.1769 Y82.2884 I0.0000 J5.4032
G3 X841.0715 Y82.1685 I-0.4782 J-0.7471
G3 X840.8864 Y81.1649 I0.6489 J-0.6385
G1 X841.1372 Y80.7730 Z-3.0400
G2 X841.8037 Y78.1506 I-4.5801 J-2.5600
G1 X841.8037 Y74.7220 Z-3.0400
G2 X841.1372 Y72.0996 I-5.5811 J0.0226
G1 X840.8864 Y71.7077 Z-3.0400
G3 X840.9860 Y70.7896 I0.8123 J-0.3764
G1 X841.1570 Y70.6186 Z-3.0400
G3 X842.0751 Y70.5190 I0.5417 J0.7127
G1 X842.4670 Y70.7698 Z-3.0400
G2 X845.0894 Y71.4363 I2.5600 J-4.5801
G1 X896.0580 Y71.4363 Z-3.0400
G2 X898.6804 Y70.7698 I-0.0226 J-5.5811
G1 X899.0723 Y70.5190 Z-3.0400
G3 X899.9904 Y70.6186 I0.3763 J0.8123
G1 X900.1614 Y70.7896 Z-3.0400
G3 X900.2610 Y71.7077 I-0.7128 J0.5417
G1 X900.0102 Y72.0996 Z-3.0400
G2 X899.3437 Y74.7220 I4.5801 J2.5600
G1 X899.3437 Y78.1506 Z-3.0400
G2 X900.0102 Y80.7730 I5.5811 J-0.0226
G1 X900.1958 Y81.0631 Z-3.0400
G1 X900.2610 Y81.1649 Z-3.0400
G3 X900.1614 Y82.0830 I-0.8124 J0.3764
G1 X899.9904 Y82.2540 Z-3.0400
G3 X899.0723 Y82.3536 I-0.5418 J-0.7127
G1 X898.6804 Y82.1028 Z-3.0400
G2 X896.4023 Y81.4363 I-2.6224 J4.7367
G1 X870.5741 Y81.4363 Z-3.0400
G0 Z10.0000
G0 X870.5741 Y81.4363
G0 Z10.0000
G0 X870.5739 Y76.6386
G1 X870.5739 Y76.6386 Z-6.0800 F2000.
G1 X846.6025 Y76.6407 Z-6.0800 F3800.
G1 X846.6022 Y76.2362 Z-6.0800
G1 X894.5449 Y76.2336 Z-6.0800
G1 X894.5452 Y76.6365 Z-6.0800
G1 X870.5739 Y76.6386 Z-6.0800
G1 X870.5741 Y79.0386 Z-6.0800
G1 X844.9117 Y79.0409 Z-6.0800
G1 X844.2011 Y79.0656 Z-6.0800
G2 X844.2009 Y74.6539 I-28.4422 J-2.2044
G1 X844.1896 Y74.0108 Z-6.0800
G1 X844.1926 Y73.8354 Z-6.0800
G1 X844.3824 Y73.8473 Z-6.0800
G1 X845.1037 Y73.8363 Z-6.0800
G1 X896.1261 Y73.8335 Z-6.0800
G1 X896.7692 Y73.8221 Z-6.0800
G1 X896.9446 Y73.8252 Z-6.0800
G2 X896.9465 Y78.2207 I33.1531 J2.1830
G1 X896.9592 Y78.9459 Z-6.0800
G1 X896.9575 Y79.0668 Z-6.0800
G1 X896.4023 Y79.0363 Z-6.0800
G1 X870.5741 Y79.0386 Z-6.0800
G1 X870.5741 Y81.4363 Z-6.0800
G1 X845.0894 Y81.4363 Z-6.0800
G2 X842.1769 Y82.2884 I0.0000 J5.4032
G3 X841.0715 Y82.1685 I-0.4782 J-0.7471
G3 X840.8864 Y81.1649 I0.6489 J-0.6385
G1 X841.1372 Y80.7730 Z-6.0800
G2 X841.8037 Y78.1506 I-4.5801 J-2.5600
G1 X841.8037 Y74.7220 Z-6.0800
G2 X841.1372 Y72.0996 I-5.5811 J0.0226
G1 X840.8864 Y71.7077 Z-6.0800
G3 X840.9860 Y70.7896 I0.8123 J-0.3764
G1 X841.1570 Y70.6186 Z-6.0800
G3 X842.0751 Y70.5190 I0.5417 J0.7127
G1 X842.4670 Y70.7698 Z-6.0800
G2 X845.0894 Y71.4363 I2.5600 J-4.5801
G1 X896.0580 Y71.4363 Z-6.0800
G2 X898.6804 Y70.7698 I-0.0226 J-5.5811
G1 X899.0723 Y70.5190 Z-6.0800
G3 X899.9904 Y70.6186 I0.3763 J0.8123
G1 X900.1614 Y70.7896 Z-6.0800
G3 X900.2610 Y71.7077 I-0.7128 J0.5417
G1 X900.0102 Y72.0996 Z-6.0800
G2 X899.3437 Y74.7220 I4.5801 J2.5600
G1 X899.3437 Y78.1506 Z-6.0800
G2 X900.0102 Y80.7730 I5.5811 J-0.0226
G1 X900.1958 Y81.0631 Z-6.0800
G1 X900.2610 Y81.1649 Z-6.0800
G3 X900.1614 Y82.0830 I-0.8124 J0.3764
G1 X899.9904 Y82.2540 Z-6.0800
G3 X899.0723 Y82.3536 I-0.5418 J-0.7127
G1 X898.6804 Y82.1028 Z-6.0800
G2 X896.4023 Y81.4363 I-2.6224 J4.7367
G1 X870.5741 Y81.4363 Z-6.0800
G0 Z10.0000
G0 X870.5741 Y81.4363
G0 Z10.0000
G0 X870.5739 Y76.6386
G1 X870.5739 Y76.6386 Z-9.1200 F2000.
G1 X846.6025 Y76.6407 Z-9.1200 F3800.
G1 X846.6022 Y76.2362 Z-9.1200
G1 X894.5449 Y76.2336 Z-9.1200
G1 X894.5452 Y76.6365 Z-9.1200
G1 X870.5739 Y76.6386 Z-9.1200
G1 X870.5741 Y79.0386 Z-9.1200
G1 X844.9117 Y79.0409 Z-9.1200
G1 X844.2011 Y79.0656 Z-9.1200
G2 X844.2009 Y74.6539 I-28.4422 J-2.2044
G1 X844.1896 Y74.0108 Z-9.1200
G1 X844.1926 Y73.8354 Z-9.1200
G1 X844.3824 Y73.8473 Z-9.1200
G1 X845.1037 Y73.8363 Z-9.1200
G1 X896.1261 Y73.8335 Z-9.1200
G1 X896.7692 Y73.8221 Z-9.1200
G1 X896.9446 Y73.8252 Z-9.1200
G2 X896.9465 Y78.2207 I33.1531 J2.1830
G1 X896.9592 Y78.9459 Z-9.1200
G1 X896.9575 Y79.0668 Z-9.1200
G1 X896.4023 Y79.0363 Z-9.1200
G1 X870.5741 Y79.0386 Z-9.1200
G1 X870.5741 Y81.4363 Z-9.1200
G1 X845.0894 Y81.4363 Z-9.1200
G2 X842.1769 Y82.2884 I0.0000 J5.4032
G3 X841.0715 Y82.1685 I-0.4782 J-0.7471
G3 X840.8864 Y81.1649 I0.6489 J-0.6385
G1 X841.1372 Y80.7730 Z-9.1200
G2 X841.8037 Y78.1506 I-4.5801 J-2.5600
G1 X841.8037 Y74.7220 Z-9.1200
G2 X841.1372 Y72.0996 I-5.5811 J0.0226
G1 X840.8864 Y71.7077 Z-9.1200
G3 X840.9860 Y70.7896 I0.8123 J-0.3764
G1 X841.1570 Y70.6186 Z-9.1200
G3 X842.0751 Y70.5190 I0.5417 J0.7127
G1 X842.4670 Y70.7698 Z-9.1200
G2 X845.0894 Y71.4363 I2.5600 J-4.5801
