(Solar drawer front15.2mm_Engraving.nc)
(----------------------------------------------------------------)
( Generated for RhinoCam to export for CNC-STEP models Raptor X-SL3000s20 / T-Rex1215 )
( Postprocessor written at FabLab BCN/IaaC by eduardo.chamorro@iaac.net )
( Last edit : 22 January - 2019 )
(----------------------------------------------------------------)
(Stock Size X = 450.0000, Y =  540.0000, Z = 15.2000)
(Home Origin X =  0, Y = 0, Z = 0)
(Units = MM, Spindle Speed = 18000)
(Max cut depth = Z-15.2000)
(Tool dia= 6.0 mm, Tool length= 40.0 mm)(WARNING!-CHECK YOUR TOOL)
(-------------------------------------------------------------)
%
G90
G64
M7
M8
T1
S20000
M3
G1 X8.8509 Y10.1594 Z20.0000 F12000.
G1 X8.8509 Y10.1594 Z-3.0000 F2000.
G1 X8.8509 Y10.1594 Z20.0000 F12000.
G1 X222.7530 Y22.3648 Z20.0000 F12000.
G1 X222.7530 Y22.3648 Z-3.0000 F2000.
G1 X222.7530 Y22.3648 Z20.0000 F12000.
G1 X228.1437 Y504.6320 Z20.0000 F12000.
G1 X228.1437 Y504.6320 Z-3.0000 F2000.
G1 X228.1437 Y504.6320 Z20.0000 F12000.
G1 X10.2370 Y521.4596 Z20.0000 F12000.
G1 X10.2370 Y521.4596 Z-3.0000 F2000.
G1 X10.2370 Y521.4596 Z20.0000 F12000.
M9
M5
M30
(--THE END - THANK YOU FOR USING THIS AWESOME POSTPROCESSOR---)
