(Solar drawer front15.2mm_rest.nc)
(----------------------------------------------------------------)
( Generated for RhinoCam to export for CNC-STEP models Raptor X-SL3000s20 / T-Rex1215 )
( Postprocessor written at FabLab BCN/IaaC by eduardo.chamorro@iaac.net )
( Last edit : 22 January - 2019 )
(----------------------------------------------------------------)
(Stock Size X = 450.0000, Y =  540.0000, Z = 15.2000)
(Home Origin X =  0, Y = 0, Z = 0)
(Units = MM, Spindle Speed = 18000)
(Max cut depth = Z-15.2000)
(Tool dia= 6.0 mm, Tool length= 40.0 mm)(WARNING!-CHECK YOUR TOOL)
(-------------------------------------------------------------)
%
G90
G64
M7
M8
T1
S20000
M3
G1 X159.0685 Y78.0178 Z10.0000 F12000.
G1 X159.0685 Y78.0178 Z-2.0667 F2000.
G1 X159.0282 Y78.4264 Z-2.1391
G1 X159.0282 Y79.0661 Z-2.2519
G1 X159.0858 Y79.6514 Z-2.3556
G1 X159.2566 Y80.2142 Z-2.4593
G1 X159.5338 Y80.7329 Z-2.5630
G1 X159.9069 Y81.1875 Z-2.6667
G2 X157.7856 Y80.3088 I-2.1213 J2.1213 F3500.
G1 X78.1503 Y80.3088 Z-2.6667
G2 X76.0290 Y81.1875 I0.0000 J3.0000
G2 X76.0290 Y76.3051 I-2.8935 J-2.4412
G2 X78.1503 Y77.1838 I2.1213 J-2.1213
G1 X157.7856 Y77.1838 Z-2.6667
G2 X159.9069 Y76.3051 I0.0000 J-3.0000
G2 X159.9069 Y81.1875 I2.8935 J2.4412
G1 X159.9069 Y81.1875 Z-5.3333
G2 X157.7856 Y80.3088 I-2.1213 J2.1213
G1 X78.1503 Y80.3088 Z-5.3333
G2 X76.0290 Y81.1875 I0.0000 J3.0000
G2 X76.0290 Y76.3051 I-2.8935 J-2.4412
G2 X78.1503 Y77.1838 I2.1213 J-2.1213
G1 X157.7856 Y77.1838 Z-5.3333
G2 X159.9069 Y76.3051 I0.0000 J-3.0000
G2 X159.9069 Y81.1875 I2.8935 J2.4412
G1 X159.9069 Y81.1875 Z-8.0000
G2 X157.7856 Y80.3088 I-2.1213 J2.1213
G1 X78.1503 Y80.3088 Z-8.0000
G2 X76.0290 Y81.1875 I0.0000 J3.0000
G2 X76.0290 Y76.3051 I-2.8935 J-2.4412
G2 X78.1503 Y77.1838 I2.1213 J-2.1213
G1 X157.7856 Y77.1838 Z-8.0000
G2 X159.9069 Y76.3051 I0.0000 J-3.0000
G2 X159.9069 Y81.1875 I2.8935 J2.4412
G1 X159.9069 Y81.1875 Z-7.4000 F2000.
G1 X159.9069 Y81.1875 Z10.0000 F12000.
G1 X179.3310 Y236.8002 Z10.0000 F12000.
G1 X179.3310 Y236.8002 Z-2.0667 F2000.
G1 X179.5489 Y237.2079 Z-2.1482
G1 X179.9219 Y237.6625 Z-2.2519
G1 X179.4673 Y237.2894 Z-2.3556
G1 X178.9487 Y237.0122 Z-2.4593
G1 X178.3859 Y236.8414 Z-2.5630
G1 X177.8006 Y236.7838 Z-2.6667
G2 X175.1646 Y237.6625 I-0.3812 J3.2498 F3500.
G2 X176.0433 Y235.5411 I-2.1213 J-2.1214
G1 X176.0433 Y143.9323 Z-2.6667
G2 X175.1646 Y141.8110 I-3.0000 J0.0000
G2 X179.9219 Y141.8110 I2.3787 J-2.7426
G2 X179.0433 Y143.9323 I2.1214 J2.1213
G1 X179.0433 Y235.5411 Z-2.6667
G2 X179.9219 Y237.6625 I3.0000 J0.0000
G2 X177.8006 Y236.7838 I-2.1213 J2.1213
G1 X177.8006 Y236.7838 Z-5.3333
G2 X175.1646 Y237.6625 I-0.3812 J3.2498
G2 X176.0433 Y235.5411 I-2.1213 J-2.1214
G1 X176.0433 Y143.9323 Z-5.3333
G2 X175.1646 Y141.8110 I-3.0000 J0.0000
G2 X179.9219 Y141.8110 I2.3787 J-2.7426
G2 X179.0433 Y143.9323 I2.1214 J2.1213
G1 X179.0433 Y235.5411 Z-5.3333
G2 X179.9219 Y237.6625 I3.0000 J0.0000
G2 X177.8006 Y236.7838 I-2.1213 J2.1213
G1 X177.8006 Y236.7838 Z-8.0000
G2 X175.1646 Y237.6625 I-0.3812 J3.2498
G2 X176.0433 Y235.5411 I-2.1213 J-2.1214
G1 X176.0433 Y143.9323 Z-8.0000
G2 X175.1646 Y141.8110 I-3.0000 J0.0000
G2 X179.9219 Y141.8110 I2.3787 J-2.7426
G2 X179.0433 Y143.9323 I2.1214 J2.1213
G1 X179.0433 Y235.5411 Z-8.0000
G2 X179.9219 Y237.6625 I3.0000 J0.0000
G2 X177.8006 Y236.7838 I-2.1213 J2.1213
G1 X177.8527 Y235.7244 Z-6.9393 F2000.
G1 X177.8527 Y235.7244 Z-6.3393
G1 X177.8527 Y235.7244 Z10.0000 F12000.
G1 X179.0433 Y434.6790 Z10.0000 F12000.
G1 X179.0433 Y434.6790 Z-1.4667 F2000.
G1 X179.0433 Y434.6790 Z-2.0667
G1 X179.0433 Y435.7294 Z-2.2519
G1 X179.1009 Y436.3146 Z-2.3556
G1 X179.2716 Y436.8774 Z-2.4593
G1 X179.5489 Y437.3961 Z-2.5630
G1 X179.9219 Y437.8507 Z-2.6667
G2 X175.1646 Y437.8507 I-2.3786 J2.7426 F3500.
G2 X176.0433 Y435.7294 I-2.1213 J-2.1213
G1 X176.0433 Y344.1205 Z-2.6667
G2 X175.1646 Y341.9992 I-3.0000 J0.0000
G2 X179.9219 Y341.9992 I2.3787 J-2.7426
G2 X179.0433 Y344.1205 I2.1214 J2.1213
G1 X179.0433 Y435.7294 Z-2.6667
G2 X179.9219 Y437.8507 I3.0000 J0.0000
G1 X179.9219 Y437.8507 Z-5.3333
G2 X175.1646 Y437.8507 I-2.3786 J2.7426
G2 X176.0433 Y435.7294 I-2.1213 J-2.1213
G1 X176.0433 Y344.1205 Z-5.3333
G2 X175.1646 Y341.9992 I-3.0000 J0.0000
G2 X179.9219 Y341.9992 I2.3787 J-2.7426
G2 X179.0433 Y344.1205 I2.1214 J2.1213
G1 X179.0433 Y435.7294 Z-5.3333
G2 X179.9219 Y437.8507 I3.0000 J0.0000
G1 X179.9219 Y437.8507 Z-8.0000
G2 X175.1646 Y437.8507 I-2.3786 J2.7426
G2 X176.0433 Y435.7294 I-2.1213 J-2.1213
G1 X176.0433 Y344.1205 Z-8.0000
G2 X175.1646 Y341.9992 I-3.0000 J0.0000
G2 X179.9219 Y341.9992 I2.3787 J-2.7426
G2 X179.0433 Y344.1205 I2.1214 J2.1213
G1 X179.0433 Y435.7294 Z-8.0000
G2 X179.9219 Y437.8507 I3.0000 J0.0000
G1 X179.9219 Y437.8507 Z-7.4000 F2000.
G1 X179.9219 Y437.8507 Z10.0000 F12000.
G1 X159.0685 Y482.8928 Z10.0000 F12000.
G1 X159.0685 Y482.8928 Z-2.0667 F2000.
G1 X159.0282 Y483.3014 Z-2.1391
G1 X159.0282 Y483.9411 Z-2.2519
G1 X159.0858 Y484.5264 Z-2.3556
G1 X159.2566 Y485.0892 Z-2.4593
G1 X159.5338 Y485.6079 Z-2.5630
G1 X159.9069 Y486.0625 Z-2.6667
G2 X157.7856 Y485.1838 I-2.1213 J2.1213 F3500.
G1 X78.1503 Y485.1838 Z-2.6667
G2 X76.0290 Y486.0625 I0.0000 J3.0000
G2 X76.0290 Y481.1801 I-2.8935 J-2.4412
G2 X78.1503 Y482.0588 I2.1213 J-2.1213
G1 X157.7856 Y482.0588 Z-2.6667
G2 X159.9069 Y481.1801 I0.0000 J-3.0000
G2 X159.9069 Y486.0625 I2.8935 J2.4412
G1 X159.9069 Y486.0625 Z-5.3333
G2 X157.7856 Y485.1838 I-2.1213 J2.1213
G1 X78.1503 Y485.1838 Z-5.3333
G2 X76.0290 Y486.0625 I0.0000 J3.0000
G2 X76.0290 Y481.1801 I-2.8935 J-2.4412
G2 X78.1503 Y482.0588 I2.1213 J-2.1213
G1 X157.7856 Y482.0588 Z-5.3333
G2 X159.9069 Y481.1801 I0.0000 J-3.0000
G2 X159.9069 Y486.0625 I2.8935 J2.4412
G1 X159.9069 Y486.0625 Z-8.0000
G2 X157.7856 Y485.1838 I-2.1213 J2.1213
G1 X78.1503 Y485.1838 Z-8.0000
G2 X76.0290 Y486.0625 I0.0000 J3.0000
G2 X76.0290 Y481.1801 I-2.8935 J-2.4412
G2 X78.1503 Y482.0588 I2.1213 J-2.1213
G1 X157.7856 Y482.0588 Z-8.0000
G2 X159.9069 Y481.1801 I0.0000 J-3.0000
G2 X159.9069 Y486.0625 I2.8935 J2.4412
G1 X159.9069 Y486.0625 Z-7.4000 F2000.
G1 X159.9069 Y486.0625 Z10.0000 F12000.
G1 X135.8125 Y281.1838 Z10.0000 F12000.
G1 X135.8125 Y281.1838 Z-2.5833 F2000.
G1 X135.8125 Y95.1186 Z-2.5833 F3500.
G3 X137.8125 Y93.1186 I2.0000 J0.0000
G1 X152.8125 Y93.1186 Z-2.5833
G3 X154.8125 Y95.1186 I0.0000 J2.0000
G1 X154.8125 Y467.2490 Z-2.5833
G3 X152.8125 Y469.2490 I-2.0000 J0.0000
G1 X137.8125 Y469.2490 Z-2.5833
G3 X135.8125 Y467.2490 I0.0000 J-2.0000
G1 X135.8125 Y281.1838 Z-2.5833
G1 X135.8125 Y281.1838 Z-5.1667
G1 X135.8125 Y467.2490 Z-5.1667
G2 X137.8125 Y469.2490 I2.0000 J0.0000
G1 X152.8125 Y469.2490 Z-5.1667
G2 X154.8125 Y467.2490 I0.0000 J-2.0000
G1 X154.8125 Y95.1186 Z-5.1667
G2 X152.8125 Y93.1186 I-2.0000 J0.0000
G1 X137.8125 Y93.1186 Z-5.1667
G2 X135.8125 Y95.1186 I0.0000 J2.0000
G1 X135.8125 Y281.1838 Z-5.1667
G1 X135.8125 Y281.1838 Z-7.7500
G1 X135.8125 Y95.1186 Z-7.7500
G3 X137.8125 Y93.1186 I2.0000 J0.0000
G1 X152.8125 Y93.1186 Z-7.7500
G3 X154.8125 Y95.1186 I0.0000 J2.0000
G1 X154.8125 Y467.2490 Z-7.7500
G3 X152.8125 Y469.2490 I-2.0000 J0.0000
G1 X137.8125 Y469.2490 Z-7.7500
G3 X135.8125 Y467.2490 I0.0000 J-2.0000
G1 X135.8125 Y281.1838 Z-7.7500
G1 X135.8125 Y281.1838 Z-10.3333
G1 X135.8125 Y467.2490 Z-10.3333
G2 X137.8125 Y469.2490 I2.0000 J0.0000
G1 X152.8125 Y469.2490 Z-10.3333
G2 X154.8125 Y467.2490 I0.0000 J-2.0000
G1 X154.8125 Y95.1186 Z-10.3333
G2 X152.8125 Y93.1186 I-2.0000 J0.0000
G1 X137.8125 Y93.1186 Z-10.3333
G2 X135.8125 Y95.1186 I0.0000 J2.0000
G1 X135.8125 Y281.1838 Z-10.3333
G1 X135.8125 Y281.1838 Z-12.9167
G1 X135.8125 Y185.4742 Z-12.9167
G1 X135.8125 Y185.4742 Z-10.7000
G1 X135.8125 Y175.4742 Z-10.7000
G1 X135.8125 Y175.4742 Z-12.9167
G1 X135.8125 Y95.1186 Z-12.9167
G3 X137.8125 Y93.1186 I2.0000 J0.0000
G1 X152.8125 Y93.1186 Z-12.9167
G3 X154.8125 Y95.1186 I0.0000 J2.0000
G1 X154.8125 Y175.4779 Z-12.9167
G1 X154.8125 Y175.4779 Z-10.7000
G1 X154.8125 Y185.4779 Z-10.7000
G1 X154.8125 Y185.4779 Z-12.9167
G1 X154.8125 Y376.8971 Z-12.9167
G1 X154.8125 Y376.8971 Z-10.7000
G1 X154.8125 Y386.8971 Z-10.7000
G1 X154.8125 Y386.8971 Z-12.9167
G1 X154.8125 Y467.2490 Z-12.9167
G3 X152.8125 Y469.2490 I-2.0000 J0.0000
G1 X137.8125 Y469.2490 Z-12.9167
G3 X135.8125 Y467.2490 I0.0000 J-2.0000
G1 X135.8125 Y386.8861 Z-12.9167
G1 X135.8125 Y386.8861 Z-10.7000
G1 X135.8125 Y376.8861 Z-10.7000
G1 X135.8125 Y376.8861 Z-12.9167
G1 X135.8125 Y281.1838 Z-12.9167
G1 X135.8125 Y281.1838 Z-15.5000
G1 X135.8125 Y376.8861 Z-15.5000
G1 X135.8125 Y376.8861 Z-10.7000
G1 X135.8125 Y386.8861 Z-10.7000
G1 X135.8125 Y386.8861 Z-15.5000
G1 X135.8125 Y467.2490 Z-15.5000
G2 X137.8125 Y469.2490 I2.0000 J0.0000
G1 X152.8125 Y469.2490 Z-15.5000
G2 X154.8125 Y467.2490 I0.0000 J-2.0000
G1 X154.8125 Y386.8971 Z-15.5000
G1 X154.8125 Y386.8971 Z-10.7000
G1 X154.8125 Y376.8971 Z-10.7000
G1 X154.8125 Y376.8971 Z-15.5000
G1 X154.8125 Y185.4779 Z-15.5000
G1 X154.8125 Y185.4779 Z-10.7000
G1 X154.8125 Y175.4779 Z-10.7000
G1 X154.8125 Y175.4779 Z-15.5000
G1 X154.8125 Y95.1186 Z-15.5000
G2 X152.8125 Y93.1186 I-2.0000 J0.0000
G1 X137.8125 Y93.1186 Z-15.5000
G2 X135.8125 Y95.1186 I0.0000 J2.0000
G1 X135.8125 Y175.4742 Z-15.5000
G1 X135.8125 Y175.4742 Z-10.7000
G1 X135.8125 Y185.4742 Z-10.7000
G1 X135.8125 Y185.4742 Z-15.5000
G1 X135.8125 Y281.1838 Z-15.5000
G1 X135.8125 Y281.1838 Z10.0000 F12000.
G1 X75.8401 Y280.5194 Z10.0000 F12000.
G1 X75.8401 Y280.5194 Z-2.5833 F2000.
G1 X75.8401 Y94.4542 Z-2.5833 F3500.
G3 X77.8401 Y92.4542 I2.0000 J0.0000
G1 X92.8401 Y92.4542 Z-2.5833
G3 X94.8401 Y94.4542 I0.0000 J2.0000
G1 X94.8401 Y466.5846 Z-2.5833
G3 X92.8401 Y468.5846 I-2.0000 J0.0000
G1 X77.8401 Y468.5846 Z-2.5833
G3 X75.8401 Y466.5846 I0.0000 J-2.0000
G1 X75.8401 Y280.5194 Z-2.5833
G1 X75.8401 Y280.5194 Z-5.1667
G1 X75.8401 Y466.5846 Z-5.1667
G2 X77.8401 Y468.5846 I2.0000 J0.0000
G1 X92.8401 Y468.5846 Z-5.1667
G2 X94.8401 Y466.5846 I0.0000 J-2.0000
G1 X94.8401 Y94.4542 Z-5.1667
G2 X92.8401 Y92.4542 I-2.0000 J0.0000
G1 X77.8401 Y92.4542 Z-5.1667
G2 X75.8401 Y94.4542 I0.0000 J2.0000
G1 X75.8401 Y280.5194 Z-5.1667
G1 X75.8401 Y280.5194 Z-7.7500
G1 X75.8401 Y94.4542 Z-7.7500
G3 X77.8401 Y92.4542 I2.0000 J0.0000
G1 X92.8401 Y92.4542 Z-7.7500
G3 X94.8401 Y94.4542 I0.0000 J2.0000
G1 X94.8401 Y466.5846 Z-7.7500
G3 X92.8401 Y468.5846 I-2.0000 J0.0000
G1 X77.8401 Y468.5846 Z-7.7500
G3 X75.8401 Y466.5846 I0.0000 J-2.0000
G1 X75.8401 Y280.5194 Z-7.7500
G1 X75.8401 Y280.5194 Z-10.3333
G1 X75.8401 Y466.5846 Z-10.3333
G2 X77.8401 Y468.5846 I2.0000 J0.0000
G1 X92.8401 Y468.5846 Z-10.3333
G2 X94.8401 Y466.5846 I0.0000 J-2.0000
G1 X94.8401 Y94.4542 Z-10.3333
G2 X92.8401 Y92.4542 I-2.0000 J0.0000
G1 X77.8401 Y92.4542 Z-10.3333
G2 X75.8401 Y94.4542 I0.0000 J2.0000
G1 X75.8401 Y280.5194 Z-10.3333
G1 X75.8401 Y280.5194 Z-12.9167
G1 X75.8401 Y184.8098 Z-12.9167
G1 X75.8401 Y184.8098 Z-10.7000
G1 X75.8401 Y174.8098 Z-10.7000
G1 X75.8401 Y174.8098 Z-12.9167
G1 X75.8401 Y94.4542 Z-12.9167
G3 X77.8401 Y92.4542 I2.0000 J0.0000
G1 X92.8401 Y92.4542 Z-12.9167
G3 X94.8401 Y94.4542 I0.0000 J2.0000
G1 X94.8401 Y174.8135 Z-12.9167
G1 X94.8401 Y174.8135 Z-10.7000
G1 X94.8401 Y184.8135 Z-10.7000
G1 X94.8401 Y184.8135 Z-12.9167
G1 X94.8401 Y376.2327 Z-12.9167
G1 X94.8401 Y376.2327 Z-10.7000
G1 X94.8401 Y386.2327 Z-10.7000
G1 X94.8401 Y386.2327 Z-12.9167
G1 X94.8401 Y466.5846 Z-12.9167
G3 X92.8401 Y468.5846 I-2.0000 J0.0000
G1 X77.8401 Y468.5846 Z-12.9167
G3 X75.8401 Y466.5846 I0.0000 J-2.0000
G1 X75.8401 Y386.2217 Z-12.9167
G1 X75.8401 Y386.2217 Z-10.7000
G1 X75.8401 Y376.2217 Z-10.7000
G1 X75.8401 Y376.2217 Z-12.9167
G1 X75.8401 Y280.5194 Z-12.9167
G1 X75.8401 Y280.5194 Z-15.5000
G1 X75.8401 Y376.2217 Z-15.5000
G1 X75.8401 Y376.2217 Z-10.7000
G1 X75.8401 Y386.2217 Z-10.7000
G1 X75.8401 Y386.2217 Z-15.5000
G1 X75.8401 Y466.5846 Z-15.5000
G2 X77.8401 Y468.5846 I2.0000 J0.0000
G1 X92.8401 Y468.5846 Z-15.5000
G2 X94.8401 Y466.5846 I0.0000 J-2.0000
G1 X94.8401 Y386.2327 Z-15.5000
G1 X94.8401 Y386.2327 Z-10.7000
G1 X94.8401 Y376.2327 Z-10.7000
G1 X94.8401 Y376.2327 Z-15.5000
G1 X94.8401 Y184.8135 Z-15.5000
G1 X94.8401 Y184.8135 Z-10.7000
G1 X94.8401 Y174.8135 Z-10.7000
G1 X94.8401 Y174.8135 Z-15.5000
G1 X94.8401 Y94.4542 Z-15.5000
G2 X92.8401 Y92.4542 I-2.0000 J0.0000
G1 X77.8401 Y92.4542 Z-15.5000
G2 X75.8401 Y94.4542 I0.0000 J2.0000
G1 X75.8401 Y174.8098 Z-15.5000
G1 X75.8401 Y174.8098 Z-10.7000
G1 X75.8401 Y184.8098 Z-10.7000
G1 X75.8401 Y184.8098 Z-15.5000
G1 X75.8401 Y280.5194 Z-15.5000
G1 X75.8401 Y280.5194 Z10.0000 F12000.
G1 X203.3125 Y281.1838 Z10.0000 F12000.
G1 X203.3125 Y281.1838 Z-2.5833 F2000.
G1 X203.3125 Y51.1838 Z-2.5833 F3500.
G2 X195.3125 Y43.1838 I-8.0000 J0.0000
G1 X35.3125 Y43.1838 Z-2.5833
G2 X27.3125 Y51.1838 I0.0000 J8.0000
G1 X27.3125 Y511.1838 Z-2.5833
G2 X35.3125 Y519.1838 I8.0000 J0.0000
G1 X195.3125 Y519.1838 Z-2.5833
G2 X203.3125 Y511.1838 I0.0000 J-8.0000
G1 X203.3125 Y281.1838 Z-2.5833
G1 X203.3125 Y281.1838 Z-5.1667
G1 X203.3125 Y51.1838 Z-5.1667
G2 X195.3125 Y43.1838 I-8.0000 J0.0000
G1 X35.3125 Y43.1838 Z-5.1667
G2 X27.3125 Y51.1838 I0.0000 J8.0000
G1 X27.3125 Y511.1838 Z-5.1667
G2 X35.3125 Y519.1838 I8.0000 J0.0000
G1 X195.3125 Y519.1838 Z-5.1667
G2 X203.3125 Y511.1838 I0.0000 J-8.0000
G1 X203.3125 Y281.1838 Z-5.1667
G1 X203.3125 Y281.1838 Z-7.7500
G1 X203.3125 Y51.1838 Z-7.7500
G2 X195.3125 Y43.1838 I-8.0000 J0.0000
G1 X35.3125 Y43.1838 Z-7.7500
G2 X27.3125 Y51.1838 I0.0000 J8.0000
G1 X27.3125 Y511.1838 Z-7.7500
G2 X35.3125 Y519.1838 I8.0000 J0.0000
G1 X195.3125 Y519.1838 Z-7.7500
G2 X203.3125 Y511.1838 I0.0000 J-8.0000
G1 X203.3125 Y281.1838 Z-7.7500
G1 X203.3125 Y281.1838 Z-10.3333
G1 X203.3125 Y51.1838 Z-10.3333
G2 X195.3125 Y43.1838 I-8.0000 J0.0000
G1 X35.3125 Y43.1838 Z-10.3333
G2 X27.3125 Y51.1838 I0.0000 J8.0000
G1 X27.3125 Y511.1838 Z-10.3333
G2 X35.3125 Y519.1838 I8.0000 J0.0000
G1 X195.3125 Y519.1838 Z-10.3333
G2 X203.3125 Y511.1838 I0.0000 J-8.0000
G1 X203.3125 Y281.1838 Z-10.3333
G1 X203.3125 Y281.1838 Z-12.9167
G1 X203.3125 Y180.2325 Z-12.9167
G1 X203.3125 Y180.2325 Z-11.5000
G1 X203.3125 Y170.2325 Z-11.5000
G1 X203.3125 Y170.2325 Z-12.9167
G1 X203.3125 Y51.1838 Z-12.9167
G2 X195.3125 Y43.1838 I-8.0000 J0.0000
G1 X120.3106 Y43.1838 Z-12.9167
G1 X120.3106 Y43.1838 Z-11.5000
G1 X110.3106 Y43.1838 Z-11.5000
G1 X110.3106 Y43.1838 Z-12.9167
G1 X35.3125 Y43.1838 Z-12.9167
G2 X27.3125 Y51.1838 I0.0000 J8.0000
G1 X27.3125 Y170.2361 Z-12.9167
G1 X27.3125 Y170.2361 Z-11.5000
G1 X27.3125 Y180.2361 Z-11.5000
G1 X27.3125 Y180.2361 Z-12.9167
G1 X27.3125 Y382.1388 Z-12.9167
G1 X27.3125 Y382.1388 Z-11.5000
G1 X27.3125 Y392.1388 Z-11.5000
G1 X27.3125 Y392.1388 Z-12.9167
G1 X27.3125 Y511.1838 Z-12.9167
G2 X35.3125 Y519.1838 I8.0000 J0.0000
G1 X110.3180 Y519.1838 Z-12.9167
G1 X110.3180 Y519.1838 Z-11.5000
G1 X120.3180 Y519.1838 Z-11.5000
G1 X120.3180 Y519.1838 Z-12.9167
G1 X195.3125 Y519.1838 Z-12.9167
G2 X203.3125 Y511.1838 I0.0000 J-8.0000
G1 X203.3125 Y392.1278 Z-12.9167
G1 X203.3125 Y392.1278 Z-11.5000
G1 X203.3125 Y382.1278 Z-11.5000
G1 X203.3125 Y382.1278 Z-12.9167
G1 X203.3125 Y281.1838 Z-12.9167
G1 X203.3125 Y281.1838 Z-15.5000
G1 X203.3125 Y180.2325 Z-15.5000
G1 X203.3125 Y180.2325 Z-11.5000
G1 X203.3125 Y170.2325 Z-11.5000
G1 X203.3125 Y170.2325 Z-15.5000
G1 X203.3125 Y51.1838 Z-15.5000
G2 X195.3125 Y43.1838 I-8.0000 J0.0000
G1 X120.3106 Y43.1838 Z-15.5000
G1 X120.3106 Y43.1838 Z-11.5000
G1 X110.3106 Y43.1838 Z-11.5000
G1 X110.3106 Y43.1838 Z-15.5000
G1 X35.3125 Y43.1838 Z-15.5000
G2 X27.3125 Y51.1838 I0.0000 J8.0000
G1 X27.3125 Y170.2361 Z-15.5000
G1 X27.3125 Y170.2361 Z-11.5000
G1 X27.3125 Y180.2361 Z-11.5000
G1 X27.3125 Y180.2361 Z-15.5000
G1 X27.3125 Y382.1388 Z-15.5000
G1 X27.3125 Y382.1388 Z-11.5000
G1 X27.3125 Y392.1388 Z-11.5000
G1 X27.3125 Y392.1388 Z-15.5000
G1 X27.3125 Y511.1838 Z-15.5000
G2 X35.3125 Y519.1838 I8.0000 J0.0000
G1 X110.3180 Y519.1838 Z-15.5000
G1 X110.3180 Y519.1838 Z-11.5000
G1 X120.3180 Y519.1838 Z-11.5000
G1 X120.3180 Y519.1838 Z-15.5000
G1 X195.3125 Y519.1838 Z-15.5000
G2 X203.3125 Y511.1838 I0.0000 J-8.0000
G1 X203.3125 Y392.1278 Z-15.5000
G1 X203.3125 Y392.1278 Z-11.5000
G1 X203.3125 Y382.1278 Z-11.5000
G1 X203.3125 Y382.1278 Z-15.5000
G1 X203.3125 Y281.1838 Z-15.5000
G1 X203.3125 Y281.1838 Z10.0000 F12000.
M9
M5
M30
(--THE END - THANK YOU FOR USING THIS AWESOME POSTPROCESSOR---)
